; generated by Slic3r 1.1.1-dev on 2014-05-12 at 13:20:50

; perimeters extrusion width = 0.50mm
; infill extrusion width = 0.60mm
; solid infill extrusion width = 0.60mm
; top infill extrusion width = 0.55mm

G21 ; set units to millimeters
M107
G28 ; home all axes
G90 ; use absolute coordinates
G92 E0
M82 ; use absolute distances for extrusion
M204 S2000
G1 F1800.000 E-2.00000
G92 E0
G1 Z0.350 F9600.000
G1 X56.398 Y76.507 F9600.000
G1 E2.00000 F1800.000
G1 X58.589 Y75.599 E2.06823 F4500
G1 X60.164 Y75.421 E2.11385
G1 X139.836 Y75.421 E4.40625
G1 X142.173 Y75.819 E4.47448
G1 X144.249 Y76.966 E4.54270
G1 X145.829 Y78.734 E4.61093
G1 X146.736 Y80.924 E4.67916
G1 X146.914 Y82.500 E4.72479
G1 X146.914 Y117.500 E5.73185
G1 X146.517 Y119.838 E5.80008
G1 X145.370 Y121.913 E5.86831
G1 X143.602 Y123.493 E5.93654
G1 X141.411 Y124.401 E6.00476
G1 X139.836 Y124.579 E6.05039
G1 X60.164 Y124.579 E8.34278
G1 X57.827 Y124.181 E8.41101
G1 X55.751 Y123.034 E8.47924
G1 X54.171 Y121.266 E8.54747
G1 X53.264 Y119.076 E8.61570
G1 X53.086 Y117.500 E8.66132
G1 X53.086 Y82.500 E9.66839
G1 X53.483 Y80.162 E9.73661
G1 X54.630 Y78.087 E9.80484
G1 X56.342 Y76.557 E9.87091
G1 X56.914 Y76.826 F9600.000
G1 X60.164 Y75.961 E9.96768 F4500
G1 X139.836 Y75.961 E12.26008
G1 X142.079 Y76.358 E12.32564
G1 X144.050 Y77.500 E12.39119
G1 X145.510 Y79.250 E12.45675
G1 X146.375 Y82.500 E12.55352
G1 X146.375 Y117.500 E13.56059
G1 X145.978 Y119.744 E13.62615
G1 X144.835 Y121.715 E13.69170
G1 X143.086 Y123.174 E13.75726
G1 X139.836 Y124.039 E13.85403
G1 X60.164 Y124.039 E16.14643
G1 X57.921 Y123.642 E16.21199
G1 X55.950 Y122.500 E16.27754
G1 X54.490 Y120.750 E16.34310
G1 X53.625 Y117.500 E16.43987
G1 X53.625 Y82.500 E17.44694
G1 X54.022 Y80.256 E17.51249
G1 X55.165 Y78.285 E17.57805
G1 X56.857 Y76.874 E17.64145
G1 F1800.000 E15.64145
G92 E0
G1 X64.761 Y104.246 F9600.000
G1 E2.00000 F1800.000
G1 X65.408 Y104.182 E2.01872 F2790
G1 X66.055 Y104.246 E2.03743
G1 X66.678 Y104.434 E2.05615
G1 X67.252 Y104.741 E2.07487
G1 X67.754 Y105.154 E2.09358
G1 X68.167 Y105.656 E2.11230
G1 X68.474 Y106.230 E2.13102
G1 X68.663 Y106.853 E2.14973
G1 X68.726 Y107.500 E2.16845
G1 X68.663 Y108.147 E2.18716
G1 X68.474 Y108.770 E2.20588
G1 X68.167 Y109.343 E2.22460
G1 X67.754 Y109.846 E2.24331
G1 X67.252 Y110.259 E2.26203
G1 X66.678 Y110.566 E2.28075
G1 X66.055 Y110.754 E2.29946
G1 X65.408 Y110.818 E2.31818
G1 X64.761 Y110.754 E2.33690
G1 X64.138 Y110.566 E2.35561
G1 X63.565 Y110.259 E2.37433
G1 X63.062 Y109.846 E2.39305
G1 X62.649 Y109.343 E2.41176
G1 X62.342 Y108.770 E2.43048
G1 X62.154 Y108.147 E2.44920
G1 X62.090 Y107.500 E2.46791
G1 X62.154 Y106.853 E2.48663
G1 X62.342 Y106.230 E2.50534
G1 X62.649 Y105.656 E2.52406
G1 X63.062 Y105.154 E2.54278
G1 X63.565 Y104.741 E2.56149
G1 X64.138 Y104.434 E2.58021
G1 X64.689 Y104.267 E2.59677
G1 X64.866 Y104.777 F9600.000
G1 X65.408 Y104.724 E2.61243 F2790
G1 X65.950 Y104.777 E2.62809
G1 X66.471 Y104.935 E2.64375
G1 X66.951 Y105.192 E2.65941
G1 X67.371 Y105.537 E2.67507
G1 X67.717 Y105.958 E2.69073
G1 X67.973 Y106.438 E2.70639
G1 X68.131 Y106.958 E2.72205
G1 X68.184 Y107.500 E2.73771
G1 X68.131 Y108.042 E2.75337
G1 X67.973 Y108.562 E2.76903
G1 X67.717 Y109.042 E2.78469
G1 X67.371 Y109.463 E2.80035
G1 X66.951 Y109.808 E2.81601
G1 X66.471 Y110.065 E2.83167
G1 X65.950 Y110.223 E2.84733
G1 X65.408 Y110.276 E2.86299
G1 X64.866 Y110.223 E2.87865
G1 X64.346 Y110.065 E2.89431
G1 X63.866 Y109.808 E2.90997
G1 X63.445 Y109.463 E2.92563
G1 X63.100 Y109.042 E2.94129
G1 X62.843 Y108.562 E2.95695
G1 X62.685 Y108.042 E2.97261
G1 X62.632 Y107.500 E2.98827
G1 X62.685 Y106.958 E3.00393
G1 X62.843 Y106.438 E3.01959
G1 X63.100 Y105.958 E3.03525
G1 X63.445 Y105.537 E3.05091
G1 X63.866 Y105.192 E3.06657
G1 X64.346 Y104.935 E3.08223
G1 X64.795 Y104.799 E3.09573
G1 X65.043 Y104.309 F9600.000
G1 F1800.000 E1.09573
G92 E0
G1 X131.742 Y106.323 F9600.000
G1 E2.00000 F1800.000
G1 X131.770 Y106.230 E2.00280 F2790
G1 X132.077 Y105.656 E2.02152
G1 X132.489 Y105.154 E2.04023
G1 X132.992 Y104.741 E2.05895
G1 X133.566 Y104.434 E2.07767
G1 X134.188 Y104.246 E2.09638
G1 X134.836 Y104.182 E2.11510
G1 X135.483 Y104.246 E2.13382
G1 X136.105 Y104.434 E2.15253
G1 X136.679 Y104.741 E2.17125
G1 X137.182 Y105.154 E2.18997
G1 X137.595 Y105.657 E2.20869
G1 X137.901 Y106.230 E2.22740
G1 X138.090 Y106.853 E2.24612
G1 X138.154 Y107.500 E2.26483
G1 X138.090 Y108.147 E2.28355
G1 X137.901 Y108.770 E2.30226
G1 X137.594 Y109.344 E2.32098
G1 X137.182 Y109.846 E2.33970
G1 X136.679 Y110.259 E2.35841
G1 X136.105 Y110.566 E2.37713
G1 X135.483 Y110.754 E2.39585
G1 X134.836 Y110.818 E2.41457
G1 X134.188 Y110.754 E2.43328
G1 X133.566 Y110.566 E2.45200
G1 X132.992 Y110.259 E2.47071
G1 X132.489 Y109.846 E2.48943
G1 X132.077 Y109.343 E2.50815
G1 X131.770 Y108.770 E2.52686
G1 X131.581 Y108.147 E2.54558
G1 X131.517 Y107.500 E2.56430
G1 X131.581 Y106.853 E2.58301
G1 X131.720 Y106.395 E2.59677
G1 X132.258 Y106.480 F9600.000
G1 X132.527 Y105.958 E2.61368 F2790
G1 X132.872 Y105.537 E2.62934
G1 X133.293 Y105.192 E2.64500
G1 X133.773 Y104.935 E2.66066
G1 X134.294 Y104.777 E2.67632
G1 X134.836 Y104.724 E2.69198
G1 X135.377 Y104.777 E2.70764
G1 X135.898 Y104.935 E2.72330
G1 X136.378 Y105.192 E2.73896
G1 X136.799 Y105.537 E2.75462
G1 X137.144 Y105.958 E2.77028
G1 X137.401 Y106.438 E2.78594
G1 X137.559 Y106.958 E2.80160
G1 X137.612 Y107.500 E2.81726
G1 X137.559 Y108.042 E2.83292
G1 X137.401 Y108.562 E2.84858
G1 X137.144 Y109.042 E2.86424
G1 X136.799 Y109.463 E2.87990
G1 X136.378 Y109.808 E2.89556
G1 X135.898 Y110.065 E2.91122
G1 X135.377 Y110.223 E2.92688
G1 X134.836 Y110.276 E2.94254
G1 X134.294 Y110.223 E2.95820
G1 X133.773 Y110.065 E2.97386
G1 X133.293 Y109.808 E2.98952
G1 X132.872 Y109.463 E3.00518
G1 X132.527 Y109.042 E3.02084
G1 X132.271 Y108.562 E3.03650
G1 X132.113 Y108.042 E3.05216
G1 X132.059 Y107.500 E3.06782
G1 X132.113 Y106.958 E3.08348
G1 X132.236 Y106.552 E3.09571
G1 X131.962 Y106.076 F9600.000
G1 F1800.000 E1.09571
G92 E0
G1 X139.021 Y116.686 F9600.000
G1 E2.00000 F1800.000
G1 X60.979 Y116.686 E4.24554 F4500
G1 X60.979 Y83.314 E5.20574
G1 X139.021 Y83.314 E7.45128
G1 X139.021 Y116.611 E8.40932
G1 X139.561 Y117.225 F9600.000
G1 X60.439 Y117.225 E10.68589 F4050
G1 X60.439 Y82.775 E11.67713
G1 X139.561 Y82.775 E13.95370
G1 X139.561 Y117.150 E14.94278
G1 X139.128 Y116.975 F9600.000
G1 F1800.000 E12.94278
G92 E0
G1 X138.382 Y109.394 F9600.000
G1 E2.00000 F1800.000
G1 X138.650 Y109.662 E2.00734 F4950
G1 X138.650 Y110.425 E2.02209
G1 X138.038 Y109.813 E2.03883
G1 X137.503 Y110.040 E2.05008
G1 X138.650 Y111.188 E2.08146
G1 X138.650 Y111.951 E2.09621
G1 X137.096 Y110.397 E2.13871
G1 X136.638 Y110.701 E2.14935
G1 X138.650 Y112.713 E2.20437
G1 X138.650 Y113.476 E2.21912
G1 X136.122 Y110.948 E2.28826
G1 X135.533 Y111.122 E2.30013
G1 X138.650 Y114.239 E2.38537
G1 X138.650 Y115.002 E2.40012
G1 X134.839 Y111.191 E2.50434
G1 X133.958 Y111.072 E2.52154
G1 X138.650 Y115.765 E2.64987
G1 X138.437 Y116.315 E2.66127
G1 X105.808 Y83.685 E3.55356
G1 X105.045 Y83.685 E3.56831
G1 X137.675 Y116.315 E4.46061
G1 X136.912 Y116.315 E4.47536
G1 X104.282 Y83.685 E5.36765
G1 X103.519 Y83.685 E5.38240
G1 X136.149 Y116.315 E6.27469
G1 X135.386 Y116.315 E6.28944
G1 X102.756 Y83.685 E7.18174
G1 X101.994 Y83.685 E7.19649
G1 X134.623 Y116.315 E8.08878
G1 X133.860 Y116.315 E8.10353
G1 X101.231 Y83.685 E8.99582
G1 X100.468 Y83.685 E9.01058
G1 X133.097 Y116.315 E9.90287
G1 X132.335 Y116.315 E9.91762
G1 X99.705 Y83.685 E10.80991
G1 X98.942 Y83.685 E10.82466
G1 X131.572 Y116.315 E11.71696
G1 X130.809 Y116.315 E11.73171
G1 X98.179 Y83.685 E12.62400
G1 X97.416 Y83.685 E12.63875
G1 X130.046 Y116.315 E13.53104
G1 X129.283 Y116.315 E13.54580
G1 X96.654 Y83.685 E14.43809
G1 X95.891 Y83.685 E14.45284
G1 X128.520 Y116.315 E15.34513
G1 X127.758 Y116.315 E15.35988
G1 X95.128 Y83.685 E16.25218
G1 X94.365 Y83.685 E16.26693
G1 X126.995 Y116.315 E17.15922
G1 X126.232 Y116.315 E17.17397
G1 X93.602 Y83.685 E18.06626
G1 X92.839 Y83.685 E18.08101
G1 X125.469 Y116.315 E18.97331
G1 X124.706 Y116.315 E18.98806
G1 X92.077 Y83.685 E19.88035
G1 X91.314 Y83.685 E19.89510
G1 X123.943 Y116.315 E20.78740
G1 X123.180 Y116.315 E20.80215
G1 X90.551 Y83.685 E21.69444
G1 X89.788 Y83.685 E21.70919
G1 X122.418 Y116.315 E22.60148
G1 X121.655 Y116.315 E22.61623
G1 X89.025 Y83.685 E23.50853
G1 X88.262 Y83.685 E23.52328
G1 X120.892 Y116.315 E24.41557
G1 X120.129 Y116.315 E24.43032
G1 X87.499 Y83.685 E25.32261
G1 X86.737 Y83.685 E25.33737
G1 X119.366 Y116.315 E26.22966
G1 X118.603 Y116.315 E26.24441
G1 X85.974 Y83.685 E27.13670
G1 X85.211 Y83.685 E27.15145
G1 X117.840 Y116.315 E28.04375
G1 X117.078 Y116.315 E28.05850
G1 X84.448 Y83.685 E28.95079
G1 X83.685 Y83.685 E28.96554
G1 X116.315 Y116.315 E29.85783
G1 X115.552 Y116.315 E29.87259
G1 X82.922 Y83.685 E30.76488
G1 X82.160 Y83.685 E30.77963
G1 X114.789 Y116.315 E31.67192
G1 X114.026 Y116.315 E31.68667
G1 X81.397 Y83.685 E32.57897
G1 X80.634 Y83.685 E32.59372
G1 X113.263 Y116.315 E33.48601
G1 X112.501 Y116.315 E33.50076
G1 X79.871 Y83.685 E34.39305
G1 X79.108 Y83.685 E34.40780
G1 X111.738 Y116.315 E35.30010
G1 X110.975 Y116.315 E35.31485
G1 X78.345 Y83.685 E36.20714
G1 X77.582 Y83.685 E36.22189
G1 X110.212 Y116.315 E37.11419
G1 X109.449 Y116.315 E37.12894
G1 X76.820 Y83.685 E38.02123
G1 X76.057 Y83.685 E38.03598
G1 X108.686 Y116.315 E38.92827
G1 X107.923 Y116.315 E38.94302
G1 X75.294 Y83.685 E39.83532
G1 X74.531 Y83.685 E39.85007
G1 X107.161 Y116.315 E40.74236
G1 X106.398 Y116.315 E40.75711
G1 X73.768 Y83.685 E41.64940
G1 X73.005 Y83.685 E41.66416
G1 X105.635 Y116.315 E42.55645
G1 X104.872 Y116.315 E42.57120
G1 X72.242 Y83.685 E43.46349
G1 X71.480 Y83.685 E43.47824
G1 X104.109 Y116.315 E44.37054
G1 X103.346 Y116.315 E44.38529
G1 X70.717 Y83.685 E45.27758
G1 X69.954 Y83.685 E45.29233
G1 X102.584 Y116.315 E46.18462
G1 X101.821 Y116.315 E46.19937
G1 X69.191 Y83.685 E47.09167
G1 X68.428 Y83.685 E47.10642
G1 X101.058 Y116.315 E47.99871
G1 X100.295 Y116.315 E48.01346
G1 X67.665 Y83.685 E48.90576
G1 X66.903 Y83.685 E48.92051
G1 X99.532 Y116.315 E49.81280
G1 X98.769 Y116.315 E49.82755
G1 X66.140 Y83.685 E50.71984
G1 X65.377 Y83.685 E50.73459
G1 X98.006 Y116.315 E51.62689
G1 X97.244 Y116.315 E51.64164
G1 X64.614 Y83.685 E52.53393
G1 X63.851 Y83.685 E52.54868
G1 X96.481 Y116.315 E53.44097
G1 X95.718 Y116.315 E53.45573
G1 X63.088 Y83.685 E54.34802
G1 X62.325 Y83.685 E54.36277
G1 X94.955 Y116.315 E55.25506
G1 X94.192 Y116.315 E55.26981
G1 X61.563 Y83.685 E56.16211
G1 X61.350 Y84.235 E56.17351
G1 X93.429 Y116.315 E57.05076
G1 X92.666 Y116.315 E57.06551
G1 X61.350 Y84.998 E57.92191
G1 X61.350 Y85.761 E57.93666
G1 X91.904 Y116.315 E58.77219
G1 X91.141 Y116.315 E58.78694
G1 X61.350 Y86.524 E59.60161
G1 X61.350 Y87.287 E59.61637
G1 X90.378 Y116.315 E60.41018
G1 X89.615 Y116.315 E60.42493
G1 X61.350 Y88.049 E61.19788
G1 X61.350 Y88.812 E61.21263
G1 X88.852 Y116.315 E61.96472
G1 X88.089 Y116.315 E61.97947
G1 X61.350 Y89.575 E62.71069
G1 X61.350 Y90.338 E62.72545
G1 X87.327 Y116.315 E63.43581
G1 X86.564 Y116.315 E63.45056
G1 X61.350 Y91.101 E64.14007
G1 X61.350 Y91.864 E64.15482
G1 X85.801 Y116.315 E64.82347
G1 X85.038 Y116.315 E64.83822
G1 X61.350 Y92.626 E65.48600
G1 X61.350 Y93.389 E65.50075
G1 X84.275 Y116.315 E66.12767
G1 X83.512 Y116.315 E66.14242
G1 X61.350 Y94.152 E66.74849
G1 X61.350 Y94.915 E66.76324
G1 X82.749 Y116.315 E67.34844
G1 X81.987 Y116.315 E67.36319
G1 X61.350 Y95.678 E67.92753
G1 X61.350 Y96.441 E67.94228
G1 X81.224 Y116.315 E68.48576
G1 X80.461 Y116.315 E68.50051
G1 X61.350 Y97.204 E69.02313
G1 F1800.000 E67.02313
G92 E0
G1 X61.350 Y105.595 F9600.000
G1 E2.00000 F1800.000
G1 X61.378 Y105.623 E2.00077 F4950
G1 X62.010 Y105.493 E2.01326
G1 X61.350 Y104.832 E2.03132
G1 X61.350 Y104.069 E2.04607
G1 X62.515 Y105.235 E2.07795
G1 X62.872 Y104.829 E2.08840
G1 X61.350 Y103.306 E2.13004
G1 X61.350 Y102.544 E2.14479
G1 X63.291 Y104.485 E2.19789
G1 X63.577 Y104.008 E2.20864
G1 X61.350 Y101.781 E2.26955
G1 X61.350 Y101.018 E2.28430
G1 X64.106 Y103.775 E2.35969
G1 X64.949 Y103.854 E2.37606
G1 X61.350 Y100.255 E2.47448
G1 X61.350 Y99.492 E2.48923
G1 X65.695 Y103.837 E2.60806
G1 X66.662 Y104.042 E2.62718
G1 X61.350 Y98.729 E2.77247
G1 X61.350 Y97.966 E2.78722
G1 X79.698 Y116.315 E3.28897
G1 X78.935 Y116.315 E3.30373
G1 X68.866 Y106.246 E3.57908
G1 X69.071 Y107.213 E3.59820
G1 X78.172 Y116.315 E3.84710
G1 X77.410 Y116.315 E3.86185
G1 X69.054 Y107.959 E4.09035
G1 X68.917 Y108.585 E4.10274
G1 X76.647 Y116.315 E4.31411
G1 X75.884 Y116.315 E4.32886
G1 X68.701 Y109.132 E4.52529
G1 X68.423 Y109.617 E4.53609
G1 X75.121 Y116.315 E4.71926
G1 X74.358 Y116.315 E4.73401
G1 X68.079 Y110.036 E4.90573
G1 X67.673 Y110.393 E4.91618
G1 X73.595 Y116.315 E5.07812
G1 X72.832 Y116.315 E5.09287
G1 X67.216 Y110.699 E5.24646
G1 X66.701 Y110.946 E5.25751
G1 X72.070 Y116.315 E5.40432
G1 X71.307 Y116.315 E5.41907
G1 X66.113 Y111.121 E5.56109
G1 X65.419 Y111.190 E5.57458
G1 X70.544 Y116.315 E5.71472
G1 X69.781 Y116.315 E5.72948
G1 X64.542 Y111.076 E5.87274
G1 F1800.000 E3.87274
G92 E0
G1 X62.012 Y109.308 F9600.000
G1 E2.00000 F1800.000
G1 X69.018 Y116.315 E2.19160 F4950
G1 X68.255 Y116.315 E2.20635
G1 X61.350 Y109.409 E2.39519
G1 X61.350 Y110.172 E2.40994
G1 X67.492 Y116.315 E2.57793
G1 X66.730 Y116.315 E2.59268
G1 X61.350 Y110.935 E2.73980
G1 X61.350 Y111.698 E2.75455
G1 X65.967 Y116.315 E2.88081
G1 X65.204 Y116.315 E2.89556
G1 X61.350 Y112.461 E3.00096
G1 X61.350 Y113.223 E3.01571
G1 X64.441 Y116.315 E3.10025
G1 X63.678 Y116.315 E3.11500
G1 X61.350 Y113.986 E3.17867
G1 X61.350 Y114.749 E3.19342
G1 X62.915 Y116.315 E3.23624
G1 X62.153 Y116.315 E3.25099
G1 X61.350 Y115.512 E3.27295
G1 X61.350 Y116.275 E3.28770
G1 X61.390 Y116.315 E3.28879
G1 F1800.000 E1.28879
G92 E0
G1 X115.725 Y83.685 F9600.000
G1 E2.00000 F1800.000
G1 X136.078 Y104.038 E2.55658 F4950
G1 X135.113 Y103.836 F9600.000
G1 X114.962 Y83.685 E3.10764 F4950
G1 X114.199 Y83.685 E3.12239
G1 X134.369 Y103.855 E3.67396
G1 X133.744 Y103.993 E3.68633
G1 X113.436 Y83.685 E4.24167
G1 X112.673 Y83.685 E4.25642
G1 X133.198 Y104.210 E4.81769
G1 X132.714 Y104.489 E4.82849
G1 X111.911 Y83.685 E5.39740
G1 X111.148 Y83.685 E5.41215
G1 X132.295 Y104.833 E5.99045
G1 X131.939 Y105.239 E6.00091
G1 X110.385 Y83.685 E6.59033
G1 X109.622 Y83.685 E6.60508
G1 X131.634 Y105.697 E7.20703
G1 X131.387 Y106.213 E7.21809
G1 X108.859 Y83.685 E7.83415
G1 X108.096 Y83.685 E7.84890
G1 X131.213 Y106.802 E8.48106
G1 X131.145 Y107.497 E8.49455
G1 X107.334 Y83.685 E9.14570
G1 X106.571 Y83.685 E9.16045
G1 X131.263 Y108.378 E9.83570
G1 F1800.000 E7.83570
G92 E0
G1 X138.650 Y105.848 F9600.000
G1 E2.00000 F1800.000
G1 X138.259 Y105.457 E2.01070 F4950
G1 X138.650 Y105.085 E2.02113
G1 X117.251 Y83.685 E2.60633
G1 X116.488 Y83.685 E2.62108
G1 X137.845 Y105.043 E3.20514
G1 X138.650 Y104.322 E3.22603
G1 X118.013 Y83.685 E3.79037
G1 X118.776 Y83.685 E3.80512
G1 X138.650 Y103.559 E4.34860
G1 X138.650 Y102.796 E4.36335
G1 X119.539 Y83.685 E4.88597
G1 X120.302 Y83.685 E4.90072
G1 X138.650 Y102.034 E5.40248
G1 X138.650 Y101.271 E5.41723
G1 X121.065 Y83.685 E5.89812
G1 X121.828 Y83.685 E5.91287
G1 X138.650 Y100.508 E6.37291
G1 X138.650 Y99.745 E6.38766
G1 X122.590 Y83.685 E6.82683
G1 X123.353 Y83.685 E6.84159
G1 X138.650 Y98.982 E7.25990
G1 X138.650 Y98.219 E7.27465
G1 X124.116 Y83.685 E7.67210
G1 X124.879 Y83.685 E7.68685
G1 X138.650 Y97.456 E8.06344
G1 X138.650 Y96.694 E8.07819
G1 X125.642 Y83.685 E8.43393
G1 X126.405 Y83.685 E8.44868
G1 X138.650 Y95.931 E8.78355
G1 X138.650 Y95.168 E8.79830
G1 X127.168 Y83.685 E9.11230
G1 X127.930 Y83.685 E9.12706
G1 X138.650 Y94.405 E9.42020
G1 X138.650 Y93.642 E9.43495
G1 X128.693 Y83.685 E9.70724
G1 X129.456 Y83.685 E9.72199
G1 X138.650 Y92.879 E9.97342
G1 X138.650 Y92.117 E9.98817
G1 X130.219 Y83.685 E10.21873
G1 X130.982 Y83.685 E10.23348
G1 X138.650 Y91.354 E10.44319
G1 X138.650 Y90.591 E10.45794
G1 X131.745 Y83.685 E10.64678
G1 X132.508 Y83.685 E10.66153
G1 X138.650 Y89.828 E10.82951
G1 X138.650 Y89.065 E10.84426
G1 X133.270 Y83.685 E10.99138
G1 X134.033 Y83.685 E11.00614
G1 X138.650 Y88.302 E11.13239
