; generated by Slic3r 1.1.1-dev on 2014-05-12 at 14:54:42

; perimeters extrusion width = 0.50mm
; infill extrusion width = 0.60mm
; solid infill extrusion width = 0.60mm
; top infill extrusion width = 0.55mm

G21 ; set units to millimeters
M107
G28 ; home all axes
G90 ; use absolute coordinates
G92 E0
M82 ; use absolute distances for extrusion
M204 S2000
G1 F1800.000 E-2.00000
G92 E0
G1 Z0.350 F9600.000
G1 X26.734 Y62.007 F9600.000
G1 E2.00000 F1800.000
G1 X28.924 Y61.099 E2.06823 F4500
G1 X30.500 Y60.921 E2.11385
G1 X169.500 Y60.921 E6.11333
G1 X171.838 Y61.319 E6.18156
G1 X173.913 Y62.466 E6.24979
G1 X175.493 Y64.234 E6.31802
G1 X176.401 Y66.424 E6.38625
G1 X176.579 Y68.000 E6.43187
G1 X176.579 Y132.000 E8.27336
G1 X176.181 Y134.338 E8.34159
G1 X175.034 Y136.413 E8.40982
G1 X173.266 Y137.993 E8.47805
G1 X171.076 Y138.901 E8.54627
G1 X169.500 Y139.079 E8.59190
G1 X30.500 Y139.079 E12.59138
G1 X28.162 Y138.681 E12.65961
G1 X26.087 Y137.534 E12.72784
G1 X24.507 Y135.766 E12.79606
G1 X23.599 Y133.576 E12.86429
G1 X23.421 Y132.000 E12.90992
G1 X23.421 Y68.000 E14.75140
G1 X23.819 Y65.662 E14.81963
G1 X24.966 Y63.587 E14.88786
G1 X26.678 Y62.057 E14.95393
G1 X27.250 Y62.326 F9600.000
G1 X30.500 Y61.461 E15.05070 F4500
G1 X169.500 Y61.461 E19.05018
G1 X171.744 Y61.858 E19.11574
G1 X173.715 Y63.000 E19.18130
G1 X175.174 Y64.750 E19.24686
G1 X176.039 Y68.000 E19.34363
G1 X176.039 Y132.000 E21.18511
G1 X175.642 Y134.244 E21.25067
G1 X174.500 Y136.215 E21.31623
G1 X172.750 Y137.674 E21.38179
G1 X169.500 Y138.539 E21.47856
G1 X30.500 Y138.539 E25.47804
G1 X28.256 Y138.142 E25.54360
G1 X26.285 Y137.000 E25.60916
G1 X24.826 Y135.250 E25.67472
G1 X23.961 Y132.000 E25.77149
G1 X23.961 Y68.000 E27.61297
G1 X24.358 Y65.756 E27.67853
G1 X25.500 Y63.785 E27.74409
G1 X27.192 Y62.374 E27.80749
G1 F1800.000 E25.80749
G92 E0
G1 X35.686 Y73.186 F9600.000
G1 E2.00000 F1800.000
G1 X164.314 Y73.186 E5.70106 F4500
G1 X164.314 Y126.814 E7.24413
G1 X35.686 Y126.814 E10.94518
G1 X35.686 Y73.261 E12.48609
G1 X36.225 Y73.725 F9600.000
G1 X163.775 Y73.725 E16.15612 F4050
G1 X163.775 Y126.275 E17.66815
G1 X36.225 Y126.275 E21.33818
G1 X36.225 Y73.800 E22.84805
G1 X36.225 Y73.225 F9600.000
G1 F1800.000 E20.84805
G92 E0
G1 X31.314 Y68.814 F9600.000
G1 E2.00000 F1800.000
G1 X168.686 Y68.814 E5.95262 F4500
G1 X168.686 Y131.186 E7.74725
G1 X31.314 Y131.186 E11.69987
G1 X31.314 Y68.889 E13.49234
G1 X30.775 Y68.275 F9600.000
G1 X169.225 Y68.275 E17.47600 F4050
G1 X169.225 Y131.725 E19.30166
G1 X30.775 Y131.725 E23.28531
G1 X30.775 Y68.350 E25.10881
G1 X31.208 Y68.525 F9600.000
G1 F1800.000 E23.10881
G92 E0
G1 X31.725 Y130.815 F9600.000
G1 E2.00000 F1800.000
G1 X31.685 Y130.775 E2.00110 F4950
G1 X31.685 Y130.010 E2.01595
G1 X32.490 Y130.815 E2.03804
G1 X33.256 Y130.815 E2.05289
G1 X31.685 Y129.244 E2.09599
G1 X31.685 Y128.479 E2.11084
G1 X34.021 Y130.815 E2.17493
G1 X34.786 Y130.815 E2.18978
G1 X31.685 Y127.714 E2.27487
G1 X31.685 Y126.949 E2.28972
G1 X35.551 Y130.815 E2.39581
G1 X36.316 Y130.815 E2.41066
G1 X31.685 Y126.184 E2.53775
G1 X31.685 Y125.419 E2.55260
G1 X37.081 Y130.815 E2.70069
G1 X37.847 Y130.815 E2.71554
G1 X31.685 Y124.653 E2.88463
G1 X31.685 Y123.888 E2.89948
G1 X38.612 Y130.815 E3.08957
G1 X39.377 Y130.815 E3.10441
G1 X31.685 Y123.123 E3.31550
G1 X31.685 Y122.358 E3.33035
G1 X35.315 Y125.987 E3.42996
G1 X35.315 Y125.222 E3.44481
G1 X31.685 Y121.593 E3.54441
G1 X31.685 Y120.828 E3.55926
G1 X35.315 Y124.457 E3.65887
G1 X35.315 Y123.692 E3.67372
G1 X31.685 Y120.062 E3.77333
G1 X31.685 Y119.297 E3.78817
G1 X35.315 Y122.927 E3.88778
G1 X35.315 Y122.162 E3.90263
G1 X31.685 Y118.532 E4.00224
G1 X31.685 Y117.767 E4.01709
G1 X35.315 Y121.396 E4.11669
G1 X35.315 Y120.631 E4.13154
G1 X31.685 Y117.002 E4.23115
G1 X31.685 Y116.237 E4.24600
G1 X35.315 Y119.866 E4.34561
G1 X35.315 Y119.101 E4.36046
G1 X31.685 Y115.471 E4.46006
G1 X31.685 Y114.706 E4.47491
G1 X35.315 Y118.336 E4.57452
G1 X35.315 Y117.571 E4.58937
G1 X31.685 Y113.941 E4.68898
G1 X31.685 Y113.176 E4.70382
G1 X35.315 Y116.805 E4.80343
G1 X35.315 Y116.040 E4.81828
G1 X31.685 Y112.411 E4.91789
G1 X31.685 Y111.646 E4.93274
G1 X35.315 Y115.275 E5.03234
G1 X35.315 Y114.510 E5.04719
G1 X31.685 Y110.880 E5.14680
G1 X31.685 Y110.115 E5.16165
G1 X35.315 Y113.745 E5.26126
G1 X35.315 Y112.980 E5.27610
G1 X31.685 Y109.350 E5.37571
G1 X31.685 Y108.585 E5.39056
G1 X35.315 Y112.214 E5.49017
G1 X35.315 Y111.449 E5.50502
G1 X31.685 Y107.820 E5.60462
G1 X31.685 Y107.054 E5.61947
G1 X35.315 Y110.684 E5.71908
G1 X35.315 Y109.919 E5.73393
G1 X31.685 Y106.289 E5.83354
G1 X31.685 Y105.524 E5.84839
G1 X35.315 Y109.154 E5.94799
G1 X35.315 Y108.389 E5.96284
G1 X31.685 Y104.759 E6.06245
G1 X31.685 Y103.994 E6.07730
G1 X35.315 Y107.623 E6.17691
G1 X35.315 Y106.858 E6.19175
G1 X31.685 Y103.229 E6.29136
G1 X31.685 Y102.463 E6.30621
G1 X35.315 Y106.093 E6.40582
G1 X35.315 Y105.328 E6.42067
G1 X31.685 Y101.698 E6.52027
G1 X31.685 Y100.933 E6.53512
G1 X35.315 Y104.563 E6.63473
G1 X35.315 Y103.798 E6.64958
G1 X31.685 Y100.168 E6.74919
G1 X31.685 Y99.403 E6.76404
G1 X35.315 Y103.032 E6.86364
G1 X35.315 Y102.267 E6.87849
G1 X31.685 Y98.638 E6.97810
G1 X31.685 Y97.872 E6.99295
G1 X35.315 Y101.502 E7.09256
G1 X35.315 Y100.737 E7.10740
G1 X31.685 Y97.107 E7.20701
G1 X31.685 Y96.342 E7.22186
G1 X35.315 Y99.972 E7.32147
G1 X35.315 Y99.207 E7.33632
G1 X31.685 Y95.577 E7.43592
G1 X31.685 Y94.812 E7.45077
G1 X35.315 Y98.441 E7.55038
G1 X35.315 Y97.676 E7.56523
G1 X31.685 Y94.047 E7.66484
G1 X31.685 Y93.281 E7.67969
G1 X35.315 Y96.911 E7.77929
G1 X35.315 Y96.146 E7.79414
G1 X31.685 Y92.516 E7.89375
G1 X31.685 Y91.751 E7.90860
G1 X35.315 Y95.381 E8.00821
G1 X35.315 Y94.615 E8.02305
G1 X31.685 Y90.986 E8.12266
G1 X31.685 Y90.221 E8.13751
G1 X35.315 Y93.850 E8.23712
G1 X35.315 Y93.085 E8.25197
G1 X31.685 Y89.456 E8.35157
G1 X31.685 Y88.690 E8.36642
G1 X35.315 Y92.320 E8.46603
G1 X35.315 Y91.555 E8.48088
G1 X31.685 Y87.925 E8.58049
G1 X31.685 Y87.160 E8.59534
G1 X35.315 Y90.790 E8.69494
G1 X35.315 Y90.024 E8.70979
G1 X31.685 Y86.395 E8.80940
G1 X31.685 Y85.630 E8.82425
G1 X35.315 Y89.259 E8.92386
G1 X35.315 Y88.494 E8.93870
G1 X31.685 Y84.865 E9.03831
G1 X31.685 Y84.099 E9.05316
G1 X35.315 Y87.729 E9.15277
G1 X35.315 Y86.964 E9.16762
G1 X31.685 Y83.334 E9.26722
G1 X31.685 Y82.569 E9.28207
G1 X35.315 Y86.199 E9.38168
G1 X35.315 Y85.433 E9.39653
G1 X31.685 Y81.804 E9.49614
G1 X31.685 Y81.039 E9.51098
G1 X35.315 Y84.668 E9.61059
G1 X35.315 Y83.903 E9.62544
G1 X31.685 Y80.274 E9.72505
G1 X31.685 Y79.508 E9.73990
G1 X35.315 Y83.138 E9.83950
G1 X35.315 Y82.373 E9.85435
G1 X31.685 Y78.743 E9.95396
G1 X31.685 Y77.978 E9.96881
G1 X35.315 Y81.608 E10.06842
G1 X35.315 Y80.842 E10.08327
G1 X31.685 Y77.213 E10.18287
G1 X31.685 Y76.448 E10.19772
G1 X35.315 Y80.077 E10.29733
G1 X35.315 Y79.312 E10.31218
G1 X31.685 Y75.683 E10.41179
G1 X31.685 Y74.917 E10.42663
G1 X35.315 Y78.547 E10.52624
G1 X35.315 Y77.782 E10.54109
G1 X31.685 Y74.152 E10.64070
G1 X31.685 Y73.387 E10.65555
G1 X35.315 Y77.017 E10.75515
G1 X35.315 Y76.251 E10.77000
G1 X31.685 Y72.622 E10.86961
G1 X31.685 Y71.857 E10.88446
G1 X35.315 Y75.486 E10.98407
G1 X35.315 Y74.721 E10.99892
G1 X31.685 Y71.091 E11.09852
G1 X31.685 Y70.326 E11.11337
G1 X35.315 Y73.956 E11.21298
G1 X35.315 Y73.191 E11.22783
G1 X31.685 Y69.561 E11.32744
G1 X32.074 Y69.185 E11.33794
G1 X35.704 Y72.815 E11.43754
G1 X36.469 Y72.815 E11.45239
G1 X32.840 Y69.185 E11.55200
G1 X33.605 Y69.185 E11.56685
G1 X37.234 Y72.815 E11.66646
G1 X38.000 Y72.815 E11.68131
G1 X34.370 Y69.185 E11.78091
G1 X35.135 Y69.185 E11.79576
G1 X38.765 Y72.815 E11.89537
G1 X39.530 Y72.815 E11.91022
G1 X35.900 Y69.185 E12.00983
G1 X36.665 Y69.185 E12.02467
G1 X40.295 Y72.815 E12.12428
G1 X41.060 Y72.815 E12.13913
G1 X37.431 Y69.185 E12.23874
G1 X38.196 Y69.185 E12.25359
G1 X41.825 Y72.815 E12.35319
G1 X42.591 Y72.815 E12.36804
G1 X38.961 Y69.185 E12.46765
G1 X39.726 Y69.185 E12.48250
G1 X43.356 Y72.815 E12.58211
G1 X44.121 Y72.815 E12.59696
G1 X40.491 Y69.185 E12.69656
G1 X41.257 Y69.185 E12.71141
G1 X44.886 Y72.815 E12.81102
G1 X45.651 Y72.815 E12.82587
G1 X42.022 Y69.185 E12.92548
G1 X42.787 Y69.185 E12.94032
G1 X46.416 Y72.815 E13.03993
G1 X47.182 Y72.815 E13.05478
G1 X43.552 Y69.185 E13.15439
G1 X44.317 Y69.185 E13.16924
G1 X47.947 Y72.815 E13.26884
G1 X48.712 Y72.815 E13.28369
G1 X45.082 Y69.185 E13.38330
G1 X45.848 Y69.185 E13.39815
G1 X49.477 Y72.815 E13.49776
G1 X50.242 Y72.815 E13.51260
G1 X46.613 Y69.185 E13.61221
G1 X47.378 Y69.185 E13.62706
G1 X51.007 Y72.815 E13.72667
G1 X51.773 Y72.815 E13.74152
G1 X48.143 Y69.185 E13.84113
G1 X48.908 Y69.185 E13.85597
G1 X52.538 Y72.815 E13.95558
G1 X53.303 Y72.815 E13.97043
G1 X49.673 Y69.185 E14.07004
G1 X50.439 Y69.185 E14.08489
G1 X54.068 Y72.815 E14.18449
G1 X54.833 Y72.815 E14.19934
G1 X51.204 Y69.185 E14.29895
G1 X51.969 Y69.185 E14.31380
G1 X55.598 Y72.815 E14.41341
G1 X56.364 Y72.815 E14.42825
G1 X52.734 Y69.185 E14.52786
G1 X53.499 Y69.185 E14.54271
G1 X57.129 Y72.815 E14.64232
G1 X57.894 Y72.815 E14.65717
G1 X54.264 Y69.185 E14.75678
G1 X55.030 Y69.185 E14.77162
G1 X58.659 Y72.815 E14.87123
G1 X59.424 Y72.815 E14.88608
G1 X55.795 Y69.185 E14.98569
G1 X56.560 Y69.185 E15.00054
G1 X60.189 Y72.815 E15.10014
G1 X60.955 Y72.815 E15.11499
G1 X57.325 Y69.185 E15.21460
G1 X58.090 Y69.185 E15.22945
G1 X61.720 Y72.815 E15.32906
G1 X62.485 Y72.815 E15.34390
G1 X58.855 Y69.185 E15.44351
G1 X59.621 Y69.185 E15.45836
G1 X63.250 Y72.815 E15.55797
G1 X64.015 Y72.815 E15.57282
G1 X60.386 Y69.185 E15.67242
G1 X61.151 Y69.185 E15.68727
G1 X64.780 Y72.815 E15.78688
G1 X65.546 Y72.815 E15.80173
G1 X61.916 Y69.185 E15.90134
G1 X62.681 Y69.185 E15.91619
G1 X66.311 Y72.815 E16.01579
G1 X67.076 Y72.815 E16.03064
G1 X63.446 Y69.185 E16.13025
G1 X64.212 Y69.185 E16.14510
G1 X67.841 Y72.815 E16.24471
G1 X68.606 Y72.815 E16.25955
G1 X64.977 Y69.185 E16.35916
G1 X65.742 Y69.185 E16.37401
G1 X69.372 Y72.815 E16.47362
G1 X70.137 Y72.815 E16.48847
G1 X66.507 Y69.185 E16.58807
G1 X67.272 Y69.185 E16.60292
G1 X70.902 Y72.815 E16.70253
G1 X71.667 Y72.815 E16.71738
G1 X68.037 Y69.185 E16.81699
G1 X68.803 Y69.185 E16.83184
G1 X72.432 Y72.815 E16.93144
G1 X73.197 Y72.815 E16.94629
G1 X69.568 Y69.185 E17.04590
G1 X70.333 Y69.185 E17.06075
G1 X73.963 Y72.815 E17.16036
G1 X74.728 Y72.815 E17.17520
G1 X71.098 Y69.185 E17.27481
G1 X71.863 Y69.185 E17.28966
G1 X75.493 Y72.815 E17.38927
G1 X76.258 Y72.815 E17.40412
G1 X72.628 Y69.185 E17.50372
G1 X73.394 Y69.185 E17.51857
G1 X77.023 Y72.815 E17.61818
G1 X77.788 Y72.815 E17.63303
G1 X74.159 Y69.185 E17.73264
G1 X74.924 Y69.185 E17.74749
G1 X78.554 Y72.815 E17.84709
G1 X79.319 Y72.815 E17.86194
G1 X75.689 Y69.185 E17.96155
G1 X76.454 Y69.185 E17.97640
G1 X80.084 Y72.815 E18.07601
G1 X80.849 Y72.815 E18.09085
G1 X77.220 Y69.185 E18.19046
G1 X77.985 Y69.185 E18.20531
G1 X81.614 Y72.815 E18.30492
G1 X82.379 Y72.815 E18.31977
G1 X78.750 Y69.185 E18.41937
G1 X79.515 Y69.185 E18.43422
G1 X83.145 Y72.815 E18.53383
G1 X83.910 Y72.815 E18.54868
G1 X80.280 Y69.185 E18.64829
G1 X81.045 Y69.185 E18.66314
G1 X84.675 Y72.815 E18.76274
G1 X85.440 Y72.815 E18.77759
G1 X81.811 Y69.185 E18.87720
G1 X82.576 Y69.185 E18.89205
G1 X86.205 Y72.815 E18.99166
G1 X86.970 Y72.815 E19.00650
G1 X83.341 Y69.185 E19.10611
G1 X84.106 Y69.185 E19.12096
G1 X87.736 Y72.815 E19.22057
G1 X88.501 Y72.815 E19.23542
G1 X84.871 Y69.185 E19.33502
G1 X85.636 Y69.185 E19.34987
G1 X89.266 Y72.815 E19.44948
G1 X90.031 Y72.815 E19.46433
G1 X86.402 Y69.185 E19.56394
G1 X87.167 Y69.185 E19.57879
G1 X90.796 Y72.815 E19.67839
G1 X91.561 Y72.815 E19.69324
G1 X87.932 Y69.185 E19.79285
G1 X88.697 Y69.185 E19.80770
G1 X92.327 Y72.815 E19.90731
G1 X93.092 Y72.815 E19.92215
G1 X89.462 Y69.185 E20.02176
G1 X90.227 Y69.185 E20.03661
G1 X93.857 Y72.815 E20.13622
G1 X94.622 Y72.815 E20.15107
G1 X90.993 Y69.185 E20.25067
G1 X91.758 Y69.185 E20.26552
G1 X95.387 Y72.815 E20.36513
G1 X96.152 Y72.815 E20.37998
G1 X92.523 Y69.185 E20.47959
G1 X93.288 Y69.185 E20.49444
G1 X96.918 Y72.815 E20.59404
G1 X97.683 Y72.815 E20.60889
G1 X94.053 Y69.185 E20.70850
G1 X94.818 Y69.185 E20.72335
G1 X98.448 Y72.815 E20.82296
G1 X99.213 Y72.815 E20.83780
G1 X95.584 Y69.185 E20.93741
G1 X96.349 Y69.185 E20.95226
G1 X99.978 Y72.815 E21.05187
G1 X100.743 Y72.815 E21.06672
G1 X97.114 Y69.185 E21.16632
G1 X97.879 Y69.185 E21.18117
G1 X101.509 Y72.815 E21.28078
G1 X102.274 Y72.815 E21.29563
G1 X98.644 Y69.185 E21.39524
G1 X99.409 Y69.185 E21.41008
G1 X103.039 Y72.815 E21.50969
G1 X103.804 Y72.815 E21.52454
G1 X100.175 Y69.185 E21.62415
G1 X100.940 Y69.185 E21.63900
G1 X104.569 Y72.815 E21.73861
G1 X105.335 Y72.815 E21.75345
G1 X101.705 Y69.185 E21.85306
G1 X102.470 Y69.185 E21.86791
G1 X106.100 Y72.815 E21.96752
G1 X106.865 Y72.815 E21.98237
G1 X103.235 Y69.185 E22.08197
G1 X104.000 Y69.185 E22.09682
G1 X107.630 Y72.815 E22.19643
G1 X108.395 Y72.815 E22.21128
G1 X104.766 Y69.185 E22.31089
G1 X105.531 Y69.185 E22.32573
G1 X109.160 Y72.815 E22.42534
G1 X109.926 Y72.815 E22.44019
G1 X106.296 Y69.185 E22.53980
G1 X107.061 Y69.185 E22.55465
G1 X110.691 Y72.815 E22.65425
G1 X111.456 Y72.815 E22.66910
G1 X107.826 Y69.185 E22.76871
G1 X108.591 Y69.185 E22.78356
G1 X112.221 Y72.815 E22.88317
G1 X112.986 Y72.815 E22.89802
G1 X109.357 Y69.185 E22.99762
G1 X110.122 Y69.185 E23.01247
G1 X113.751 Y72.815 E23.11208
G1 X114.517 Y72.815 E23.12693
G1 X110.887 Y69.185 E23.22654
G1 X111.652 Y69.185 E23.24138
G1 X115.282 Y72.815 E23.34099
G1 X116.047 Y72.815 E23.35584
G1 X112.417 Y69.185 E23.45545
G1 X113.183 Y69.185 E23.47030
G1 X116.812 Y72.815 E23.56990
G1 X117.577 Y72.815 E23.58475
G1 X113.948 Y69.185 E23.68436
G1 X114.713 Y69.185 E23.69921
G1 X118.342 Y72.815 E23.79882
G1 X119.108 Y72.815 E23.81367
G1 X115.478 Y69.185 E23.91327
G1 X116.243 Y69.185 E23.92812
G1 X119.873 Y72.815 E24.02773
G1 X120.638 Y72.815 E24.04258
G1 X117.008 Y69.185 E24.14219
G1 X117.774 Y69.185 E24.15703
G1 X121.403 Y72.815 E24.25664
G1 X122.168 Y72.815 E24.27149
G1 X118.539 Y69.185 E24.37110
G1 X119.304 Y69.185 E24.38595
G1 X122.933 Y72.815 E24.48555
G1 X123.699 Y72.815 E24.50040
G1 X120.069 Y69.185 E24.60001
G1 X120.834 Y69.185 E24.61486
G1 X124.464 Y72.815 E24.71447
G1 X125.229 Y72.815 E24.72932
G1 X121.599 Y69.185 E24.82892
G1 X122.365 Y69.185 E24.84377
G1 X125.994 Y72.815 E24.94338
G1 X126.759 Y72.815 E24.95823
G1 X123.130 Y69.185 E25.05784
G1 X123.895 Y69.185 E25.07268
G1 X127.524 Y72.815 E25.17229
G1 X128.290 Y72.815 E25.18714
G1 X124.660 Y69.185 E25.28675
G1 X125.425 Y69.185 E25.30160
G1 X129.055 Y72.815 E25.40120
G1 X129.820 Y72.815 E25.41605
G1 X126.190 Y69.185 E25.51566
G1 X126.956 Y69.185 E25.53051
G1 X130.585 Y72.815 E25.63012
G1 X131.350 Y72.815 E25.64496
G1 X127.721 Y69.185 E25.74457
G1 X128.486 Y69.185 E25.75942
G1 X132.115 Y72.815 E25.85903
G1 X132.881 Y72.815 E25.87388
G1 X129.251 Y69.185 E25.97348
G1 X130.016 Y69.185 E25.98833
G1 X133.646 Y72.815 E26.08794
G1 X134.411 Y72.815 E26.10279
G1 X130.781 Y69.185 E26.20240
G1 X131.547 Y69.185 E26.21725
G1 X135.176 Y72.815 E26.31685
G1 X135.941 Y72.815 E26.33170
G1 X132.312 Y69.185 E26.43131
G1 X133.077 Y69.185 E26.44616
G1 X136.707 Y72.815 E26.54577
G1 X137.472 Y72.815 E26.56061
G1 X133.842 Y69.185 E26.66022
G1 X134.607 Y69.185 E26.67507
G1 X138.237 Y72.815 E26.77468
G1 X139.002 Y72.815 E26.78953
G1 X135.372 Y69.185 E26.88913
G1 X136.138 Y69.185 E26.90398
G1 X139.767 Y72.815 E27.00359
G1 X140.532 Y72.815 E27.01844
G1 X136.903 Y69.185 E27.11805
G1 X137.668 Y69.185 E27.13290
G1 X141.298 Y72.815 E27.23250
G1 X142.063 Y72.815 E27.24735
G1 X138.433 Y69.185 E27.34696
G1 X139.198 Y69.185 E27.36181
G1 X142.828 Y72.815 E27.46142
G1 X143.593 Y72.815 E27.47626
G1 X139.963 Y69.185 E27.57587
G1 X140.729 Y69.185 E27.59072
G1 X144.358 Y72.815 E27.69033
G1 X145.123 Y72.815 E27.70518
G1 X141.494 Y69.185 E27.80478
G1 X142.259 Y69.185 E27.81963
G1 X145.889 Y72.815 E27.91924
G1 X146.654 Y72.815 E27.93409
G1 X143.024 Y69.185 E28.03370
G1 X143.789 Y69.185 E28.04855
G1 X147.419 Y72.815 E28.14815
G1 X148.184 Y72.815 E28.16300
G1 X144.554 Y69.185 E28.26261
