; generated by Slic3r 1.1.1-dev on 2014-05-12 at 15:10:40

; perimeters extrusion width = 0.50mm
; infill extrusion width = 0.60mm
; solid infill extrusion width = 0.60mm
; top infill extrusion width = 0.55mm

G21 ; set units to millimeters
M107
G28 ; home all axes
G90 ; use absolute coordinates
G92 E0
M82 ; use absolute distances for extrusion
M204 S2000
G1 F1800.000 E-2.00000
G92 E0
G1 Z0.350 F9600.000
G1 X34.734 Y70.007 F9600.000
G1 E2.00000 F1800.000
G1 X36.924 Y69.100 E2.06823 F4500
G1 X38.500 Y68.922 E2.11385
G1 X161.500 Y68.922 E5.65296
G1 X163.838 Y69.319 E5.72119
G1 X165.913 Y70.466 E5.78942
G1 X167.493 Y72.234 E5.85765
G1 X168.401 Y74.425 E5.92588
G1 X168.579 Y76.001 E5.97150
G1 X168.579 Y123.999 E7.35259
G1 X168.181 Y126.337 E7.42082
G1 X167.034 Y128.413 E7.48904
G1 X165.266 Y129.993 E7.55727
G1 X163.076 Y130.900 E7.62550
G1 X161.500 Y131.078 E7.67113
G1 X38.500 Y131.078 E11.21023
G1 X36.162 Y130.681 E11.27846
G1 X34.087 Y129.534 E11.34669
G1 X32.507 Y127.766 E11.41492
G1 X31.599 Y125.575 E11.48315
G1 X31.421 Y123.999 E11.52877
G1 X31.421 Y76.001 E12.90986
G1 X31.819 Y73.663 E12.97809
G1 X32.966 Y71.587 E13.04632
G1 X34.678 Y70.057 E13.11239
G1 X35.250 Y70.326 F9600.000
G1 X38.500 Y69.461 E13.20916 F4500
G1 X161.500 Y69.461 E16.74827
G1 X163.744 Y69.858 E16.81382
G1 X165.715 Y71.001 E16.87938
G1 X167.174 Y72.750 E16.94494
G1 X168.039 Y76.001 E17.04171
G1 X168.039 Y123.999 E18.42280
G1 X167.642 Y126.243 E18.48836
G1 X166.500 Y128.214 E18.55392
G1 X164.750 Y129.674 E18.61947
G1 X161.500 Y130.539 E18.71624
G1 X38.500 Y130.539 E22.25535
G1 X36.256 Y130.142 E22.32091
G1 X34.285 Y128.999 E22.38647
G1 X32.826 Y127.250 E22.45203
G1 X31.961 Y123.999 E22.54880
G1 X31.961 Y76.001 E23.92988
G1 X32.358 Y73.757 E23.99544
G1 X33.500 Y71.786 E24.06100
G1 X35.192 Y70.374 E24.12440
G1 F1800.000 E22.12440
G92 E0
G1 X45.307 Y88.706 F9600.000
G1 E2.00000 F1800.000
G1 X47.500 Y88.270 E2.06433 F2790
G1 X49.693 Y88.706 E2.12866
G1 X51.552 Y89.949 E2.19299
G1 X52.794 Y91.808 E2.25733
G1 X53.230 Y94.000 E2.32166
G1 X52.794 Y96.193 E2.38599
G1 X51.552 Y98.052 E2.45032
G1 X49.693 Y99.295 E2.51465
G1 X47.500 Y99.731 E2.57898
G1 X45.307 Y99.295 E2.64331
G1 X43.448 Y98.052 E2.70765
G1 X42.206 Y96.193 E2.77198
G1 X41.770 Y94.000 E2.83631
G1 X42.206 Y91.808 E2.90064
G1 X43.448 Y89.949 E2.96497
G1 X45.245 Y88.748 E3.02715
G1 X45.518 Y89.214 F9600.000
G1 X47.500 Y88.820 E3.08530 F2790
G1 X49.482 Y89.214 E3.14346
G1 X51.163 Y90.337 E3.20162
G1 X52.286 Y92.018 E3.25978
G1 X52.680 Y94.000 E3.31794
G1 X52.286 Y95.983 E3.37610
G1 X51.163 Y97.664 E3.43426
G1 X49.482 Y98.787 E3.49242
G1 X47.500 Y99.181 E3.55057
G1 X45.518 Y98.787 E3.60873
G1 X43.837 Y97.664 E3.66689
G1 X42.714 Y95.983 E3.72505
G1 X42.320 Y94.000 E3.78321
G1 X42.714 Y92.018 E3.84137
G1 X43.837 Y90.337 E3.89953
G1 X45.455 Y89.256 E3.95553
G1 X45.615 Y88.724 F9600.000
G1 F1800.000 E1.95553
G92 E0
G1 X77.186 Y81.186 F9600.000
G1 E2.00000 F1800.000
G1 X92.814 Y81.186 E2.44968 F4500
G1 X92.814 Y110.815 E3.30219
G1 X77.186 Y110.815 E3.75188
G1 X77.186 Y81.261 E4.60223
G1 X77.725 Y81.725 F9600.000
G1 X92.275 Y81.725 E5.02088 F4050
G1 X92.275 Y110.275 E5.84235
G1 X77.725 Y110.275 E6.26100
G1 X77.725 Y81.800 E7.08032
G1 X77.725 Y81.225 F9600.000
G1 F1800.000 E5.08032
G92 E0
G1 X105.740 Y94.851 F9600.000
G1 E2.00000 F1800.000
G1 X105.773 Y94.723 E2.00380 F4500
G1 X106.192 Y93.960 E2.02883
G1 X106.788 Y93.326 E2.05386
G1 X107.522 Y92.860 E2.07890
G1 X108.350 Y92.591 E2.10393
G1 X109.218 Y92.537 E2.12896
G1 X110.073 Y92.700 E2.15400
G1 X110.860 Y93.070 E2.17902
G1 X111.530 Y93.625 E2.20406
G1 X111.813 Y94.014 E2.21791
G1 X112.186 Y93.893 E2.22919
G1 X112.186 Y79.186 E2.65235
G1 X141.814 Y79.186 E3.50486
G1 X141.814 Y94.363 E3.94154
G1 X142.788 Y93.326 E3.98246
G1 X143.522 Y92.860 E4.00749
G1 X144.350 Y92.591 E4.03252
G1 X145.218 Y92.537 E4.05756
G1 X146.073 Y92.700 E4.08259
G1 X146.860 Y93.070 E4.10762
G1 X147.530 Y93.625 E4.13266
G1 X148.041 Y94.329 E4.15769
G1 X148.362 Y95.137 E4.18272
G1 X148.471 Y96.001 E4.20776
G1 X148.362 Y96.864 E4.23279
G1 X148.041 Y97.672 E4.25782
G1 X147.530 Y98.376 E4.28285
G1 X146.860 Y98.931 E4.30789
G1 X146.073 Y99.301 E4.33292
G1 X145.218 Y99.464 E4.35795
G1 X144.350 Y99.410 E4.38299
G1 X143.522 Y99.141 E4.40802
G1 X142.788 Y98.675 E4.43305
G1 X141.814 Y97.638 E4.47397
G1 X141.814 Y112.815 E4.91065
G1 X112.186 Y112.815 E5.76316
G1 X112.186 Y98.108 E6.18632
G1 X111.813 Y97.987 E6.19760
G1 X111.530 Y98.376 E6.21145
G1 X110.860 Y98.931 E6.23649
G1 X110.073 Y99.301 E6.26152
G1 X109.218 Y99.464 E6.28655
G1 X108.350 Y99.410 E6.31158
G1 X107.522 Y99.141 E6.33662
G1 X106.788 Y98.675 E6.36165
G1 X106.192 Y98.040 E6.38668
G1 X105.773 Y97.278 E6.41172
G1 X105.557 Y96.435 E6.43675
G1 X105.557 Y95.566 E6.46178
G1 X105.722 Y94.923 E6.48086
G1 F1800.000 E4.48086
G92 E0
G1 X142.263 Y94.985 F9600.000
G1 E2.00000 F1800.000
G1 X142.278 Y94.923 E2.00184 F2790
G1 X142.632 Y94.280 E2.02295
G1 X143.134 Y93.745 E2.04406
G1 X143.754 Y93.352 E2.06517
G1 X144.451 Y93.125 E2.08629
G1 X145.184 Y93.079 E2.10740
G1 X145.905 Y93.217 E2.12851
G1 X146.568 Y93.529 E2.14962
G1 X147.134 Y93.997 E2.17074
G1 X147.565 Y94.590 E2.19185
G1 X147.835 Y95.273 E2.21296
G1 X147.927 Y96.001 E2.23407
G1 X147.835 Y96.728 E2.25518
G1 X147.565 Y97.411 E2.27630
G1 X147.134 Y98.004 E2.29741
G1 X146.568 Y98.472 E2.31852
G1 X145.905 Y98.784 E2.33963
G1 X145.184 Y98.922 E2.36075
G1 X144.451 Y98.876 E2.38186
G1 X143.754 Y98.649 E2.40297
G1 X143.134 Y98.256 E2.42408
G1 X142.632 Y97.721 E2.44520
G1 X142.278 Y97.078 E2.46631
G1 X142.096 Y96.367 E2.48742
G1 X142.096 Y95.634 E2.50853
G1 X142.244 Y95.057 E2.52565
G1 X142.217 Y94.940 F9600.000
G1 F1800.000 E0.52565
G92 E0
G1 X111.919 Y95.937 F9600.000
G1 E2.00000 F1800.000
G1 X111.927 Y96.001 E2.00184 F2790
G1 X111.835 Y96.728 E2.02295
G1 X111.565 Y97.411 E2.04406
G1 X111.134 Y98.004 E2.06517
G1 X110.568 Y98.472 E2.08629
G1 X109.905 Y98.784 E2.10740
G1 X109.184 Y98.922 E2.12851
G1 X108.451 Y98.876 E2.14962
G1 X107.754 Y98.649 E2.17074
G1 X107.134 Y98.256 E2.19185
G1 X106.632 Y97.721 E2.21296
G1 X106.278 Y97.078 E2.23407
G1 X106.096 Y96.367 E2.25519
G1 X106.096 Y95.634 E2.27630
G1 X106.278 Y94.923 E2.29741
G1 X106.632 Y94.280 E2.31852
G1 X107.134 Y93.745 E2.33963
G1 X107.754 Y93.352 E2.36075
G1 X108.451 Y93.125 E2.38186
G1 X109.184 Y93.079 E2.40297
G1 X109.905 Y93.217 E2.42408
G1 X110.568 Y93.529 E2.44519
G1 X111.134 Y93.997 E2.46631
G1 X111.565 Y94.590 E2.48742
G1 X111.835 Y95.273 E2.50853
G1 X111.910 Y95.863 E2.52565
G1 X111.978 Y95.962 F9600.000
G1 F1800.000 E0.52565
G92 E0
G1 X112.725 Y79.725 F9600.000
G1 E2.00000 F1800.000
G1 X141.275 Y79.725 E2.82148 F4050
G1 X141.275 Y112.275 E3.75804
G1 X112.725 Y112.275 E4.57952
G1 X112.725 Y79.800 E5.51393
G1 X112.725 Y79.225 F9600.000
G1 F1800.000 E3.51393
G92 E0
G1 X142.314 Y115.186 F9600.000
G1 E2.00000 F1800.000
G1 X57.686 Y115.186 E4.43504 F4500
G1 X57.686 Y123.185 E4.66519
G1 X39.314 Y123.185 E5.19380
G1 X39.314 Y76.815 E6.52803
G1 X160.686 Y76.815 E10.02028
G1 X160.686 Y123.185 E11.35451
G1 X142.314 Y123.185 E11.88311
G1 X142.314 Y115.261 E12.11111
G1 X141.775 Y115.726 F9600.000
G1 X58.225 Y115.726 E14.51511 F4050
G1 X58.225 Y123.725 E14.74527
G1 X38.775 Y123.725 E15.30491
G1 X38.775 Y76.276 E16.67017
G1 X161.225 Y76.276 E20.19345
G1 X161.225 Y123.725 E21.55872
G1 X141.775 Y123.725 E22.11835
G1 X141.775 Y115.800 E22.34635
G1 X141.775 Y115.226 F9600.000
G1 X142.685 Y115.499 F9600.000
G1 X150.000 Y122.814 E22.54729 F4950
G1 X149.234 Y122.814 E22.56217
G1 X142.685 Y116.265 E22.74207
G1 X142.685 Y117.031 E22.75694
G1 X148.469 Y122.814 E22.91581
G1 X147.703 Y122.814 E22.93068
G1 X142.685 Y117.797 E23.06851
G1 X142.685 Y118.563 E23.08339
G1 X146.937 Y122.814 E23.20018
G1 X146.171 Y122.814 E23.21506
G1 X142.685 Y119.328 E23.31081
G1 X142.685 Y120.094 E23.32569
G1 X145.405 Y122.814 E23.40041
G1 X144.640 Y122.814 E23.41528
G1 X142.685 Y120.860 E23.46897
G1 X142.685 Y121.626 E23.48384
G1 X143.874 Y122.814 E23.51649
G1 X143.108 Y122.814 E23.53136
G1 X142.685 Y122.392 E23.54298
G1 F1800.000 E21.54298
G92 E0
G1 X142.185 Y92.791 F9600.000
G1 E2.00000 F1800.000
G1 X142.493 Y93.099 E2.00844 F4950
G1 X142.946 Y92.786 E2.01914
G1 X142.185 Y92.025 E2.04004
G1 X142.185 Y91.260 E2.05491
G1 X143.427 Y92.501 E2.08902
G1 X144.005 Y92.313 E2.10082
G1 X142.185 Y90.494 E2.15080
G1 X142.185 Y89.728 E2.16567
G1 X144.657 Y92.200 E2.23358
G1 X145.421 Y92.198 E2.24841
G1 X142.185 Y88.962 E2.33728
G1 X142.185 Y88.196 E2.35215
G1 X146.461 Y92.473 E2.46962
G1 F1800.000 E0.46962
G92 E0
G1 X160.315 Y92.542 F9600.000
G1 E2.00000 F1800.000
G1 X144.959 Y77.186 E2.42182 F4950
G1 X145.725 Y77.186 E2.43670
G1 X160.315 Y91.776 E2.83749
G1 X160.315 Y91.010 E2.85236
G1 X146.490 Y77.186 E3.23211
G1 X147.256 Y77.186 E3.24699
G1 X160.315 Y90.244 E3.60570
G1 X160.315 Y89.478 E3.62058
G1 X148.022 Y77.186 E3.95826
G1 X148.788 Y77.186 E3.97313
G1 X160.315 Y88.713 E4.28978
G1 X160.315 Y87.947 E4.30465
G1 X149.554 Y77.186 E4.60026
G1 X150.319 Y77.186 E4.61513
G1 X160.315 Y87.181 E4.88970
G1 X160.315 Y86.415 E4.90458
G1 X151.085 Y77.186 E5.15811
G1 X151.851 Y77.186 E5.17299
G1 X160.315 Y85.649 E5.40548
G1 X160.315 Y84.884 E5.42036
G1 X152.617 Y77.186 E5.63182
G1 X153.383 Y77.186 E5.64670
G1 X160.315 Y84.118 E5.83712
G1 X160.315 Y83.352 E5.85200
G1 X154.148 Y77.186 E6.02138
G1 X154.914 Y77.186 E6.03626
G1 X160.315 Y82.586 E6.18461
G1 X160.315 Y81.821 E6.19949
G1 X155.680 Y77.186 E6.32680
G1 X156.446 Y77.186 E6.34168
G1 X160.315 Y81.055 E6.44796
G1 X160.315 Y80.289 E6.46283
G1 X157.212 Y77.186 E6.54808
G1 X157.977 Y77.186 E6.56295
G1 X160.315 Y79.523 E6.62716
G1 X160.315 Y78.757 E6.64203
G1 X158.743 Y77.186 E6.68521
G1 X159.509 Y77.186 E6.70008
G1 X160.315 Y77.992 E6.72222
G1 X160.315 Y77.226 E6.73709
G1 X160.275 Y77.186 E6.73819
G1 F1800.000 E4.73819
G92 E0
G1 X144.193 Y77.186 F9600.000
G1 E2.00000 F1800.000
G1 X160.315 Y93.307 E2.44286 F4950
G1 X160.315 Y94.073 E2.45774
G1 X143.427 Y77.186 E2.92163
G1 X142.661 Y77.186 E2.93651
G1 X160.315 Y94.839 E3.42144
G1 X160.315 Y95.605 E3.43631
G1 X141.896 Y77.186 E3.94228
G1 F1800.000 E1.94228
G92 E0
G1 X111.815 Y93.053 F9600.000
G1 E2.00000 F1800.000
G1 X95.948 Y77.186 E2.43586 F4950
G1 X96.714 Y77.186 E2.45074
G1 X111.815 Y92.287 E2.86556
G1 X111.815 Y91.521 E2.88044
G1 X97.479 Y77.186 E3.27423
G1 X98.245 Y77.186 E3.28910
G1 X111.815 Y90.755 E3.66186
G1 X111.815 Y89.990 E3.67673
G1 X99.011 Y77.186 E4.02845
G1 X99.777 Y77.186 E4.04333
G1 X111.815 Y89.224 E4.37401
G1 X111.815 Y88.458 E4.38888
G1 X100.543 Y77.186 E4.69853
G1 X101.308 Y77.186 E4.71340
G1 X111.815 Y87.692 E5.00201
G1 X111.815 Y86.926 E5.01689
G1 X102.074 Y77.186 E5.28446
G1 X102.840 Y77.186 E5.29933
G1 X111.815 Y86.161 E5.54587
G1 X111.815 Y85.395 E5.56075
G1 X103.606 Y77.186 E5.78625
G1 X104.372 Y77.186 E5.80112
G1 X111.815 Y84.629 E6.00558
G1 X111.815 Y83.863 E6.02046
G1 X105.137 Y77.186 E6.20389
G1 X105.903 Y77.186 E6.21876
G1 X111.815 Y83.097 E6.38115
G1 X111.815 Y82.332 E6.39603
G1 X106.669 Y77.186 E6.53738
G1 X107.435 Y77.186 E6.55226
G1 X111.815 Y81.566 E6.67258
G1 X111.815 Y80.800 E6.68745
G1 X108.201 Y77.186 E6.78673
G1 X108.966 Y77.186 E6.80161
G1 X111.815 Y80.034 E6.87986
G1 X111.815 Y79.268 E6.89473
G1 X109.732 Y77.186 E6.95194
G1 X110.498 Y77.186 E6.96682
G1 X112.127 Y78.815 E7.01158
G1 X112.893 Y78.815 E7.02645
G1 X111.264 Y77.186 E7.07122
G1 X112.030 Y77.186 E7.08609
G1 X113.659 Y78.815 E7.13086
G1 X114.425 Y78.815 E7.14573
G1 X112.795 Y77.186 E7.19049
G1 X113.561 Y77.186 E7.20537
G1 X115.191 Y78.815 E7.25013
G1 X115.956 Y78.815 E7.26501
G1 X114.327 Y77.186 E7.30977
G1 X115.093 Y77.186 E7.32465
G1 X116.722 Y78.815 E7.36941
G1 X117.488 Y78.815 E7.38428
G1 X115.859 Y77.186 E7.42905
G1 X116.624 Y77.186 E7.44392
G1 X118.254 Y78.815 E7.48869
G1 X119.020 Y78.815 E7.50356
G1 X117.390 Y77.186 E7.54833
G1 X118.156 Y77.186 E7.56320
G1 X119.785 Y78.815 E7.60796
G1 X120.551 Y78.815 E7.62284
G1 X118.922 Y77.186 E7.66760
G1 X119.687 Y77.186 E7.68248
G1 X121.317 Y78.815 E7.72724
G1 X122.083 Y78.815 E7.74212
G1 X120.453 Y77.186 E7.78688
G1 X121.219 Y77.186 E7.80175
G1 X122.849 Y78.815 E7.84652
G1 X123.614 Y78.815 E7.86139
G1 X121.985 Y77.186 E7.90616
G1 X122.751 Y77.186 E7.92103
G1 X124.380 Y78.815 E7.96580
G1 X125.146 Y78.815 E7.98067
G1 X123.516 Y77.186 E8.02543
G1 X124.282 Y77.186 E8.04031
G1 X125.912 Y78.815 E8.08507
G1 X126.678 Y78.815 E8.09995
G1 X125.048 Y77.186 E8.14471
G1 X125.814 Y77.186 E8.15959
G1 X127.443 Y78.815 E8.20435
G1 X128.209 Y78.815 E8.21922
G1 X126.580 Y77.186 E8.26399
G1 X127.345 Y77.186 E8.27886
G1 X128.975 Y78.815 E8.32363
G1 X129.741 Y78.815 E8.33850
G1 X128.111 Y77.186 E8.38327
G1 X128.877 Y77.186 E8.39814
G1 X130.507 Y78.815 E8.44290
G1 X131.272 Y78.815 E8.45778
G1 X129.643 Y77.186 E8.50254
G1 X130.409 Y77.186 E8.51742
G1 X132.038 Y78.815 E8.56218
G1 X132.804 Y78.815 E8.57706
G1 X131.174 Y77.186 E8.62182
G1 X131.940 Y77.186 E8.63669
G1 X133.570 Y78.815 E8.68146
G1 X134.336 Y78.815 E8.69633
G1 X132.706 Y77.186 E8.74110
G1 X133.472 Y77.186 E8.75597
G1 X135.101 Y78.815 E8.80074
G1 X135.867 Y78.815 E8.81561
G1 X134.238 Y77.186 E8.86037
G1 X135.003 Y77.186 E8.87525
G1 X136.633 Y78.815 E8.92001
G1 X137.399 Y78.815 E8.93489
G1 X135.769 Y77.186 E8.97965
G1 X136.535 Y77.186 E8.99453
G1 X138.165 Y78.815 E9.03929
G1 X138.930 Y78.815 E9.05416
G1 X137.301 Y77.186 E9.09893
G1 X138.067 Y77.186 E9.11380
G1 X139.696 Y78.815 E9.15857
G1 X140.462 Y78.815 E9.17344
G1 X138.832 Y77.186 E9.21821
G1 X139.598 Y77.186 E9.23308
G1 X141.228 Y78.815 E9.27784
G1 X141.994 Y78.815 E9.29272
G1 X140.364 Y77.186 E9.33748
G1 X141.130 Y77.186 E9.35236
G1 X160.315 Y96.371 E9.87936
G1 X160.315 Y97.136 E9.89424
G1 X142.185 Y79.007 E10.39225
G1 X142.185 Y79.773 E10.40713
G1 X160.315 Y97.902 E10.90514
G1 X160.315 Y98.668 E10.92002
G1 X142.185 Y80.538 E11.41803
G1 X142.185 Y81.304 E11.43291
G1 X160.315 Y99.434 E11.93092
G1 X160.315 Y100.200 E11.94580
G1 X142.185 Y82.070 E12.44381
G1 X142.185 Y82.836 E12.45868
G1 X160.315 Y100.965 E12.95670
G1 X160.315 Y101.731 E12.97157
G1 X142.185 Y83.602 E13.46959
G1 X142.185 Y84.367 E13.48446
G1 X160.315 Y102.497 E13.98248
G1 X160.315 Y103.263 E13.99735
G1 X142.185 Y85.133 E14.49537
G1 X142.185 Y85.899 E14.51024
G1 X160.315 Y104.029 E15.00826
G1 X160.315 Y104.794 E15.02313
G1 X142.185 Y86.665 E15.52115
G1 X142.185 Y87.431 E15.53602
G1 X160.315 Y105.560 E16.03404
G1 X160.315 Y106.326 E16.04891
G1 X148.521 Y94.532 E16.37288
G1 X148.790 Y95.567 E16.39364
G1 X160.315 Y107.092 E16.71023
G1 X160.315 Y107.858 E16.72510
G1 X148.801 Y96.344 E17.04138
G1 X148.702 Y97.011 E17.05447
G1 X160.315 Y108.623 E17.37347
G1 X160.315 Y109.389 E17.38834
G1 X148.485 Y97.560 E17.71330
G1 X148.219 Y98.059 E17.72430
G1 X160.315 Y110.155 E18.05656
G1 X160.315 Y110.921 E18.07144
G1 X147.897 Y98.503 E18.41256
G1 X147.506 Y98.878 E18.42308
G1 X160.315 Y111.687 E18.77494
G1 X160.315 Y112.452 E18.78981
G1 X147.087 Y99.224 E19.15318
G1 X146.573 Y99.476 E19.16430
G1 X160.315 Y113.218 E19.54179
G1 X160.315 Y113.984 E19.55667
G1 X146.020 Y99.689 E19.94935
G1 X145.377 Y99.812 E19.96206
G1 X160.315 Y114.750 E20.37241
G1 X160.315 Y115.516 E20.38728
G1 X144.596 Y99.797 E20.81907
G1 X143.585 Y99.551 E20.83929
G1 X160.315 Y116.281 E21.29886
G1 X160.315 Y117.047 E21.31374
G1 X142.185 Y98.918 E21.81175
G1 X142.185 Y99.683 E21.82663
G1 X160.315 Y117.813 E22.32464
G1 X160.315 Y118.579 E22.33952
G1 X142.185 Y100.449 E22.83753
G1 X142.185 Y101.215 E22.85241
G1 X160.315 Y119.345 E23.35042
G1 X160.315 Y120.110 E23.36530
G1 X142.185 Y101.981 E23.86331
G1 X142.185 Y102.747 E23.87818
G1 X160.315 Y120.876 E24.37620
G1 X160.315 Y121.642 E24.39107
G1 X142.185 Y103.512 E24.88909
G1 X142.185 Y104.278 E24.90396
G1 X160.315 Y122.408 E25.40198
G1 X159.955 Y122.814 E25.41252
G1 X142.185 Y105.044 E25.90066
G1 X142.185 Y105.810 E25.91554
G1 X159.190 Y122.814 E26.38264
G1 X158.424 Y122.814 E26.39752
G1 X142.185 Y106.576 E26.84359
G1 X142.185 Y107.341 E26.85846
G1 X157.658 Y122.814 E27.28350
G1 X156.892 Y122.814 E27.29838
G1 X142.185 Y108.107 E27.70237
G1 X142.185 Y108.873 E27.71725
