; generated by Slic3r 1.1.1-dev on 2014-05-14 at 20:05:12

; perimeters extrusion width = 0.50mm
; infill extrusion width = 0.60mm
; solid infill extrusion width = 0.60mm
; top infill extrusion width = 0.55mm

G21 ; set units to millimeters
M107
G28 ; home all axes
G90 ; use absolute coordinates
G92 E0
M82 ; use absolute distances for extrusion
M204 S2000
G1 F1800.000 E-2.00000
G92 E0
G1 Z0.350 F9600.000
G1 X34.466 Y31.313 F9600.000
G1 E2.00000 F1800.000
G1 X36.234 Y29.733 E2.06823 F4500
G1 X38.424 Y28.825 E2.13646
G1 X40.000 Y28.648 E2.18208
G1 X140.000 Y28.648 E5.05941
G1 X142.338 Y29.045 E5.12763
G1 X144.413 Y30.192 E5.19586
G1 X145.993 Y31.960 E5.26409
G1 X146.901 Y34.151 E5.33232
G1 X147.079 Y35.726 E5.37795
G1 X147.079 Y148.726 E8.62932
G1 X146.681 Y151.064 E8.69755
G1 X145.534 Y153.139 E8.76578
G1 X144.600 Y154.106 E8.80447
G1 X127.361 Y168.769 E9.45565
G1 X127.218 Y168.862 E9.46056
G1 X126.165 Y169.429 E9.49498
G1 X124.914 Y169.869 E9.53312
G1 X122.280 Y170.439 E9.61066
G1 X120.267 Y170.602 E9.66878
G1 X90.662 Y171.352 E10.52087
G1 X89.158 Y171.350 E10.56416
G1 X59.293 Y170.577 E11.42375
G1 X56.618 Y170.253 E11.50129
G1 X53.991 Y169.497 E11.57996
G1 X53.835 Y169.429 E11.58482
G1 X52.781 Y168.861 E11.61928
G1 X51.912 Y168.224 E11.65030
G1 X35.400 Y154.106 E12.27537
G1 X33.881 Y152.285 E12.34360
G1 X33.049 Y150.065 E12.41183
G1 X32.921 Y148.726 E12.45052
G1 X32.921 Y35.726 E15.70190
G1 X33.319 Y33.388 E15.77013
G1 X34.429 Y31.379 E15.83620
G1 X35.000 Y31.511 F9600.000
G1 X36.750 Y30.052 E15.90176 F4500
G1 X40.000 Y29.187 E15.99853
G1 X140.000 Y29.187 E18.87585
G1 X142.244 Y29.584 E18.94141
G1 X144.215 Y30.727 E19.00697
G1 X145.674 Y32.476 E19.07253
G1 X146.539 Y35.726 E19.16930
G1 X146.539 Y148.726 E22.42067
G1 X146.142 Y150.970 E22.48623
G1 X144.249 Y153.697 E22.58174
G1 X127.066 Y168.317 E23.23093
G1 X125.950 Y168.935 E23.26761
G1 X125.797 Y169.001 E23.27241
G1 X124.783 Y169.346 E23.30323
G1 X122.233 Y169.902 E23.37833
G1 X120.253 Y170.063 E23.43548
G1 X90.662 Y170.813 E24.28717
G1 X89.171 Y170.811 E24.33007
G1 X59.340 Y170.040 E25.18870
G1 X56.749 Y169.730 E25.26379
G1 X54.205 Y169.002 E25.33992
G1 X53.076 Y168.410 E25.37661
G1 X52.262 Y167.814 E25.40563
G1 X35.751 Y153.697 E26.03070
G1 X34.303 Y151.937 E26.09626
G1 X33.461 Y148.726 E26.19177
G1 X33.461 Y35.726 E29.44314
G1 X33.858 Y33.483 E29.50870
G1 X34.963 Y31.576 E29.57210
G1 F1800.000 E27.57210
G92 E0
G1 X45.035 Y139.904 F9600.000
G1 E2.00000 F1800.000
G1 X45.484 Y140.024 E2.01335 F2790
G1 X45.938 Y140.235 E2.02778
G1 X46.349 Y140.523 E2.04220
G1 X46.703 Y140.878 E2.05663
G1 X46.991 Y141.288 E2.07105
G1 X47.203 Y141.743 E2.08548
G1 X47.332 Y142.227 E2.09990
G1 X47.376 Y142.726 E2.11433
G1 X47.332 Y143.226 E2.12875
G1 X47.203 Y143.710 E2.14317
G1 X46.969 Y144.195 E2.15866
G1 X46.703 Y144.575 E2.17201
G1 X46.349 Y144.929 E2.18643
G1 X45.938 Y145.217 E2.20086
G1 X45.484 Y145.429 E2.21528
G1 X44.999 Y145.559 E2.22971
G1 X44.500 Y145.602 E2.24413
G1 X44.001 Y145.559 E2.25856
G1 X43.516 Y145.429 E2.27298
G1 X43.062 Y145.217 E2.28741
G1 X42.651 Y144.929 E2.30183
G1 X42.297 Y144.575 E2.31626
G1 X42.009 Y144.164 E2.33068
G1 X41.797 Y143.710 E2.34511
G1 X41.668 Y143.226 E2.35953
G1 X41.624 Y142.726 E2.37396
G1 X41.668 Y142.227 E2.38838
G1 X41.797 Y141.743 E2.40281
G1 X42.009 Y141.288 E2.41723
G1 X42.297 Y140.878 E2.43166
G1 X42.651 Y140.523 E2.44608
G1 X43.062 Y140.235 E2.46051
G1 X43.516 Y140.024 E2.47493
G1 X44.001 Y139.894 E2.48936
G1 X44.500 Y139.850 E2.50378
G1 X44.962 Y139.891 E2.51712
G1 X45.345 Y139.558 F9600.000
G1 F1800.000 E0.51712
G92 E0
G1 X43.965 Y113.549 F9600.000
G1 E2.00000 F1800.000
G1 X43.516 Y113.429 E2.01335 F2790
G1 X43.062 Y113.217 E2.02778
G1 X42.651 Y112.929 E2.04220
G1 X42.297 Y112.575 E2.05663
G1 X42.009 Y112.164 E2.07105
G1 X41.797 Y111.710 E2.08548
G1 X41.668 Y111.226 E2.09990
G1 X41.624 Y110.726 E2.11433
G1 X41.668 Y110.227 E2.12875
G1 X41.797 Y109.743 E2.14317
G1 X42.009 Y109.288 E2.15760
G1 X42.297 Y108.878 E2.17202
G1 X42.682 Y108.502 E2.18751
G1 X43.062 Y108.235 E2.20086
G1 X43.516 Y108.024 E2.21528
G1 X44.001 Y107.894 E2.22971
G1 X44.500 Y107.850 E2.24413
G1 X44.999 Y107.894 E2.25856
G1 X45.484 Y108.024 E2.27298
G1 X45.938 Y108.236 E2.28741
G1 X46.349 Y108.523 E2.30183
G1 X46.703 Y108.878 E2.31626
G1 X46.991 Y109.288 E2.33068
G1 X47.203 Y109.743 E2.34511
G1 X47.332 Y110.227 E2.35953
G1 X47.376 Y110.726 E2.37396
G1 X47.332 Y111.226 E2.38838
G1 X47.203 Y111.710 E2.40281
G1 X46.991 Y112.164 E2.41723
G1 X46.703 Y112.575 E2.43166
G1 X46.349 Y112.929 E2.44608
G1 X45.938 Y113.217 E2.46051
G1 X45.484 Y113.429 E2.47493
G1 X44.999 Y113.559 E2.48936
G1 X44.500 Y113.602 E2.50378
G1 X44.038 Y113.562 E2.51712
G1 X43.655 Y113.894 F9600.000
G1 F1800.000 E0.51712
G92 E0
G1 X132.994 Y42.130 F9600.000
G1 E2.00000 F1800.000
G1 X132.797 Y41.710 E2.01335 F2790
G1 X132.668 Y41.226 E2.02778
G1 X132.624 Y40.726 E2.04220
G1 X132.668 Y40.227 E2.05663
G1 X132.797 Y39.743 E2.07105
G1 X133.009 Y39.288 E2.08548
G1 X133.297 Y38.878 E2.09990
G1 X133.651 Y38.523 E2.11433
G1 X134.062 Y38.235 E2.12875
G1 X134.516 Y38.024 E2.14318
G1 X135.001 Y37.894 E2.15760
G1 X135.500 Y37.850 E2.17203
G1 X135.999 Y37.894 E2.18645
G1 X136.484 Y38.024 E2.20087
G1 X136.969 Y38.257 E2.21636
G1 X137.349 Y38.523 E2.22971
G1 X137.703 Y38.878 E2.24413
G1 X137.991 Y39.288 E2.25856
G1 X138.203 Y39.743 E2.27298
G1 X138.332 Y40.227 E2.28741
G1 X138.376 Y40.726 E2.30183
G1 X138.332 Y41.226 E2.31626
G1 X138.203 Y41.710 E2.33068
G1 X137.991 Y42.164 E2.34511
G1 X137.703 Y42.575 E2.35953
G1 X137.349 Y42.929 E2.37396
G1 X136.938 Y43.217 E2.38838
G1 X136.484 Y43.429 E2.40281
G1 X135.999 Y43.559 E2.41723
G1 X135.500 Y43.602 E2.43166
G1 X135.001 Y43.559 E2.44608
G1 X134.516 Y43.429 E2.46051
G1 X134.062 Y43.217 E2.47493
G1 X133.651 Y42.929 E2.48936
G1 X133.297 Y42.575 E2.50378
G1 X133.031 Y42.195 E2.51712
G1 X132.530 Y42.115 F9600.000
G1 F1800.000 E0.51712
G92 E0
G1 X113.844 Y41.401 F9600.000
G1 E2.00000 F1800.000
G1 X113.711 Y41.895 E2.01470 F2790
G1 X113.460 Y42.435 E2.03185
G1 X113.118 Y42.923 E2.04898
G1 X112.697 Y43.344 E2.06613
G1 X112.209 Y43.686 E2.08327
G1 X111.669 Y43.938 E2.10041
G1 X111.093 Y44.092 E2.11755
G1 X110.500 Y44.144 E2.13469
G1 X109.907 Y44.092 E2.15183
G1 X109.331 Y43.938 E2.16897
G1 X108.791 Y43.686 E2.18610
G1 X108.303 Y43.344 E2.20325
G1 X107.882 Y42.923 E2.22038
G1 X107.540 Y42.435 E2.23753
G1 X107.289 Y41.895 E2.25466
G1 X107.135 Y41.320 E2.27181
G1 X107.083 Y40.726 E2.28894
G1 X107.135 Y40.133 E2.30609
G1 X107.289 Y39.557 E2.32322
G1 X107.540 Y39.018 E2.34037
G1 X107.882 Y38.530 E2.35750
G1 X108.303 Y38.108 E2.37465
G1 X108.791 Y37.767 E2.39179
G1 X109.331 Y37.515 E2.40892
G1 X109.907 Y37.361 E2.42606
G1 X110.500 Y37.309 E2.44320
G1 X111.093 Y37.361 E2.46034
G1 X111.669 Y37.515 E2.47748
G1 X112.209 Y37.767 E2.49462
G1 X112.697 Y38.108 E2.51177
G1 X113.118 Y38.530 E2.52890
G1 X113.460 Y39.018 E2.54605
G1 X113.711 Y39.557 E2.56318
G1 X113.865 Y40.133 E2.58032
G1 X113.917 Y40.726 E2.59746
G1 X113.863 Y41.329 E2.61487
G1 X113.323 Y41.262 F9600.000
G1 X113.203 Y41.710 E2.62822 F2790
G1 X112.991 Y42.164 E2.64265
G1 X112.703 Y42.575 E2.65707
G1 X112.349 Y42.929 E2.67150
G1 X111.938 Y43.217 E2.68593
G1 X111.484 Y43.429 E2.70035
G1 X110.999 Y43.559 E2.71477
G1 X110.500 Y43.602 E2.72920
G1 X110.001 Y43.559 E2.74362
G1 X109.516 Y43.429 E2.75805
G1 X109.062 Y43.217 E2.77247
G1 X108.651 Y42.929 E2.78690
G1 X108.297 Y42.575 E2.80132
G1 X108.009 Y42.164 E2.81575
G1 X107.797 Y41.710 E2.83017
G1 X107.668 Y41.226 E2.84460
G1 X107.624 Y40.726 E2.85902
G1 X107.668 Y40.227 E2.87345
G1 X107.797 Y39.743 E2.88787
G1 X108.009 Y39.288 E2.90230
G1 X108.297 Y38.878 E2.91672
G1 X108.651 Y38.523 E2.93115
G1 X109.062 Y38.235 E2.94557
G1 X109.516 Y38.024 E2.96000
G1 X110.001 Y37.894 E2.97442
G1 X110.500 Y37.850 E2.98885
G1 X110.999 Y37.894 E3.00327
G1 X111.484 Y38.024 E3.01770
G1 X111.938 Y38.235 E3.03212
G1 X112.349 Y38.523 E3.04655
G1 X112.703 Y38.878 E3.06097
G1 X112.991 Y39.288 E3.07540
G1 X113.203 Y39.743 E3.08982
G1 X113.332 Y40.227 E3.10425
G1 X113.376 Y40.726 E3.11867
G1 X113.336 Y41.188 E3.13201
G1 X113.668 Y41.572 F9600.000
G1 F1800.000 E1.13201
G92 E0
G1 X105.676 Y41.972 F9600.000
G1 E2.00000 F1800.000
G1 X105.460 Y42.435 E2.01471 F2790
G1 X105.118 Y42.923 E2.03185
G1 X104.697 Y43.344 E2.04899
G1 X104.209 Y43.686 E2.06613
G1 X103.669 Y43.938 E2.08327
G1 X103.093 Y44.092 E2.10041
G1 X102.500 Y44.144 E2.11755
G1 X101.907 Y44.092 E2.13469
G1 X101.331 Y43.938 E2.15183
G1 X100.791 Y43.686 E2.16897
G1 X100.303 Y43.344 E2.18611
G1 X99.882 Y42.923 E2.20325
G1 X99.540 Y42.435 E2.22039
G1 X99.289 Y41.895 E2.23753
G1 X99.135 Y41.320 E2.25467
G1 X99.083 Y40.726 E2.27181
G1 X99.135 Y40.133 E2.28895
G1 X99.156 Y40.051 E2.29138
G1 X99.289 Y39.557 E2.30609
G1 X99.540 Y39.018 E2.32322
G1 X99.882 Y38.530 E2.34037
G1 X100.303 Y38.108 E2.35751
G1 X100.791 Y37.767 E2.37465
G1 X101.331 Y37.515 E2.39179
G1 X101.907 Y37.361 E2.40893
G1 X102.500 Y37.309 E2.42607
G1 X103.093 Y37.361 E2.44321
G1 X103.669 Y37.515 E2.46035
G1 X104.209 Y37.767 E2.47749
G1 X104.697 Y38.108 E2.49462
G1 X105.118 Y38.530 E2.51177
G1 X105.460 Y39.018 E2.52890
G1 X105.711 Y39.557 E2.54605
G1 X105.865 Y40.133 E2.56318
G1 X105.917 Y40.726 E2.58032
G1 X105.865 Y41.320 E2.59746
G1 X105.707 Y41.904 E2.61487
G1 X105.187 Y41.744 F9600.000
G1 X104.991 Y42.164 E2.62823 F2790
G1 X104.703 Y42.575 E2.64265
G1 X104.349 Y42.929 E2.65708
G1 X103.938 Y43.217 E2.67150
G1 X103.484 Y43.429 E2.68593
G1 X102.999 Y43.559 E2.70035
G1 X102.500 Y43.602 E2.71477
G1 X102.001 Y43.559 E2.72920
G1 X101.516 Y43.429 E2.74362
G1 X101.062 Y43.217 E2.75805
G1 X100.651 Y42.929 E2.77247
G1 X100.297 Y42.575 E2.78690
G1 X99.994 Y42.130 E2.80238
G1 X99.797 Y41.710 E2.81573
G1 X99.668 Y41.226 E2.83016
G1 X99.624 Y40.726 E2.84458
G1 X99.668 Y40.227 E2.85901
G1 X99.797 Y39.743 E2.87343
G1 X100.009 Y39.288 E2.88786
G1 X100.297 Y38.878 E2.90228
G1 X100.651 Y38.523 E2.91671
G1 X101.062 Y38.235 E2.93113
G1 X101.516 Y38.024 E2.94556
G1 X102.001 Y37.894 E2.95998
G1 X102.500 Y37.850 E2.97441
G1 X102.999 Y37.894 E2.98883
G1 X103.484 Y38.024 E3.00326
G1 X103.938 Y38.235 E3.01768
G1 X104.349 Y38.523 E3.03211
G1 X104.703 Y38.878 E3.04653
G1 X104.991 Y39.288 E3.06096
G1 X105.203 Y39.743 E3.07538
G1 X105.332 Y40.227 E3.08981
G1 X105.376 Y40.726 E3.10423
G1 X105.332 Y41.226 E3.11866
G1 X105.212 Y41.673 E3.13200
G1 X105.473 Y42.109 F9600.000
G1 F1800.000 E1.13200
G92 E0
G1 X47.323 Y41.262 F9600.000
G1 E2.00000 F1800.000
G1 X47.203 Y41.710 E2.01335 F2790
G1 X46.991 Y42.164 E2.02778
G1 X46.703 Y42.575 E2.04220
G1 X46.349 Y42.929 E2.05663
G1 X45.938 Y43.217 E2.07105
G1 X45.484 Y43.429 E2.08548
G1 X44.999 Y43.559 E2.09990
G1 X44.500 Y43.602 E2.11433
G1 X44.001 Y43.559 E2.12875
G1 X43.516 Y43.429 E2.14318
G1 X43.062 Y43.217 E2.15760
G1 X42.651 Y42.929 E2.17203
G1 X42.297 Y42.575 E2.18645
G1 X42.009 Y42.164 E2.20087
G1 X41.797 Y41.710 E2.21530
G1 X41.668 Y41.226 E2.22972
G1 X41.624 Y40.726 E2.24415
G1 X41.668 Y40.227 E2.25857
G1 X41.797 Y39.743 E2.27300
G1 X42.009 Y39.288 E2.28742
G1 X42.297 Y38.878 E2.30185
G1 X42.651 Y38.523 E2.31627
G1 X43.062 Y38.235 E2.33070
G1 X43.516 Y38.024 E2.34512
G1 X44.001 Y37.894 E2.35955
G1 X44.500 Y37.850 E2.37397
G1 X44.999 Y37.894 E2.38840
G1 X45.484 Y38.024 E2.40282
G1 X45.938 Y38.235 E2.41725
G1 X46.349 Y38.523 E2.43167
G1 X46.703 Y38.878 E2.44610
G1 X46.991 Y39.288 E2.46052
G1 X47.203 Y39.743 E2.47495
G1 X47.332 Y40.227 E2.48937
G1 X47.376 Y40.726 E2.50380
G1 X47.336 Y41.188 E2.51714
G1 X47.668 Y41.572 F9600.000
G1 F1800.000 E0.51714
G92 E0
G1 X68.825 Y44.070 F9600.000
G1 E2.00000 F1800.000
G1 X68.331 Y43.938 E2.01471 F2790
G1 X67.791 Y43.686 E2.03185
G1 X67.303 Y43.344 E2.04899
G1 X66.882 Y42.923 E2.06613
G1 X66.540 Y42.435 E2.08327
G1 X66.289 Y41.895 E2.10041
G1 X66.135 Y41.320 E2.11755
G1 X66.083 Y40.726 E2.13469
G1 X66.135 Y40.133 E2.15183
G1 X66.289 Y39.557 E2.16897
G1 X66.540 Y39.018 E2.18611
G1 X66.882 Y38.530 E2.20325
G1 X67.303 Y38.108 E2.22039
G1 X67.791 Y37.767 E2.23753
G1 X68.331 Y37.515 E2.25467
G1 X68.907 Y37.361 E2.27181
G1 X69.500 Y37.309 E2.28895
G1 X70.093 Y37.361 E2.30609
G1 X70.669 Y37.515 E2.32323
G1 X71.209 Y37.767 E2.34037
G1 X71.697 Y38.108 E2.35751
G1 X72.118 Y38.530 E2.37465
G1 X72.460 Y39.018 E2.39179
G1 X72.711 Y39.557 E2.40893
G1 X72.865 Y40.133 E2.42607
G1 X72.917 Y40.726 E2.44321
G1 X72.865 Y41.320 E2.46035
G1 X72.711 Y41.895 E2.47749
G1 X72.460 Y42.435 E2.49463
G1 X72.118 Y42.923 E2.51176
G1 X71.697 Y43.344 E2.52890
G1 X71.209 Y43.686 E2.54604
G1 X70.669 Y43.938 E2.56318
G1 X70.093 Y44.092 E2.58032
G1 X69.500 Y44.144 E2.59746
G1 X68.897 Y44.089 E2.61487
G1 X68.965 Y43.549 F9600.000
G1 X68.516 Y43.429 E2.62823 F2790
G1 X68.062 Y43.217 E2.64265
G1 X67.651 Y42.929 E2.65708
G1 X67.297 Y42.575 E2.67150
G1 X67.009 Y42.164 E2.68592
G1 X66.797 Y41.710 E2.70035
G1 X66.668 Y41.226 E2.71477
G1 X66.624 Y40.726 E2.72920
G1 X66.668 Y40.227 E2.74362
G1 X66.797 Y39.743 E2.75805
G1 X67.009 Y39.288 E2.77247
G1 X67.297 Y38.878 E2.78690
G1 X67.651 Y38.523 E2.80132
G1 X68.062 Y38.235 E2.81575
G1 X68.516 Y38.024 E2.83017
G1 X69.001 Y37.894 E2.84460
G1 X69.500 Y37.850 E2.85902
G1 X69.999 Y37.894 E2.87345
G1 X70.484 Y38.024 E2.88787
G1 X70.938 Y38.235 E2.90230
G1 X71.349 Y38.523 E2.91672
G1 X71.703 Y38.878 E2.93115
G1 X71.991 Y39.288 E2.94557
G1 X72.203 Y39.743 E2.96000
G1 X72.332 Y40.227 E2.97442
G1 X72.376 Y40.726 E2.98885
G1 X72.332 Y41.226 E3.00327
G1 X72.203 Y41.710 E3.01770
G1 X71.991 Y42.164 E3.03212
G1 X71.703 Y42.575 E3.04655
G1 X71.349 Y42.929 E3.06097
G1 X70.938 Y43.217 E3.07540
G1 X70.484 Y43.429 E3.08982
G1 X69.999 Y43.559 E3.10425
G1 X69.500 Y43.602 E3.11867
G1 X69.038 Y43.562 E3.13201
G1 X68.655 Y43.894 F9600.000
G1 F1800.000 E1.13201
G92 E0
G1 X76.825 Y44.070 F9600.000
G1 E2.00000 F1800.000
G1 X76.331 Y43.938 E2.01471 F2790
G1 X75.791 Y43.686 E2.03185
G1 X75.303 Y43.344 E2.04899
G1 X74.882 Y42.923 E2.06613
G1 X74.540 Y42.435 E2.08327
G1 X74.289 Y41.895 E2.10041
G1 X74.135 Y41.320 E2.11755
G1 X74.083 Y40.726 E2.13469
G1 X74.135 Y40.133 E2.15183
G1 X74.289 Y39.557 E2.16897
G1 X74.540 Y39.018 E2.18611
G1 X74.882 Y38.530 E2.20325
G1 X75.303 Y38.108 E2.22039
G1 X75.791 Y37.767 E2.23753
G1 X76.331 Y37.515 E2.25467
G1 X76.907 Y37.361 E2.27181
G1 X77.500 Y37.309 E2.28895
G1 X78.093 Y37.361 E2.30609
G1 X78.669 Y37.515 E2.32323
G1 X79.209 Y37.767 E2.34037
G1 X79.697 Y38.108 E2.35751
G1 X80.118 Y38.530 E2.37465
G1 X80.460 Y39.017 E2.39178
G1 X80.711 Y39.557 E2.40893
G1 X80.865 Y40.133 E2.42607
G1 X80.917 Y40.726 E2.44321
G1 X80.865 Y41.320 E2.46035
G1 X80.711 Y41.895 E2.47749
G1 X80.460 Y42.435 E2.49462
G1 X80.118 Y42.923 E2.51177
G1 X79.697 Y43.344 E2.52890
G1 X79.209 Y43.686 E2.54604
G1 X78.669 Y43.938 E2.56318
G1 X78.093 Y44.092 E2.58032
G1 X77.500 Y44.144 E2.59746
G1 X76.897 Y44.089 E2.61487
G1 X76.965 Y43.549 F9600.000
G1 X76.516 Y43.429 E2.62823 F2790
G1 X76.062 Y43.217 E2.64265
G1 X75.651 Y42.929 E2.65708
G1 X75.297 Y42.575 E2.67150
G1 X75.009 Y42.164 E2.68592
G1 X74.797 Y41.710 E2.70035
G1 X74.668 Y41.226 E2.71477
G1 X74.624 Y40.726 E2.72920
G1 X74.668 Y40.227 E2.74362
G1 X74.797 Y39.743 E2.75805
G1 X75.009 Y39.288 E2.77247
G1 X75.297 Y38.878 E2.78690
G1 X75.651 Y38.523 E2.80132
G1 X76.062 Y38.235 E2.81575
G1 X76.516 Y38.024 E2.83017
G1 X77.001 Y37.894 E2.84460
G1 X77.500 Y37.850 E2.85902
G1 X77.999 Y37.894 E2.87345
G1 X78.484 Y38.024 E2.88787
G1 X78.938 Y38.235 E2.90230
G1 X79.349 Y38.523 E2.91672
G1 X79.703 Y38.878 E2.93115
G1 X79.991 Y39.288 E2.94557
G1 X80.203 Y39.743 E2.96000
G1 X80.332 Y40.227 E2.97442
G1 X80.376 Y40.726 E2.98885
G1 X80.332 Y41.226 E3.00327
G1 X80.203 Y41.710 E3.01770
G1 X79.991 Y42.164 E3.03212
G1 X79.703 Y42.575 E3.04655
G1 X79.349 Y42.929 E3.06097
G1 X78.938 Y43.217 E3.07540
G1 X78.484 Y43.429 E3.08982
G1 X77.999 Y43.559 E3.10425
G1 X77.500 Y43.602 E3.11867
G1 X77.038 Y43.562 E3.13201
G1 X76.655 Y43.894 F9600.000
G1 F1800.000 E1.13201
G92 E0
G1 X78.745 Y69.551 F9600.000
G1 E2.00000 F1800.000
G1 X79.209 Y69.767 E2.01471 F2790
G1 X79.697 Y70.108 E2.03185
G1 X80.118 Y70.530 E2.04899
