; generated by Slic3r 1.1.1-dev on 2014-05-14 at 20:25:42

; perimeters extrusion width = 0.50mm
; infill extrusion width = 0.60mm
; solid infill extrusion width = 0.60mm
; top infill extrusion width = 0.55mm

G21 ; set units to millimeters
M107
G28 ; home all axes
G90 ; use absolute coordinates
G92 E0
M82 ; use absolute distances for extrusion
M204 S2000
G1 F1800.000 E-2.00000
G92 E0
G1 Z0.350 F9600.000
G1 X43.415 Y54.354 F9600.000
G1 E2.00000 F1800.000
G1 X44.869 Y53.455 E2.04920 F4500
G1 X46.435 Y52.752 E2.09858
G1 X48.066 Y52.262 E2.14759
G1 X49.754 Y51.988 E2.19679
G1 X51.000 Y51.921 E2.23270
G1 X133.461 Y51.936 E4.60537
G1 X135.164 Y52.109 E4.65462
G1 X136.828 Y52.502 E4.70382
G1 X137.566 Y52.752 E4.72622
G1 X138.427 Y53.108 E4.75304
G1 X139.125 Y53.453 E4.77545
G1 X139.933 Y53.918 E4.80226
G1 X141.320 Y54.918 E4.85146
G1 X142.565 Y56.090 E4.90066
G1 X143.646 Y57.415 E4.94986
G1 X144.079 Y58.063 E4.97230
G1 X144.521 Y58.822 E4.99756
G1 X155.325 Y80.322 E5.68989
G1 X156.079 Y83.500 E5.78388
G1 X156.063 Y135.463 E7.27902
G1 X155.891 Y137.164 E7.32822
G1 X155.498 Y138.828 E7.37742
G1 X154.892 Y140.427 E7.42661
G1 X154.554 Y141.111 E7.44857
G1 X154.082 Y141.933 E7.47584
G1 X153.082 Y143.320 E7.52503
G1 X151.893 Y144.580 E7.57489
G1 X150.586 Y145.645 E7.62341
G1 X149.131 Y146.545 E7.67263
G1 X147.572 Y147.246 E7.72180
G1 X145.934 Y147.738 E7.77102
G1 X144.246 Y148.012 E7.82022
G1 X143.000 Y148.079 E7.85613
G1 X31.000 Y148.079 E11.07873
G1 X28.662 Y147.681 E11.14696
G1 X26.587 Y146.534 E11.21519
G1 X25.007 Y144.766 E11.28341
G1 X24.099 Y142.576 E11.35164
G1 X23.921 Y141.000 E11.39727
G1 X23.984 Y128.061 E11.76956
G1 X28.109 Y97.336 E12.66156
G1 X28.406 Y95.976 E12.70160
G1 X38.502 Y61.172 E13.74432
G1 X39.108 Y59.573 E13.79352
G1 X39.918 Y58.067 E13.84272
G1 X40.918 Y56.680 E13.89191
G1 X42.090 Y55.435 E13.94111
G1 X43.357 Y54.402 E13.98815
G1 X43.714 Y54.803 F9600.000
G1 X45.108 Y53.939 E14.03532 F4500
G1 X46.608 Y53.262 E14.08268
G1 X48.171 Y52.791 E14.12966
G1 X49.789 Y52.526 E14.17683
G1 X51.000 Y52.461 E14.21172
G1 X133.426 Y52.475 E16.58338
G1 X135.059 Y52.638 E16.63060
G1 X136.655 Y53.012 E16.67777
G1 X137.392 Y53.263 E16.70017
G1 X138.188 Y53.592 E16.72496
G1 X138.887 Y53.936 E16.74737
G1 X139.633 Y54.367 E16.77215
G1 X140.964 Y55.323 E16.81933
G1 X142.159 Y56.446 E16.86650
G1 X143.197 Y57.714 E16.91366
G1 X143.631 Y58.363 E16.93610
G1 X144.039 Y59.064 E16.95945
G1 X154.843 Y80.564 E17.65179
G1 X155.539 Y83.500 E17.73861
G1 X155.525 Y135.428 E19.23274
G1 X155.362 Y137.059 E19.27991
G1 X154.988 Y138.655 E19.32708
G1 X154.408 Y140.188 E19.37424
G1 X154.071 Y140.873 E19.39620
G1 X153.633 Y141.633 E19.42144
G1 X152.677 Y142.964 E19.46861
G1 X151.537 Y144.174 E19.51643
G1 X150.286 Y145.197 E19.56292
G1 X148.892 Y146.061 E19.61011
G1 X147.399 Y146.735 E19.65726
G1 X145.829 Y147.209 E19.70445
G1 X144.211 Y147.474 E19.75162
G1 X143.000 Y147.539 E19.78651
G1 X31.000 Y147.539 E23.00911
G1 X28.756 Y147.142 E23.07467
G1 X26.785 Y146.000 E23.14023
G1 X25.326 Y144.250 E23.20579
G1 X24.461 Y141.000 E23.30256
G1 X24.518 Y128.133 E23.67279
G1 X28.638 Y97.441 E24.56381
G1 X28.924 Y96.127 E24.60252
G1 X39.012 Y61.345 E25.64454
G1 X39.592 Y59.812 E25.69171
G1 X40.367 Y58.367 E25.73888
G1 X41.323 Y57.036 E25.78605
G1 X42.446 Y55.841 E25.83322
G1 X43.656 Y54.850 E25.87823
G1 F1800.000 E23.87823
G92 E0
G1 X40.063 Y129.224 F9600.000
G1 E2.00000 F1800.000
G1 X40.785 Y129.086 E2.02116 F2790
G1 X41.641 Y129.140 E2.04584
G1 X42.456 Y129.405 E2.07051
G1 X43.180 Y129.864 E2.09518
G1 X43.767 Y130.489 E2.11985
G1 X44.181 Y131.241 E2.14452
G1 X44.394 Y132.071 E2.16920
G1 X44.394 Y132.929 E2.19387
G1 X44.181 Y133.759 E2.21854
G1 X43.767 Y134.511 E2.24321
G1 X43.180 Y135.136 E2.26789
G1 X42.456 Y135.595 E2.29256
G1 X41.641 Y135.860 E2.31723
G1 X40.785 Y135.914 E2.34190
G1 X39.943 Y135.753 E2.36657
G1 X39.167 Y135.388 E2.39125
G1 X38.506 Y134.842 E2.41592
G1 X38.435 Y134.743 E2.41942
G1 X38.002 Y134.148 E2.44059
G1 X37.687 Y133.351 E2.46526
G1 X37.579 Y132.500 E2.48993
G1 X37.687 Y131.649 E2.51461
G1 X38.002 Y130.852 E2.53928
G1 X38.506 Y130.158 E2.56395
G1 X39.167 Y129.612 E2.58862
G1 X39.989 Y129.238 E2.61460
G1 X40.164 Y129.754 F9600.000
G1 X40.819 Y129.628 E2.63381 F2790
G1 X41.539 Y129.674 E2.65456
G1 X42.225 Y129.897 E2.67531
G1 X42.834 Y130.283 E2.69606
G1 X43.354 Y130.856 E2.71831
G1 X43.675 Y131.441 E2.73752
G1 X43.854 Y132.139 E2.75827
G1 X43.854 Y132.861 E2.77902
G1 X43.675 Y133.559 E2.79978
G1 X43.328 Y134.191 E2.82053
G1 X42.834 Y134.717 E2.84128
G1 X42.225 Y135.103 E2.86203
G1 X41.539 Y135.326 E2.88278
G1 X40.767 Y135.361 E2.90503
G1 X40.111 Y135.236 E2.92424
G1 X39.458 Y134.929 E2.94499
G1 X38.871 Y134.426 E2.96724
G1 X38.479 Y133.886 E2.98645
G1 X38.213 Y133.216 E3.00720
G1 X38.123 Y132.500 E3.02795
G1 X38.213 Y131.784 E3.04870
G1 X38.479 Y131.114 E3.06946
G1 X38.903 Y130.530 E3.09021
G1 X39.458 Y130.071 E3.11096
G1 X40.092 Y129.773 E3.13110
G1 X40.291 Y129.270 F9600.000
G1 F1800.000 E1.13110
G92 E0
G1 X76.850 Y137.011 F9600.000
G1 E2.00000 F1800.000
G1 X76.779 Y136.450 E2.01626 F2790
G1 X76.865 Y135.773 E2.03589
G1 X77.116 Y135.139 E2.05551
G1 X77.517 Y134.588 E2.07513
G1 X78.042 Y134.153 E2.09476
G1 X78.659 Y133.862 E2.11438
G1 X79.329 Y133.735 E2.13400
G1 X80.010 Y133.777 E2.15363
G1 X80.658 Y133.988 E2.17325
G1 X81.234 Y134.354 E2.19287
G1 X81.701 Y134.851 E2.21250
G1 X82.030 Y135.448 E2.23212
G1 X82.199 Y136.109 E2.25174
G1 X82.199 Y136.791 E2.27137
G1 X82.030 Y137.452 E2.29099
G1 X81.701 Y138.049 E2.31061
G1 X81.234 Y138.546 E2.33023
G1 X80.757 Y138.849 E2.34650
G1 X80.658 Y138.912 E2.34986
G1 X80.010 Y139.123 E2.36948
G1 X79.329 Y139.165 E2.38910
G1 X79.215 Y139.144 E2.39246
G1 X78.659 Y139.038 E2.40873
G1 X78.042 Y138.747 E2.42835
G1 X77.517 Y138.312 E2.44798
G1 X77.116 Y137.761 E2.46760
G1 X76.859 Y137.085 E2.48839
G1 X77.385 Y136.943 F9600.000
G1 X77.323 Y136.450 E2.50269 F2790
G1 X77.391 Y135.909 E2.51839
G1 X77.592 Y135.401 E2.53410
G1 X77.913 Y134.960 E2.54980
G1 X78.333 Y134.612 E2.56550
G1 X78.827 Y134.379 E2.58121
G1 X79.363 Y134.277 E2.59691
G1 X79.908 Y134.311 E2.61261
G1 X80.427 Y134.480 E2.62831
G1 X80.888 Y134.772 E2.64402
G1 X81.261 Y135.170 E2.65972
G1 X81.524 Y135.649 E2.67542
G1 X81.660 Y136.177 E2.69113
G1 X81.660 Y136.723 E2.70683
G1 X81.524 Y137.251 E2.72253
G1 X81.261 Y137.730 E2.73823
G1 X80.888 Y138.128 E2.75394
G1 X80.468 Y138.394 E2.76824
G1 X79.908 Y138.589 E2.78530
G1 X79.316 Y138.614 E2.80237
G1 X78.827 Y138.521 E2.81667
G1 X78.333 Y138.288 E2.83237
G1 X77.913 Y137.940 E2.84808
G1 X77.592 Y137.499 E2.86378
G1 X77.401 Y137.016 E2.87872
G1 X76.913 Y136.786 F9600.000
G1 F1800.000 E0.87872
G92 E0
G1 X67.341 Y135.633 F9600.000
G1 E2.00000 F1800.000
G1 X66.641 Y135.860 E2.02116 F2790
G1 X65.785 Y135.914 E2.04583
G1 X64.943 Y135.753 E2.07051
G1 X64.167 Y135.388 E2.09518
G1 X63.506 Y134.842 E2.11985
G1 X63.435 Y134.743 E2.12336
G1 X63.002 Y134.148 E2.14452
G1 X62.687 Y133.351 E2.16920
G1 X62.579 Y132.500 E2.19387
G1 X62.687 Y131.649 E2.21854
G1 X63.002 Y130.852 E2.24321
G1 X63.506 Y130.158 E2.26788
G1 X63.600 Y130.081 E2.27139
G1 X64.167 Y129.612 E2.29255
G1 X64.943 Y129.247 E2.31723
G1 X65.785 Y129.086 E2.34190
G1 X65.907 Y129.094 E2.34541
G1 X66.641 Y129.140 E2.36657
G1 X67.456 Y129.405 E2.39124
G1 X68.180 Y129.864 E2.41592
G1 X68.767 Y130.489 E2.44059
G1 X69.181 Y131.241 E2.46526
G1 X69.394 Y132.071 E2.48993
G1 X69.394 Y132.929 E2.51461
G1 X69.181 Y133.759 E2.53928
G1 X68.767 Y134.511 E2.56395
G1 X68.180 Y135.136 E2.58862
G1 X67.412 Y135.610 E2.61460
G1 X67.174 Y135.120 F9600.000
G1 X66.539 Y135.326 E2.63381 F2790
G1 X65.819 Y135.372 E2.65456
G1 X65.111 Y135.236 E2.67531
G1 X64.458 Y134.929 E2.69606
G1 X63.871 Y134.426 E2.71831
G1 X63.479 Y133.886 E2.73752
G1 X63.213 Y133.216 E2.75827
G1 X63.123 Y132.500 E2.77902
G1 X63.213 Y131.784 E2.79978
G1 X63.479 Y131.114 E2.82053
G1 X63.944 Y130.496 E2.84278
G1 X64.458 Y130.071 E2.86198
G1 X65.111 Y129.764 E2.88274
G1 X65.873 Y129.632 E2.90499
G1 X66.539 Y129.674 E2.92419
G1 X67.225 Y129.897 E2.94495
G1 X67.834 Y130.283 E2.96570
G1 X68.328 Y130.809 E2.98645
G1 X68.675 Y131.441 E3.00720
G1 X68.855 Y132.139 E3.02795
G1 X68.855 Y132.861 E3.04870
G1 X68.675 Y133.559 E3.06946
G1 X68.328 Y134.191 E3.09021
G1 X67.834 Y134.717 E3.11096
G1 X67.243 Y135.092 E3.13110
G1 X67.108 Y135.616 F9600.000
G1 F1800.000 E1.13110
G92 E0
G1 X60.797 Y71.717 F9600.000
G1 E2.00000 F1800.000
G1 X60.912 Y71.795 E2.00400 F2790
G1 X61.952 Y72.902 E2.04771
G1 X62.691 Y74.247 E2.09186
G1 X63.072 Y75.733 E2.13601
G1 X63.072 Y77.267 E2.18015
G1 X62.691 Y78.753 E2.22430
G1 X61.952 Y80.098 E2.26844
G1 X60.902 Y81.216 E2.31259
G1 X59.606 Y82.038 E2.35673
G1 X58.147 Y82.512 E2.40088
G1 X56.616 Y82.609 E2.44502
G1 X55.109 Y82.321 E2.48917
G1 X53.720 Y81.668 E2.53332
G1 X52.538 Y80.690 E2.57746
G1 X52.471 Y80.598 E2.58074
G1 X51.636 Y79.449 E2.62161
G1 X51.072 Y78.022 E2.66575
G1 X50.879 Y76.500 E2.70990
G1 X51.072 Y74.978 E2.75405
G1 X51.636 Y73.551 E2.79819
G1 X52.545 Y72.301 E2.84265
G1 X53.718 Y71.335 E2.88638
G1 X55.013 Y70.723 E2.92762
G1 X55.216 Y70.657 E2.93375
G1 X56.604 Y70.398 E2.97438
G1 X58.178 Y70.500 E3.01975
G1 X59.595 Y70.963 E3.06265
G1 X60.733 Y71.677 E3.10130
G1 X60.510 Y72.174 F9600.000
G1 X61.512 Y73.222 E3.14303 F2790
G1 X62.186 Y74.447 E3.18325
G1 X62.533 Y75.801 E3.22348
G1 X62.533 Y77.199 E3.26370
G1 X62.186 Y78.553 E3.30393
G1 X61.512 Y79.778 E3.34415
G1 X60.555 Y80.797 E3.38438
G1 X59.375 Y81.546 E3.42460
G1 X58.045 Y81.978 E3.46483
G1 X56.650 Y82.066 E3.50505
G1 X55.277 Y81.804 E3.54528
G1 X54.012 Y81.209 E3.58550
G1 X52.907 Y80.281 E3.62701
G1 X52.113 Y79.187 E3.66592
G1 X51.598 Y77.887 E3.70614
G1 X51.423 Y76.500 E3.74637
G1 X51.598 Y75.113 E3.78659
G1 X52.113 Y73.813 E3.82682
G1 X52.937 Y72.679 E3.86715
G1 X54.014 Y71.790 E3.90733
G1 X55.324 Y71.186 E3.94884
G1 X56.645 Y70.936 E3.98753
G1 X58.058 Y71.026 E4.02829
G1 X59.370 Y71.454 E4.06799
G1 X60.447 Y72.133 E4.10462
G1 X60.985 Y72.016 F9600.000
G1 F1800.000 E2.10462
G92 E0
G1 X41.757 Y97.178 F9600.000
G1 E2.00000 F1800.000
G1 X42.456 Y97.405 E2.02116 F2790
G1 X43.180 Y97.864 E2.04584
G1 X43.767 Y98.489 E2.07051
G1 X44.181 Y99.241 E2.09518
G1 X44.394 Y100.071 E2.11985
G1 X44.394 Y100.929 E2.14452
G1 X44.181 Y101.759 E2.16920
G1 X43.767 Y102.511 E2.19387
G1 X43.180 Y103.136 E2.21854
G1 X42.456 Y103.595 E2.24321
G1 X41.641 Y103.860 E2.26789
G1 X40.785 Y103.914 E2.29256
G1 X39.943 Y103.753 E2.31723
G1 X39.167 Y103.388 E2.34190
G1 X38.506 Y102.842 E2.36657
G1 X38.002 Y102.148 E2.39124
G1 X37.687 Y101.351 E2.41592
G1 X37.579 Y100.500 E2.44059
G1 X37.687 Y99.649 E2.46526
G1 X38.002 Y98.852 E2.48993
G1 X38.506 Y98.158 E2.51461
G1 X39.167 Y97.612 E2.53928
G1 X39.943 Y97.247 E2.56395
G1 X40.785 Y97.086 E2.58862
G1 X41.686 Y97.154 E2.61460
G1 X41.590 Y97.690 F9600.000
G1 X42.225 Y97.897 E2.63381 F2790
G1 X42.834 Y98.283 E2.65456
G1 X43.328 Y98.809 E2.67531
G1 X43.675 Y99.441 E2.69606
G1 X43.854 Y100.139 E2.71681
G1 X43.854 Y100.861 E2.73757
G1 X43.675 Y101.559 E2.75832
G1 X43.328 Y102.191 E2.77907
G1 X42.834 Y102.717 E2.79982
G1 X42.225 Y103.103 E2.82057
G1 X41.539 Y103.326 E2.84132
G1 X40.819 Y103.372 E2.86208
G1 X40.111 Y103.236 E2.88283
G1 X39.458 Y102.929 E2.90358
G1 X38.903 Y102.470 E2.92433
G1 X38.479 Y101.886 E2.94508
G1 X38.213 Y101.216 E2.96583
G1 X38.123 Y100.500 E2.98659
G1 X38.213 Y99.784 E3.00734
G1 X38.479 Y99.114 E3.02809
G1 X38.903 Y98.530 E3.04884
G1 X39.458 Y98.071 E3.06959
G1 X40.111 Y97.764 E3.09034
G1 X40.819 Y97.628 E3.11110
G1 X41.518 Y97.672 E3.13124
G1 X41.935 Y97.328 F9600.000
G1 F1800.000 E1.13124
G92 E0
G1 X62.687 Y99.649 F9600.000
G1 E2.00000 F1800.000
G1 X63.002 Y98.852 E2.02467 F2790
G1 X63.506 Y98.158 E2.04934
G1 X64.167 Y97.612 E2.07402
G1 X64.943 Y97.247 E2.09869
G1 X65.785 Y97.086 E2.12336
G1 X66.641 Y97.140 E2.14803
G1 X67.456 Y97.405 E2.17270
G1 X68.180 Y97.864 E2.19738
G1 X68.767 Y98.489 E2.22205
G1 X69.181 Y99.241 E2.24672
G1 X69.394 Y100.071 E2.27139
G1 X69.394 Y100.929 E2.29606
G1 X69.181 Y101.759 E2.32074
G1 X68.767 Y102.511 E2.34541
G1 X68.180 Y103.136 E2.37008
G1 X67.456 Y103.595 E2.39475
G1 X66.641 Y103.860 E2.41942
G1 X65.785 Y103.914 E2.44410
G1 X64.943 Y103.753 E2.46877
G1 X64.833 Y103.701 E2.47227
G1 X64.167 Y103.388 E2.49344
G1 X63.506 Y102.842 E2.51811
G1 X63.002 Y102.148 E2.54278
G1 X62.687 Y101.351 E2.56746
G1 X62.579 Y100.500 E2.59213
G1 X62.677 Y99.724 E2.61464
G1 X63.213 Y99.784 F9600.000
G1 X63.479 Y99.114 E2.63539 F2790
G1 X63.903 Y98.530 E2.65615
G1 X64.458 Y98.071 E2.67690
G1 X65.111 Y97.764 E2.69765
G1 X65.819 Y97.628 E2.71840
G1 X66.539 Y97.674 E2.73915
G1 X67.225 Y97.897 E2.75990
G1 X67.834 Y98.283 E2.78066
G1 X68.328 Y98.809 E2.80141
G1 X68.675 Y99.441 E2.82216
G1 X68.855 Y100.139 E2.84291
G1 X68.855 Y100.861 E2.86366
G1 X68.675 Y101.559 E2.88441
G1 X68.328 Y102.191 E2.90517
G1 X67.834 Y102.717 E2.92592
G1 X67.225 Y103.103 E2.94667
G1 X66.539 Y103.326 E2.96742
G1 X65.819 Y103.372 E2.98817
G1 X65.062 Y103.213 E3.01043
G1 X64.458 Y102.929 E3.02963
G1 X63.903 Y102.470 E3.05038
G1 X63.479 Y101.886 E3.07113
G1 X63.213 Y101.216 E3.09189
G1 X63.123 Y100.500 E3.11264
G1 X63.204 Y99.859 E3.13123
G1 X62.871 Y99.420 F9600.000
G1 F1800.000 E1.13123
G92 E0
G1 X77.448 Y99.818 F9600.000
G1 E2.00000 F1800.000
G1 X77.116 Y99.361 E2.01626 F2790
G1 X76.865 Y98.727 E2.03589
G1 X76.779 Y98.050 E2.05551
G1 X76.865 Y97.373 E2.07513
G1 X77.116 Y96.739 E2.09475
G1 X77.184 Y96.645 E2.09811
G1 X77.517 Y96.188 E2.11438
G1 X78.042 Y95.753 E2.13400
G1 X78.659 Y95.462 E2.15362
G1 X78.774 Y95.441 E2.15698
G1 X79.329 Y95.335 E2.17325
G1 X80.010 Y95.377 E2.19287
G1 X80.658 Y95.588 E2.21250
G1 X81.234 Y95.954 E2.23212
G1 X81.701 Y96.451 E2.25174
G1 X82.030 Y97.048 E2.27137
G1 X82.199 Y97.709 E2.29099
G1 X82.199 Y98.391 E2.31061
G1 X82.030 Y99.052 E2.33023
G1 X81.701 Y99.649 E2.34986
G1 X81.234 Y100.146 E2.36948
G1 X80.658 Y100.512 E2.38910
G1 X80.010 Y100.723 E2.40873
G1 X79.329 Y100.765 E2.42835
G1 X78.659 Y100.638 E2.44798
G1 X78.042 Y100.347 E2.46760
G1 X77.492 Y99.879 E2.48839
G1 X77.884 Y99.501 F9600.000
G1 X77.592 Y99.099 E2.50269 F2790
G1 X77.391 Y98.591 E2.51839
G1 X77.323 Y98.050 E2.53410
G1 X77.391 Y97.509 E2.54980
G1 X77.621 Y96.962 E2.56686
G1 X77.913 Y96.560 E2.58117
G1 X78.333 Y96.212 E2.59687
G1 X78.875 Y95.970 E2.61393
G1 X79.363 Y95.877 E2.62823
G1 X79.908 Y95.911 E2.64394
G1 X80.427 Y96.080 E2.65964
G1 X80.888 Y96.372 E2.67534
G1 X81.261 Y96.770 E2.69105
G1 X81.524 Y97.249 E2.70675
G1 X81.660 Y97.777 E2.72245
G1 X81.660 Y98.323 E2.73816
G1 X81.524 Y98.851 E2.75386
G1 X81.261 Y99.330 E2.76956
G1 X80.888 Y99.728 E2.78526
G1 X80.427 Y100.020 E2.80097
G1 X79.908 Y100.189 E2.81667
G1 X79.363 Y100.223 E2.83237
G1 X78.827 Y100.121 E2.84808
G1 X78.333 Y99.888 E2.86378
G1 X77.933 Y99.557 E2.87872
G1 X77.395 Y99.591 F9600.000
G1 F1800.000 E0.87872
G92 E0
G1 X102.243 Y99.547 F9600.000
G1 E2.00000 F1800.000
G1 X101.970 Y99.052 E2.01626 F2790
G1 X101.801 Y98.391 E2.03588
G1 X101.801 Y97.709 E2.05551
G1 X101.970 Y97.049 E2.07513
G1 X102.299 Y96.451 E2.09475
G1 X102.766 Y95.954 E2.11438
G1 X103.342 Y95.588 E2.13400
G1 X103.990 Y95.377 E2.15362
G1 X104.671 Y95.335 E2.17325
G1 X105.341 Y95.462 E2.19287
G1 X105.958 Y95.753 E2.21250
G1 X106.483 Y96.188 E2.23212
G1 X106.884 Y96.739 E2.25174
G1 X107.135 Y97.373 E2.27137
G1 X107.221 Y98.050 E2.29099
G1 X107.135 Y98.727 E2.31061
G1 X106.884 Y99.361 E2.33024
G1 X106.483 Y99.912 E2.34986
G1 X105.958 Y100.347 E2.36948
G1 X105.341 Y100.638 E2.38910
G1 X104.671 Y100.765 E2.40873
G1 X103.990 Y100.723 E2.42835
G1 X103.342 Y100.512 E2.44797
G1 X102.766 Y100.146 E2.46760
G1 X102.279 Y99.613 E2.48839
G1 X102.715 Y99.287 F9600.000
G1 X102.476 Y98.851 E2.50269 F2790
G1 X102.340 Y98.323 E2.51839
G1 X102.340 Y97.777 E2.53410
G1 X102.476 Y97.249 E2.54980
G1 X102.739 Y96.770 E2.56550
G1 X103.112 Y96.372 E2.58121
G1 X103.573 Y96.080 E2.59691
G1 X104.092 Y95.911 E2.61261
G1 X104.637 Y95.877 E2.62831
G1 X105.173 Y95.979 E2.64402
G1 X105.667 Y96.212 E2.65972
G1 X106.087 Y96.560 E2.67542
G1 X106.408 Y97.001 E2.69113
G1 X106.609 Y97.509 E2.70683
