; generated by Slic3r 1.1.1-dev on 2014-05-14 at 19:50:26

; perimeters extrusion width = 0.50mm
; infill extrusion width = 0.60mm
; solid infill extrusion width = 0.60mm
; top infill extrusion width = 0.55mm

G21 ; set units to millimeters
M107
G28 ; home all axes
G90 ; use absolute coordinates
G92 E0
M82 ; use absolute distances for extrusion
M204 S2000
G1 F1800.000 E-2.00000
G92 E0
G1 Z0.350 F9600.000
G1 X42.921 Y-0.000 F9600.000
G1 E2.00000 F1800.000
G1 X43.319 Y-2.338 E2.06823 F4500
G1 X44.466 Y-4.413 E2.13646
G1 X46.234 Y-5.993 E2.20469
G1 X48.424 Y-6.901 E2.27291
G1 X50.000 Y-7.079 E2.31854
G1 X97.004 Y-7.071 E3.67099
G1 X98.698 Y-7.015 E3.71976
G1 X100.389 Y-6.904 E3.76852
G1 X101.233 Y-6.829 E3.79290
G1 X102.916 Y-6.637 E3.84166
G1 X104.593 Y-6.392 E3.89042
G1 X105.441 Y-6.247 E3.91517
G1 X107.092 Y-5.924 E3.96356
G1 X108.743 Y-5.545 E4.01232
G1 X109.577 Y-5.332 E4.03707
G1 X111.196 Y-4.878 E4.08546
G1 X112.812 Y-4.368 E4.13422
G1 X113.626 Y-4.090 E4.15897
G1 X115.204 Y-3.507 E4.20736
G1 X116.774 Y-2.870 E4.25612
G1 X117.551 Y-2.533 E4.28050
G1 X119.089 Y-1.820 E4.32926
G1 X120.602 Y-1.060 E4.37797
G1 X121.351 Y-0.661 E4.40240
G1 X122.826 Y0.172 E4.45114
G1 X124.274 Y1.051 E4.49988
G1 X124.989 Y1.509 E4.52430
G1 X126.391 Y2.456 E4.57300
G1 X127.766 Y3.450 E4.62181
G1 X129.105 Y4.485 E4.67051
G1 X130.414 Y5.565 E4.71934
G1 X131.686 Y6.685 E4.76810
G1 X132.921 Y7.845 E4.81685
G1 X134.118 Y9.045 E4.86562
G1 X135.200 Y10.198 E4.91112
G1 X136.495 Y12.185 E4.97934
G1 X137.079 Y15.000 E5.06208
G1 X137.079 Y185.000 E9.95353
G1 X136.681 Y187.338 E10.02176
G1 X135.200 Y189.802 E10.10449
G1 X134.039 Y191.037 E10.15325
G1 X132.839 Y192.233 E10.20201
G1 X131.602 Y193.391 E10.25077
G1 X130.969 Y193.955 E10.27515
G1 X129.774 Y194.972 E10.32031
G1 X129.018 Y195.584 E10.34829
G1 X128.351 Y196.107 E10.37268
G1 X126.992 Y197.118 E10.42143
G1 X125.600 Y198.086 E10.47019
G1 X124.893 Y198.553 E10.49458
G1 X124.179 Y199.008 E10.51895
G1 X122.837 Y199.822 E10.56410
G1 X121.251 Y200.715 E10.61648
G1 X119.858 Y201.441 E10.66167
G1 X118.987 Y201.870 E10.68961
G1 X117.447 Y202.578 E10.73837
G1 X116.669 Y202.914 E10.76276
G1 X115.215 Y203.503 E10.80791
G1 X114.305 Y203.846 E10.83589
G1 X113.507 Y204.132 E10.86028
G1 X111.898 Y204.664 E10.90903
G1 X110.393 Y205.110 E10.95422
G1 X109.455 Y205.364 E10.98217
G1 X107.808 Y205.766 E11.03094
G1 X106.150 Y206.115 E11.07970
G1 X105.317 Y206.269 E11.10407
G1 X104.481 Y206.410 E11.12846
G1 X102.804 Y206.652 E11.17722
G1 X101.242 Y206.828 E11.22245
G1 X100.276 Y206.913 E11.25035
G1 X98.584 Y207.020 E11.29912
G1 X97.015 Y207.070 E11.34430
G1 X50.000 Y207.079 E12.69707
G1 X47.662 Y206.681 E12.76530
G1 X45.587 Y205.534 E12.83353
G1 X44.007 Y203.766 E12.90176
G1 X43.099 Y201.576 E12.96999
G1 X42.921 Y200.000 E13.01561
G1 X42.921 Y0.075 E18.76810
G1 X43.461 Y-0.000 F9600.000
G1 X43.858 Y-2.244 E18.83366 F4500
G1 X45.000 Y-4.215 E18.89922
G1 X46.750 Y-5.674 E18.96478
G1 X50.000 Y-6.539 E19.06155
G1 X96.991 Y-6.532 E20.41363
G1 X98.667 Y-6.476 E20.46189
G1 X100.341 Y-6.367 E20.51016
G1 X101.177 Y-6.292 E20.53429
G1 X102.843 Y-6.103 E20.58255
G1 X104.503 Y-5.860 E20.63081
G1 X105.342 Y-5.717 E20.65531
G1 X106.976 Y-5.397 E20.70321
G1 X108.611 Y-5.022 E20.75147
G1 X109.436 Y-4.812 E20.77597
G1 X111.039 Y-4.362 E20.82386
G1 X112.638 Y-3.858 E20.87213
G1 X113.444 Y-3.582 E20.89663
G1 X115.005 Y-3.006 E20.94452
G1 X116.560 Y-2.375 E20.99278
G1 X117.329 Y-2.041 E21.01692
G1 X118.851 Y-1.336 E21.06518
G1 X120.348 Y-0.584 E21.11340
G1 X121.090 Y-0.189 E21.13757
G1 X122.550 Y0.635 E21.18582
G1 X123.983 Y1.505 E21.23406
G1 X124.691 Y1.959 E21.25823
G1 X126.080 Y2.896 E21.30644
G1 X127.440 Y3.880 E21.35475
G1 X128.766 Y4.904 E21.40296
G1 X130.061 Y5.973 E21.45128
G1 X131.320 Y7.082 E21.49954
G1 X132.543 Y8.230 E21.54780
G1 X133.728 Y9.417 E21.59607
G1 X134.804 Y10.564 E21.64132
G1 X136.035 Y12.481 E21.70688
G1 X136.539 Y15.000 E21.78079
G1 X136.539 Y185.000 E26.67224
G1 X136.142 Y187.244 E26.73780
G1 X134.804 Y189.436 E26.81172
G1 X134.234 Y190.052 E26.83585
G1 X133.066 Y191.256 E26.88412
G1 X131.860 Y192.421 E26.93237
G1 X130.702 Y193.471 E26.97735
G1 X129.982 Y194.095 E27.00477
G1 X128.777 Y195.087 E27.04967
G1 X128.025 Y195.677 E27.07717
G1 X126.680 Y196.678 E27.12543
G1 X125.995 Y197.163 E27.14956
G1 X124.700 Y198.035 E27.19449
G1 X123.896 Y198.550 E27.22196
G1 X122.562 Y199.358 E27.26685
G1 X121.732 Y199.834 E27.29435
G1 X120.257 Y200.632 E27.34261
G1 X119.510 Y201.013 E27.36675
G1 X118.103 Y201.690 E27.41169
G1 X116.463 Y202.416 E27.46327
G1 X115.017 Y203.001 E27.50818
G1 X114.123 Y203.339 E27.53567
G1 X113.333 Y203.621 E27.55980
G1 X111.741 Y204.148 E27.60806
G1 X110.244 Y204.592 E27.65299
G1 X109.322 Y204.842 E27.68045
G1 X107.693 Y205.239 E27.72872
G1 X106.051 Y205.585 E27.77699
G1 X105.227 Y205.737 E27.80111
G1 X104.399 Y205.877 E27.82525
G1 X102.739 Y206.116 E27.87351
G1 X101.186 Y206.291 E27.91848
G1 X100.237 Y206.375 E27.94590
G1 X98.563 Y206.481 E27.99417
G1 X97.002 Y206.531 E28.03910
G1 X50.000 Y206.539 E29.39150
G1 X47.756 Y206.142 E29.45706
G1 X45.785 Y205.000 E29.52262
G1 X44.326 Y203.250 E29.58817
G1 X43.461 Y200.000 E29.68494
G1 X43.461 Y0.075 E35.43743
G1 F1800.000 E33.43743
G92 E0
G1 X53.186 Y6.186 F9600.000
G1 E2.00000 F1800.000
G1 X58.814 Y6.186 E2.16195 F2790
G1 X58.814 Y13.814 E2.38145
G1 X53.186 Y13.814 E2.54340
G1 X53.186 Y6.261 E2.76074
G1 X53.725 Y6.725 F9600.000
G1 X58.275 Y6.725 E2.89166 F2790
G1 X58.275 Y13.275 E3.08012
G1 X53.725 Y13.275 E3.21104
G1 X53.725 Y6.800 E3.39735
G1 X53.725 Y6.225 F9600.000
G1 F1800.000 E1.39735
G92 E0
G1 X76.326 Y9.448 F9600.000
G1 E2.00000 F1800.000
G1 X76.374 Y9.184 E2.00772 F2790
G1 X76.502 Y8.732 E2.02122
G1 X76.685 Y8.300 E2.03474
G1 X76.796 Y8.093 E2.04150
G1 X77.037 Y7.728 E2.05406
G1 X77.203 Y7.518 E2.06178
G1 X77.530 Y7.181 E2.07529
G1 X77.708 Y7.028 E2.08205
G1 X78.092 Y6.757 E2.09556
G1 X78.295 Y6.639 E2.10232
G1 X78.722 Y6.443 E2.11584
G1 X79.138 Y6.310 E2.12840
G1 X79.399 Y6.250 E2.13611
G1 X79.865 Y6.193 E2.14963
G1 X80.133 Y6.186 E2.15734
G1 X80.569 Y6.214 E2.16990
G1 X81.030 Y6.301 E2.18341
G1 X81.256 Y6.365 E2.19017
G1 X81.694 Y6.534 E2.20368
G1 X81.933 Y6.656 E2.21140
G1 X82.304 Y6.887 E2.22396
G1 X82.670 Y7.181 E2.23748
G1 X82.997 Y7.518 E2.25098
G1 X83.144 Y7.701 E2.25774
G1 X83.297 Y7.921 E2.26546
G1 X83.515 Y8.300 E2.27802
G1 X83.625 Y8.544 E2.28573
G1 X83.769 Y8.956 E2.29830
G1 X83.832 Y9.216 E2.30600
G1 X83.898 Y9.648 E2.31857
G1 X83.913 Y10.117 E2.33208
G1 X83.869 Y10.585 E2.34559
G1 X83.826 Y10.816 E2.35236
G1 X83.698 Y11.268 E2.36587
G1 X83.599 Y11.517 E2.37357
G1 X83.404 Y11.907 E2.38614
G1 X83.144 Y12.299 E2.39965
G1 X82.997 Y12.482 E2.40642
G1 X82.670 Y12.819 E2.41992
G1 X82.465 Y12.992 E2.42764
G1 X82.108 Y13.243 E2.44020
G1 X81.694 Y13.465 E2.45371
G1 X81.256 Y13.635 E2.46723
G1 X81.030 Y13.699 E2.47399
G1 X80.569 Y13.786 E2.48750
G1 X80.335 Y13.807 E2.49426
G1 X80.067 Y13.814 E2.50197
G1 X79.631 Y13.786 E2.51453
G1 X79.170 Y13.699 E2.52805
G1 X78.944 Y13.635 E2.53481
G1 X78.506 Y13.465 E2.54832
G1 X78.295 Y13.361 E2.55508
G1 X77.924 Y13.132 E2.56764
G1 X77.708 Y12.972 E2.57536
G1 X77.361 Y12.655 E2.58887
G1 X77.056 Y12.299 E2.60238
G1 X76.796 Y11.907 E2.61590
G1 X76.685 Y11.700 E2.62266
G1 X76.502 Y11.268 E2.63617
G1 X76.431 Y11.044 E2.64293
G1 X76.331 Y10.585 E2.65644
G1 X76.302 Y10.352 E2.66321
G1 X76.287 Y9.883 E2.67672
G1 X76.317 Y9.522 E2.68712
G1 X76.862 Y9.514 F9600.000
G1 X76.901 Y9.299 E2.69340 F2790
G1 X77.011 Y8.912 E2.70500
G1 X77.264 Y8.362 E2.72239
G1 X77.613 Y7.869 E2.73979
G1 X78.047 Y7.448 E2.75717
G1 X78.551 Y7.115 E2.77456
G1 X78.917 Y6.946 E2.78617
G1 X79.285 Y6.828 E2.79729
G1 X79.498 Y6.781 E2.80357
G1 X79.898 Y6.731 E2.81517
G1 X80.502 Y6.750 E2.83256
G1 X81.093 Y6.879 E2.84995
G1 X81.469 Y7.025 E2.86156
G1 X81.664 Y7.123 E2.86784
G1 X81.992 Y7.327 E2.87896
G1 X82.306 Y7.580 E2.89057
G1 X82.714 Y8.026 E2.90795
G1 X82.936 Y8.362 E2.91956
G1 X83.116 Y8.723 E2.93116
G1 X83.299 Y9.299 E2.94855
G1 X83.374 Y9.899 E2.96594
G1 X83.336 Y10.502 E2.98333
G1 X83.189 Y11.089 E3.00072
G1 X82.936 Y11.638 E3.01811
G1 X82.587 Y12.131 E3.03550
G1 X82.306 Y12.420 E3.04710
G1 X82.140 Y12.562 E3.05338
G1 X81.824 Y12.785 E3.06451
G1 X81.469 Y12.975 E3.07611
G1 X80.899 Y13.176 E3.09350
G1 X80.302 Y13.269 E3.11089
G1 X79.698 Y13.250 E3.12828
G1 X79.301 Y13.176 E3.13988
G1 X78.917 Y13.054 E3.15149
G1 X78.376 Y12.785 E3.16887
G1 X77.894 Y12.420 E3.18627
G1 X77.486 Y11.974 E3.20365
G1 X77.168 Y11.460 E3.22105
G1 X76.950 Y10.896 E3.23844
G1 X76.839 Y10.302 E3.25583
G1 X76.826 Y9.899 E3.26743
G1 X76.852 Y9.589 E3.27640
G1 X76.691 Y9.378 F9600.000
G1 F1800.000 E1.27640
G92 E0
G1 X114.158 Y23.197 F9600.000
G1 E2.00000 F1800.000
G1 X114.449 Y22.437 E2.02341 F2790
G1 X114.705 Y21.943 E2.03942
G1 X115.005 Y21.474 E2.05544
G1 X115.346 Y21.034 E2.07146
G1 X115.726 Y20.627 E2.08748
G1 X115.930 Y20.437 E2.09549
G1 X116.362 Y20.086 E2.11152
G1 X116.823 Y19.776 E2.12752
G1 X117.312 Y19.508 E2.14354
G1 X117.822 Y19.287 E2.15954
G1 X118.084 Y19.194 E2.16754
G1 X118.620 Y19.043 E2.18357
G1 X119.167 Y18.942 E2.19958
G1 X119.722 Y18.892 E2.21560
G1 X120.278 Y18.892 E2.23161
G1 X120.833 Y18.942 E2.24763
G1 X121.380 Y19.043 E2.26364
G1 X121.916 Y19.193 E2.27966
G1 X122.436 Y19.392 E2.29566
G1 X122.954 Y19.647 E2.31227
G1 X123.639 Y20.087 E2.33572
G1 X124.070 Y20.437 E2.35170
G1 X124.468 Y20.826 E2.36772
G1 X124.830 Y21.250 E2.38374
G1 X125.152 Y21.707 E2.39983
G1 X125.431 Y22.191 E2.41591
G1 X125.665 Y22.699 E2.43199
G1 X125.851 Y23.224 E2.44801
G1 X125.990 Y23.772 E2.46428
G1 X126.099 Y24.568 E2.48739
G1 X126.113 Y25.137 E2.50377
G1 X126.074 Y25.698 E2.51995
G1 X125.988 Y26.237 E2.53566
G1 X125.849 Y26.781 E2.55181
G1 X125.663 Y27.306 E2.56784
G1 X125.428 Y27.815 E2.58397
G1 X125.152 Y28.294 E2.59989
G1 X124.829 Y28.750 E2.61596
G1 X124.469 Y29.173 E2.63195
G1 X124.274 Y29.372 E2.63997
G1 X123.859 Y29.743 E2.65598
G1 X123.412 Y30.074 E2.67199
G1 X122.936 Y30.363 E2.68801
G1 X122.436 Y30.608 E2.70403
G1 X121.916 Y30.806 E2.72004
G1 X121.380 Y30.957 E2.73606
G1 X120.812 Y31.060 E2.75267
G1 X120.000 Y31.114 E2.77609
G1 X119.444 Y31.089 E2.79210
G1 X118.892 Y31.013 E2.80812
G1 X118.350 Y30.888 E2.82413
G1 X117.822 Y30.713 E2.84015
G1 X117.311 Y30.491 E2.85617
G1 X116.823 Y30.224 E2.87218
G1 X116.361 Y29.914 E2.88820
G1 X115.929 Y29.563 E2.90421
G1 X115.518 Y29.158 E2.92081
G1 X115.004 Y28.526 E2.94424
G1 X114.705 Y28.058 E2.96024
G1 X114.449 Y27.563 E2.97627
G1 X114.232 Y27.028 E2.99286
G1 X114.013 Y26.244 E3.01628
G1 X113.925 Y25.694 E3.03231
G1 X113.887 Y25.139 E3.04832
G1 X113.900 Y24.583 E3.06434
G1 X113.963 Y24.030 E3.08036
G1 X114.137 Y23.269 E3.10281
G1 X114.670 Y23.366 F9600.000
G1 X114.938 Y22.663 E3.12446 F2790
G1 X115.172 Y22.213 E3.13906
G1 X115.445 Y21.785 E3.15367
G1 X115.757 Y21.384 E3.16827
G1 X116.103 Y21.013 E3.18287
G1 X116.682 Y20.520 E3.20477
G1 X117.103 Y20.236 E3.21937
G1 X117.549 Y19.993 E3.23397
G1 X118.253 Y19.706 E3.25586
G1 X118.742 Y19.569 E3.27047
G1 X119.241 Y19.477 E3.28507
G1 X119.746 Y19.431 E3.29967
G1 X120.254 Y19.431 E3.31427
G1 X120.759 Y19.477 E3.32888
G1 X121.258 Y19.569 E3.34348
G1 X121.747 Y19.706 E3.35808
G1 X122.221 Y19.886 E3.37268
G1 X122.684 Y20.114 E3.38752
G1 X123.318 Y20.520 E3.40918
G1 X123.711 Y20.840 E3.42378
G1 X124.074 Y21.195 E3.43838
G1 X124.404 Y21.581 E3.45298
G1 X124.697 Y21.996 E3.46761
G1 X124.951 Y22.437 E3.48224
G1 X125.164 Y22.899 E3.49687
G1 X125.334 Y23.377 E3.51149
G1 X125.460 Y23.873 E3.52620
G1 X125.561 Y24.612 E3.54768
G1 X125.574 Y25.125 E3.56245
G1 X125.539 Y25.635 E3.57714
G1 X125.459 Y26.131 E3.59159
G1 X125.333 Y26.625 E3.60626
G1 X125.163 Y27.103 E3.62088
G1 X124.950 Y27.566 E3.63553
G1 X124.697 Y28.004 E3.65009
G1 X124.404 Y28.419 E3.66471
G1 X123.897 Y28.987 E3.68660
G1 X123.518 Y29.325 E3.70120
G1 X123.111 Y29.627 E3.71580
G1 X122.677 Y29.890 E3.73040
G1 X122.221 Y30.114 E3.74501
G1 X121.747 Y30.294 E3.75961
G1 X121.258 Y30.431 E3.77421
G1 X120.751 Y30.524 E3.78906
G1 X120.000 Y30.575 E3.81071
G1 X119.493 Y30.552 E3.82531
G1 X118.990 Y30.483 E3.83991
G1 X118.496 Y30.368 E3.85452
G1 X118.014 Y30.209 E3.86912
G1 X117.548 Y30.007 E3.88372
G1 X117.103 Y29.763 E3.89832
G1 X116.682 Y29.480 E3.91293
G1 X116.288 Y29.160 E3.92753
G1 X115.920 Y28.799 E3.94237
G1 X115.445 Y28.215 E3.96403
G1 X115.172 Y27.788 E3.97862
G1 X114.938 Y27.337 E3.99323
G1 X114.744 Y26.859 E4.00807
G1 X114.542 Y26.134 E4.02972
G1 X114.461 Y25.633 E4.04433
G1 X114.426 Y25.127 E4.05893
G1 X114.438 Y24.620 E4.07353
G1 X114.496 Y24.115 E4.08813
G1 X114.649 Y23.438 E4.10811
G1 X114.337 Y22.993 F9600.000
G1 F1800.000 E2.10811
G92 E0
G1 X119.423 Y168.913 F9600.000
G1 E2.00000 F1800.000
G1 X120.000 Y168.886 E2.01662 F2790
G1 X120.556 Y168.911 E2.03263
G1 X121.108 Y168.987 E2.04867
G1 X121.650 Y169.112 E2.06467
G1 X122.179 Y169.287 E2.08070
G1 X122.707 Y169.518 E2.09728
G1 X123.411 Y169.925 E2.12069
G1 X123.859 Y170.257 E2.13671
G1 X124.275 Y170.628 E2.15276
G1 X124.654 Y171.034 E2.16874
G1 X125.006 Y171.490 E2.18533
G1 X125.422 Y172.174 E2.20833
G1 X125.663 Y172.694 E2.22485
G1 X125.849 Y173.219 E2.24088
G1 X125.988 Y173.763 E2.25704
G1 X126.077 Y174.325 E2.27339
G1 X126.113 Y175.125 E2.29645
G1 X126.075 Y175.694 E2.31285
G1 X125.985 Y176.251 E2.32907
G1 X125.851 Y176.776 E2.34469
G1 X125.665 Y177.301 E2.36070
G1 X125.423 Y177.824 E2.37728
G1 X125.152 Y178.294 E2.39288
G1 X124.995 Y178.527 E2.40098
G1 X124.654 Y178.966 E2.41697
G1 X124.274 Y179.373 E2.43299
G1 X123.859 Y179.743 E2.44897
G1 X123.411 Y180.074 E2.46500
G1 X122.936 Y180.364 E2.48103
G1 X122.437 Y180.608 E2.49701
G1 X122.178 Y180.714 E2.50506
G1 X121.649 Y180.888 E2.52108
G1 X121.108 Y181.013 E2.53707
G1 X120.556 Y181.089 E2.55309
G1 X120.000 Y181.114 E2.56910
G1 X119.444 Y181.089 E2.58512
G1 X118.892 Y181.013 E2.60114
G1 X118.103 Y180.812 E2.62456
G1 X117.563 Y180.608 E2.64119
G1 X117.064 Y180.364 E2.65717
G1 X116.589 Y180.074 E2.67319
G1 X116.141 Y179.743 E2.68922
G1 X115.545 Y179.188 E2.71265
G1 X115.170 Y178.750 E2.72922
G1 X114.849 Y178.295 E2.74526
G1 X114.571 Y177.814 E2.76124
G1 X114.338 Y177.308 E2.77728
G1 X114.151 Y176.784 E2.79328
G1 X114.014 Y176.245 E2.80929
G1 X113.925 Y175.695 E2.82531
G1 X113.887 Y175.139 E2.84134
G1 X113.900 Y174.583 E2.85736
G1 X113.963 Y174.030 E2.87337
G1 X114.076 Y173.484 E2.88941
G1 X114.239 Y172.952 E2.90541
G1 X114.562 Y172.205 E2.92882
G1 X114.849 Y171.705 E2.94543
G1 X115.170 Y171.250 E2.96144
G1 X115.532 Y170.826 E2.97746
G1 X116.126 Y170.270 E3.00088
G1 X116.589 Y169.925 E3.01750
G1 X117.064 Y169.636 E3.03350
G1 X117.564 Y169.392 E3.04950
G1 X118.085 Y169.193 E3.06555
G1 X118.621 Y169.043 E3.08156
G1 X119.349 Y168.922 E3.10280
G1 X119.485 Y169.449 F9600.000
G1 X120.000 Y169.425 E3.11764 F2790
G1 X120.507 Y169.448 E3.13225
G1 X121.010 Y169.517 E3.14685
G1 X121.504 Y169.632 E3.16145
G1 X121.986 Y169.791 E3.17606
G1 X122.459 Y169.997 E3.19089
G1 X123.110 Y170.373 E3.21254
G1 X123.518 Y170.675 E3.22715
G1 X123.897 Y171.013 E3.24176
G1 X124.249 Y171.391 E3.25659
G1 X124.697 Y171.996 E3.27827
G1 X124.947 Y172.430 E3.29267
G1 X125.163 Y172.897 E3.30747
G1 X125.333 Y173.375 E3.32209
G1 X125.459 Y173.869 E3.33676
G1 X125.540 Y174.376 E3.35151
G1 X125.574 Y175.121 E3.37297
G1 X125.539 Y175.633 E3.38774
G1 X125.458 Y176.137 E3.40245
G1 X125.334 Y176.623 E3.41687
G1 X125.164 Y177.101 E3.43148
G1 X124.948 Y177.569 E3.44630
G1 X124.554 Y178.215 E3.46807
G1 X124.243 Y178.616 E3.48266
G1 X123.897 Y178.987 E3.49726
G1 X123.519 Y179.324 E3.51186
G1 X123.111 Y179.627 E3.52647
G1 X122.677 Y179.890 E3.54107
G1 X121.986 Y180.209 E3.56297
G1 X121.504 Y180.368 E3.57757
G1 X121.010 Y180.483 E3.59216
G1 X120.507 Y180.552 E3.60677
G1 X120.000 Y180.575 E3.62137
G1 X119.493 Y180.552 E3.63597
G1 X118.990 Y180.483 E3.65058
G1 X118.261 Y180.297 E3.67223
G1 X117.779 Y180.113 E3.68708
G1 X117.323 Y179.890 E3.70167
G1 X116.889 Y179.627 E3.71628
G1 X116.481 Y179.325 E3.73088
G1 X115.931 Y178.811 E3.75254
G1 X115.596 Y178.419 E3.76737
G1 X115.304 Y178.004 E3.78198
G1 X115.050 Y177.565 E3.79657
