; generated by Slic3r 1.1.1-dev on 2014-05-14 at 16:46:12

; perimeters extrusion width = 0.50mm
; infill extrusion width = 0.60mm
; solid infill extrusion width = 0.60mm
; top infill extrusion width = 0.55mm

G21 ; set units to millimeters
M107
G28 ; home all axes
G90 ; use absolute coordinates
G92 E0
M82 ; use absolute distances for extrusion
M204 S2000
G1 F1800.000 E-2.00000
G92 E0
G1 Z0.350 F9600.000
G1 X42.921 Y-0.000 F9600.000
G1 E2.00000 F1800.000
G1 X43.319 Y-2.338 E2.06823 F4500
G1 X44.466 Y-4.413 E2.13646
G1 X46.234 Y-5.993 E2.20469
G1 X48.424 Y-6.901 E2.27291
G1 X50.000 Y-7.079 E2.31854
G1 X97.004 Y-7.071 E3.67099
G1 X98.698 Y-7.015 E3.71976
G1 X100.389 Y-6.904 E3.76852
G1 X101.233 Y-6.829 E3.79290
G1 X102.916 Y-6.637 E3.84166
G1 X104.593 Y-6.392 E3.89042
G1 X105.441 Y-6.247 E3.91517
G1 X107.092 Y-5.924 E3.96356
G1 X108.743 Y-5.545 E4.01232
G1 X109.577 Y-5.332 E4.03707
G1 X111.196 Y-4.878 E4.08546
G1 X112.812 Y-4.368 E4.13422
G1 X113.614 Y-4.094 E4.15860
G1 X115.204 Y-3.507 E4.20736
G1 X116.774 Y-2.870 E4.25612
G1 X117.551 Y-2.533 E4.28050
G1 X119.089 Y-1.820 E4.32926
G1 X120.492 Y-1.117 E4.37442
G1 X121.351 Y-0.661 E4.40240
G1 X122.827 Y0.172 E4.45116
G1 X124.274 Y1.051 E4.49988
G1 X124.989 Y1.509 E4.52430
G1 X126.391 Y2.456 E4.57300
G1 X127.766 Y3.450 E4.62181
G1 X129.105 Y4.485 E4.67051
G1 X130.414 Y5.565 E4.71934
G1 X131.686 Y6.685 E4.76810
G1 X132.921 Y7.845 E4.81685
G1 X134.118 Y9.045 E4.86562
G1 X135.200 Y10.198 E4.91112
G1 X136.495 Y12.185 E4.97934
G1 X137.079 Y15.000 E5.06208
G1 X137.079 Y185.000 E9.95353
G1 X136.681 Y187.338 E10.02176
G1 X135.200 Y189.802 E10.10449
G1 X134.039 Y191.037 E10.15325
G1 X132.839 Y192.233 E10.20201
G1 X131.602 Y193.391 E10.25077
G1 X130.969 Y193.955 E10.27515
G1 X129.774 Y194.972 E10.32031
G1 X129.018 Y195.584 E10.34829
G1 X128.351 Y196.107 E10.37268
G1 X126.992 Y197.118 E10.42143
G1 X125.600 Y198.086 E10.47019
G1 X124.893 Y198.553 E10.49458
G1 X124.179 Y199.008 E10.51895
G1 X122.837 Y199.822 E10.56410
G1 X121.251 Y200.715 E10.61648
G1 X119.858 Y201.441 E10.66167
G1 X118.987 Y201.870 E10.68961
G1 X117.447 Y202.578 E10.73837
G1 X116.669 Y202.914 E10.76276
G1 X115.215 Y203.503 E10.80791
G1 X114.305 Y203.846 E10.83589
G1 X113.507 Y204.132 E10.86028
G1 X111.898 Y204.664 E10.90903
G1 X110.393 Y205.110 E10.95422
G1 X109.455 Y205.364 E10.98217
G1 X107.808 Y205.766 E11.03094
G1 X106.150 Y206.115 E11.07970
G1 X105.317 Y206.269 E11.10407
G1 X104.481 Y206.410 E11.12846
G1 X102.804 Y206.652 E11.17722
G1 X101.242 Y206.828 E11.22245
G1 X100.276 Y206.913 E11.25036
G1 X98.584 Y207.020 E11.29912
G1 X97.015 Y207.070 E11.34430
G1 X50.000 Y207.079 E12.69707
G1 X47.662 Y206.681 E12.76530
G1 X45.587 Y205.534 E12.83353
G1 X44.007 Y203.766 E12.90176
G1 X43.099 Y201.576 E12.96999
G1 X42.921 Y200.000 E13.01561
G1 X42.921 Y0.075 E18.76810
G1 X43.461 Y-0.000 F9600.000
G1 X43.858 Y-2.244 E18.83366 F4500
G1 X45.000 Y-4.215 E18.89922
G1 X46.750 Y-5.674 E18.96478
G1 X50.000 Y-6.539 E19.06155
G1 X96.991 Y-6.532 E20.41363
G1 X98.667 Y-6.476 E20.46189
G1 X100.341 Y-6.367 E20.51016
G1 X101.177 Y-6.292 E20.53429
G1 X102.843 Y-6.103 E20.58255
G1 X104.503 Y-5.860 E20.63081
G1 X105.342 Y-5.717 E20.65531
G1 X106.976 Y-5.397 E20.70321
G1 X108.611 Y-5.022 E20.75147
G1 X109.436 Y-4.812 E20.77597
G1 X111.039 Y-4.362 E20.82386
G1 X112.638 Y-3.858 E20.87213
G1 X113.432 Y-3.586 E20.89626
G1 X115.005 Y-3.006 E20.94452
G1 X116.560 Y-2.375 E20.99278
G1 X117.329 Y-2.041 E21.01692
G1 X118.851 Y-1.336 E21.06518
G1 X120.247 Y-0.637 E21.11009
G1 X121.090 Y-0.189 E21.13757
G1 X122.551 Y0.636 E21.18584
G1 X123.983 Y1.505 E21.23406
G1 X124.691 Y1.959 E21.25823
G1 X126.080 Y2.896 E21.30644
G1 X127.440 Y3.880 E21.35475
G1 X128.766 Y4.904 E21.40296
G1 X130.061 Y5.973 E21.45128
G1 X131.320 Y7.082 E21.49955
G1 X132.543 Y8.230 E21.54780
G1 X133.728 Y9.417 E21.59607
G1 X134.804 Y10.564 E21.64132
G1 X136.035 Y12.481 E21.70688
G1 X136.539 Y15.000 E21.78079
G1 X136.539 Y185.000 E26.67224
G1 X136.142 Y187.244 E26.73780
G1 X134.804 Y189.436 E26.81172
G1 X134.234 Y190.052 E26.83585
G1 X133.066 Y191.256 E26.88412
G1 X131.860 Y192.421 E26.93238
G1 X130.702 Y193.471 E26.97735
G1 X129.982 Y194.095 E27.00477
G1 X128.777 Y195.087 E27.04967
G1 X128.025 Y195.677 E27.07717
G1 X126.680 Y196.678 E27.12543
G1 X125.995 Y197.163 E27.14956
G1 X124.700 Y198.035 E27.19449
G1 X123.896 Y198.550 E27.22196
G1 X122.562 Y199.358 E27.26685
G1 X121.732 Y199.834 E27.29435
G1 X120.257 Y200.632 E27.34261
G1 X119.510 Y201.013 E27.36675
G1 X118.103 Y201.690 E27.41169
G1 X116.463 Y202.416 E27.46327
G1 X115.017 Y203.001 E27.50818
G1 X114.123 Y203.339 E27.53567
G1 X113.333 Y203.621 E27.55980
G1 X111.741 Y204.148 E27.60806
G1 X110.244 Y204.592 E27.65299
G1 X109.322 Y204.842 E27.68045
G1 X107.693 Y205.239 E27.72872
G1 X106.051 Y205.585 E27.77699
G1 X105.227 Y205.737 E27.80111
G1 X104.399 Y205.877 E27.82525
G1 X102.739 Y206.116 E27.87351
G1 X101.186 Y206.291 E27.91848
G1 X100.237 Y206.375 E27.94590
G1 X98.563 Y206.481 E27.99417
G1 X97.002 Y206.531 E28.03910
G1 X50.000 Y206.539 E29.39150
G1 X47.756 Y206.142 E29.45706
G1 X45.785 Y205.000 E29.52262
G1 X44.326 Y203.250 E29.58818
G1 X43.461 Y200.000 E29.68495
G1 X43.461 Y0.075 E35.43743
G1 F1800.000 E33.43743
G92 E0
G1 X55.186 Y7.186 F9600.000
G1 E2.00000 F1800.000
G1 X60.814 Y7.186 E2.16195 F2790
G1 X60.814 Y14.814 E2.38145
G1 X55.186 Y14.814 E2.54340
G1 X55.186 Y7.261 E2.76074
G1 X55.725 Y7.725 F9600.000
G1 X60.275 Y7.725 E2.89166 F2790
G1 X60.275 Y14.275 E3.08012
G1 X55.725 Y14.275 E3.21104
G1 X55.725 Y7.800 E3.39735
G1 X55.725 Y7.225 F9600.000
G1 F1800.000 E1.39735
G92 E0
G1 X76.192 Y10.206 F9600.000
G1 E2.00000 F1800.000
G1 X76.193 Y9.760 E2.01281 F2790
G1 X76.253 Y9.285 E2.02659
G1 X76.372 Y8.821 E2.04037
G1 X76.453 Y8.596 E2.04727
G1 X76.548 Y8.376 E2.05416
G1 X76.779 Y7.956 E2.06794
G1 X76.914 Y7.758 E2.07485
G1 X77.219 Y7.389 E2.08863
G1 X77.568 Y7.061 E2.10241
G1 X77.758 Y6.914 E2.10930
G1 X77.956 Y6.779 E2.11620
G1 X78.376 Y6.548 E2.12998
G1 X78.821 Y6.372 E2.14377
G1 X79.051 Y6.305 E2.15066
G1 X79.285 Y6.253 E2.15756
G1 X79.760 Y6.193 E2.17134
G1 X80.000 Y6.185 E2.17824
G1 X80.478 Y6.215 E2.19202
G1 X80.949 Y6.305 E2.20581
G1 X81.211 Y6.383 E2.21367
G1 X81.624 Y6.548 E2.22649
G1 X82.044 Y6.779 E2.24027
G1 X82.432 Y7.061 E2.25405
G1 X82.611 Y7.219 E2.26095
G1 X82.803 Y7.414 E2.26881
G1 X83.086 Y7.758 E2.28163
G1 X83.343 Y8.162 E2.29541
G1 X83.452 Y8.376 E2.30231
G1 X83.628 Y8.821 E2.31608
G1 X83.695 Y9.051 E2.32298
G1 X83.785 Y9.522 E2.33677
G1 X83.807 Y9.761 E2.34367
G1 X83.807 Y10.240 E2.35745
G1 X83.779 Y10.511 E2.36531
G1 X83.695 Y10.949 E2.37813
G1 X83.547 Y11.404 E2.39191
G1 X83.452 Y11.624 E2.39880
G1 X83.221 Y12.044 E2.41258
G1 X83.086 Y12.242 E2.41949
G1 X82.781 Y12.611 E2.43327
G1 X82.432 Y12.939 E2.44705
G1 X82.242 Y13.086 E2.45394
G1 X82.044 Y13.221 E2.46084
G1 X81.624 Y13.452 E2.47462
G1 X81.404 Y13.547 E2.48152
G1 X80.949 Y13.695 E2.49530
G1 X80.715 Y13.747 E2.50220
G1 X80.240 Y13.807 E2.51598
G1 X80.000 Y13.815 E2.52288
G1 X79.522 Y13.785 E2.53666
G1 X79.285 Y13.747 E2.54356
G1 X78.821 Y13.628 E2.55734
G1 X78.596 Y13.547 E2.56424
G1 X78.162 Y13.343 E2.57802
G1 X77.956 Y13.221 E2.58492
G1 X77.568 Y12.939 E2.59870
G1 X77.219 Y12.611 E2.61248
G1 X77.061 Y12.432 E2.61938
G1 X76.914 Y12.242 E2.62628
G1 X76.657 Y11.838 E2.64006
G1 X76.548 Y11.624 E2.64696
G1 X76.372 Y11.179 E2.66074
G1 X76.253 Y10.715 E2.67452
G1 X76.197 Y10.280 E2.68713
G1 X76.731 Y10.189 F9600.000
G1 X76.731 Y9.794 E2.69847 F2790
G1 X76.783 Y9.386 E2.71031
G1 X76.885 Y8.988 E2.72214
G1 X76.955 Y8.794 E2.72806
G1 X77.037 Y8.606 E2.73398
G1 X77.235 Y8.245 E2.74582
G1 X77.350 Y8.075 E2.75174
G1 X77.613 Y7.758 E2.76357
G1 X77.912 Y7.476 E2.77540
G1 X78.075 Y7.350 E2.78132
G1 X78.245 Y7.235 E2.78725
G1 X78.606 Y7.037 E2.79908
G1 X78.988 Y6.885 E2.81091
G1 X79.185 Y6.828 E2.81683
G1 X79.386 Y6.783 E2.82276
G1 X79.794 Y6.731 E2.83459
G1 X80.000 Y6.725 E2.84051
G1 X80.410 Y6.751 E2.85234
G1 X80.614 Y6.783 E2.85826
G1 X81.012 Y6.885 E2.87010
G1 X81.206 Y6.955 E2.87602
G1 X81.578 Y7.130 E2.88785
G1 X81.755 Y7.235 E2.89377
G1 X82.088 Y7.476 E2.90561
G1 X82.387 Y7.758 E2.91744
G1 X82.524 Y7.912 E2.92336
G1 X82.650 Y8.075 E2.92928
G1 X82.870 Y8.422 E2.94111
G1 X83.045 Y8.794 E2.95295
G1 X83.120 Y9.004 E2.95935
G1 X83.217 Y9.386 E2.97070
G1 X83.269 Y9.794 E2.98254
G1 X83.269 Y10.206 E2.99437
G1 X83.247 Y10.427 E3.00078
G1 X83.172 Y10.815 E3.01213
G1 X83.045 Y11.206 E3.02396
G1 X82.963 Y11.394 E3.02988
G1 X82.765 Y11.755 E3.04171
G1 X82.650 Y11.925 E3.04763
G1 X82.387 Y12.242 E3.05947
G1 X82.088 Y12.524 E3.07130
G1 X81.925 Y12.650 E3.07722
G1 X81.755 Y12.765 E3.08314
G1 X81.394 Y12.963 E3.09498
G1 X81.012 Y13.115 E3.10681
G1 X80.815 Y13.172 E3.11273
G1 X80.614 Y13.217 E3.11865
G1 X80.206 Y13.269 E3.13048
G1 X80.000 Y13.275 E3.13641
G1 X79.590 Y13.249 E3.14824
G1 X79.386 Y13.217 E3.15416
G1 X78.988 Y13.115 E3.16599
G1 X78.794 Y13.045 E3.17191
G1 X78.422 Y12.870 E3.18375
G1 X78.245 Y12.765 E3.18967
G1 X77.912 Y12.524 E3.20150
G1 X77.613 Y12.242 E3.21334
G1 X77.476 Y12.088 E3.21926
G1 X77.350 Y11.925 E3.22518
G1 X77.130 Y11.578 E3.23701
G1 X77.037 Y11.394 E3.24293
G1 X76.885 Y11.012 E3.25477
G1 X76.783 Y10.614 E3.26660
G1 X76.737 Y10.263 E3.27676
G1 X76.382 Y10.005 F9600.000
G1 F1800.000 E1.27676
G92 E0
G1 X114.174 Y23.145 F9600.000
G1 E2.00000 F1800.000
G1 X114.365 Y22.627 E2.01586 F2790
G1 X114.482 Y22.365 E2.02413
G1 X114.753 Y21.860 E2.04061
G1 X115.070 Y21.383 E2.05710
G1 X115.430 Y20.937 E2.07358
G1 X115.831 Y20.527 E2.09009
G1 X116.268 Y20.157 E2.10657
G1 X116.738 Y19.828 E2.12308
G1 X117.237 Y19.545 E2.13957
G1 X117.760 Y19.311 E2.15607
G1 X118.302 Y19.126 E2.17255
G1 X118.860 Y18.993 E2.18904
G1 X119.428 Y18.912 E2.20554
G1 X120.000 Y18.885 E2.22204
G1 X120.573 Y18.912 E2.23854
G1 X121.140 Y18.993 E2.25502
G1 X121.421 Y19.053 E2.26328
G1 X121.971 Y19.212 E2.27976
G1 X122.504 Y19.422 E2.29625
G1 X123.016 Y19.681 E2.31275
G1 X123.501 Y19.987 E2.32925
G1 X123.955 Y20.337 E2.34573
G1 X124.374 Y20.728 E2.36224
G1 X124.755 Y21.156 E2.37872
G1 X125.097 Y21.622 E2.39537
G1 X125.396 Y22.125 E2.41220
G1 X125.636 Y22.629 E2.42826
G1 X125.741 Y22.895 E2.43648
G1 X125.907 Y23.423 E2.45241
G1 X126.030 Y23.991 E2.46914
G1 X126.099 Y24.570 E2.48591
G1 X126.112 Y25.152 E2.50267
G1 X126.073 Y25.713 E2.51885
G1 X125.978 Y26.286 E2.53555
G1 X125.836 Y26.825 E2.55160
G1 X125.631 Y27.382 E2.56868
G1 X125.386 Y27.894 E2.58500
G1 X125.097 Y28.378 E2.60123
G1 X124.755 Y28.844 E2.61787
G1 X124.374 Y29.272 E2.63434
G1 X123.955 Y29.663 E2.65083
G1 X123.501 Y30.013 E2.66733
G1 X122.997 Y30.329 E2.68443
G1 X122.504 Y30.578 E2.70033
G1 X122.240 Y30.689 E2.70857
G1 X121.697 Y30.874 E2.72507
G1 X121.140 Y31.007 E2.74155
G1 X120.573 Y31.088 E2.75805
G1 X120.000 Y31.114 E2.77454
G1 X119.428 Y31.088 E2.79103
G1 X118.860 Y31.007 E2.80753
G1 X118.302 Y30.874 E2.82403
G1 X117.760 Y30.689 E2.84051
G1 X117.237 Y30.455 E2.85700
G1 X116.738 Y30.172 E2.87351
G1 X116.268 Y29.843 E2.89001
G1 X115.831 Y29.473 E2.90650
G1 X115.417 Y29.047 E2.92358
G1 X115.071 Y28.618 E2.93946
G1 X114.906 Y28.382 E2.94772
G1 X114.612 Y27.891 E2.96420
G1 X114.365 Y27.374 E2.98069
G1 X114.167 Y26.834 E2.99722
G1 X114.021 Y26.281 E3.01367
G1 X113.927 Y25.714 E3.03021
G1 X113.887 Y25.143 E3.04668
G1 X113.901 Y24.571 E3.06315
G1 X113.968 Y24.001 E3.07968
G1 X114.021 Y23.720 E3.08790
G1 X114.152 Y23.216 E3.10287
G1 X114.685 Y23.319 F9600.000
G1 X114.969 Y22.598 E3.12517 F2790
G1 X115.216 Y22.137 E3.14020
G1 X115.505 Y21.702 E3.15524
G1 X115.834 Y21.296 E3.17027
G1 X116.199 Y20.922 E3.18532
G1 X116.597 Y20.584 E3.20035
G1 X117.026 Y20.284 E3.21539
G1 X117.481 Y20.027 E3.23043
G1 X117.957 Y19.813 E3.24547
G1 X118.452 Y19.644 E3.26050
G1 X118.960 Y19.523 E3.27554
G1 X119.478 Y19.449 E3.29058
G1 X120.000 Y19.425 E3.30562
G1 X120.522 Y19.449 E3.32066
G1 X121.295 Y19.577 E3.34321
G1 X121.797 Y19.723 E3.35824
G1 X122.284 Y19.914 E3.37328
G1 X122.750 Y20.150 E3.38832
G1 X123.192 Y20.429 E3.40336
G1 X123.606 Y20.748 E3.41839
G1 X123.988 Y21.104 E3.43343
G1 X124.335 Y21.495 E3.44847
G1 X124.646 Y21.918 E3.46356
G1 X124.916 Y22.371 E3.47874
G1 X125.138 Y22.837 E3.49361
G1 X125.388 Y23.570 E3.51589
G1 X125.499 Y24.084 E3.53103
G1 X125.561 Y24.608 E3.54619
G1 X125.573 Y25.135 E3.56136
G1 X125.537 Y25.651 E3.57624
G1 X125.451 Y26.170 E3.59139
G1 X125.319 Y26.669 E3.60622
G1 X125.136 Y27.168 E3.62152
G1 X124.912 Y27.637 E3.63648
G1 X124.646 Y28.082 E3.65142
G1 X124.335 Y28.505 E3.66651
G1 X123.988 Y28.896 E3.68154
G1 X123.606 Y29.252 E3.69657
G1 X123.192 Y29.571 E3.71161
G1 X122.742 Y29.854 E3.72690
G1 X122.043 Y30.187 E3.74920
G1 X121.548 Y30.356 E3.76424
G1 X121.040 Y30.477 E3.77928
G1 X120.522 Y30.551 E3.79431
G1 X120.000 Y30.575 E3.80935
G1 X119.478 Y30.551 E3.82439
G1 X118.961 Y30.477 E3.83943
G1 X118.452 Y30.356 E3.85447
G1 X117.957 Y30.187 E3.86950
G1 X117.481 Y29.973 E3.88454
G1 X117.026 Y29.716 E3.89958
G1 X116.597 Y29.416 E3.91462
G1 X116.199 Y29.078 E3.92966
G1 X115.828 Y28.698 E3.94494
G1 X115.355 Y28.084 E3.96724
G1 X115.087 Y27.635 E3.98227
G1 X114.862 Y27.164 E3.99731
G1 X114.682 Y26.673 E4.01236
G1 X114.549 Y26.168 E4.02738
G1 X114.463 Y25.652 E4.04244
G1 X114.426 Y25.131 E4.05747
G1 X114.439 Y24.608 E4.07250
G1 X114.500 Y24.089 E4.08755
G1 X114.663 Y23.391 E4.10818
G1 X114.356 Y22.942 F9600.000
G1 F1800.000 E2.10818
G92 E0
G1 X119.735 Y168.892 F9600.000
G1 E2.00000 F1800.000
G1 X120.286 Y168.892 E2.01586 F2790
G1 X120.573 Y168.912 E2.02412
G1 X121.140 Y168.993 E2.04061
G1 X121.698 Y169.126 E2.05712
G1 X122.239 Y169.310 E2.07357
G1 X122.763 Y169.545 E2.09008
G1 X123.262 Y169.828 E2.10658
G1 X123.732 Y170.157 E2.12308
G1 X124.169 Y170.527 E2.13958
G1 X124.569 Y170.937 E2.15604
G1 X124.930 Y171.383 E2.17254
G1 X125.248 Y171.862 E2.18909
G1 X125.524 Y172.380 E2.20600
G1 X125.736 Y172.883 E2.22168
G1 X125.829 Y173.153 E2.22991
G1 X125.978 Y173.714 E2.24661
G1 X126.073 Y174.287 E2.26332
G1 X126.112 Y174.848 E2.27949
G1 X126.099 Y175.430 E2.29625
G1 X126.030 Y176.009 E2.31303
G1 X125.913 Y176.555 E2.32910
G1 X125.741 Y177.105 E2.34568
G1 X125.521 Y177.627 E2.36199
G1 X125.247 Y178.139 E2.37867
G1 X124.930 Y178.618 E2.39521
G1 X124.555 Y179.078 E2.41229
G1 X124.169 Y179.473 E2.42817
G1 X123.955 Y179.663 E2.43642
G1 X123.501 Y180.013 E2.45293
G1 X123.016 Y180.319 E2.46943
G1 X122.503 Y180.579 E2.48594
G1 X121.972 Y180.788 E2.50238
G1 X121.420 Y180.947 E2.51890
G1 X120.857 Y181.054 E2.53538
G1 X120.286 Y181.108 E2.55190
G1 X119.713 Y181.108 E2.56838
G1 X119.143 Y181.054 E2.58485
G1 X118.580 Y180.947 E2.60135
G1 X118.028 Y180.788 E2.61787
G1 X117.495 Y180.578 E2.63435
G1 X116.983 Y180.319 E2.65087
G1 X116.499 Y180.013 E2.66734
G1 X116.045 Y179.663 E2.68384
G1 X115.626 Y179.272 E2.70033
G1 X115.245 Y178.845 E2.71680
G1 X114.906 Y178.382 E2.73331
G1 X114.602 Y177.872 E2.75039
G1 X114.365 Y177.373 E2.76627
G1 X114.260 Y177.107 E2.77452
G1 X114.088 Y176.559 E2.79103
G1 X113.968 Y175.999 E2.80752
G1 X113.901 Y175.430 E2.82400
G1 X113.887 Y174.856 E2.84052
G1 X113.927 Y174.285 E2.85700
G1 X114.021 Y173.720 E2.87349
G1 X114.167 Y173.164 E2.89001
G1 X114.365 Y172.628 E2.90646
G1 X114.612 Y172.109 E2.92298
G1 X114.906 Y171.618 E2.93947
G1 X115.070 Y171.382 E2.94773
G1 X115.430 Y170.938 E2.96419
G1 X115.831 Y170.527 E2.98068
G1 X116.268 Y170.157 E2.99718
G1 X116.738 Y169.829 E3.01366
G1 X117.237 Y169.546 E3.03017
G1 X117.759 Y169.311 E3.04665
G1 X118.303 Y169.126 E3.06317
G1 X118.860 Y168.993 E3.07967
G1 X119.143 Y168.946 E3.08790
G1 X119.660 Y168.896 E3.10287
G1 X119.747 Y169.431 F9600.000
G1 X120.522 Y169.449 E3.12516 F2790
G1 X121.040 Y169.523 E3.14020
G1 X121.548 Y169.644 E3.15525
G1 X122.042 Y169.812 E3.17027
G1 X122.519 Y170.027 E3.18531
G1 X122.974 Y170.284 E3.20035
G1 X123.403 Y170.584 E3.21539
G1 X123.801 Y170.922 E3.23043
G1 X124.166 Y171.295 E3.24546
G1 X124.495 Y171.702 E3.26050
G1 X124.785 Y172.139 E3.27559
G1 X125.034 Y172.604 E3.29077
G1 X125.316 Y173.322 E3.31296
G1 X125.451 Y173.830 E3.32809
G1 X125.537 Y174.349 E3.34323
G1 X125.573 Y174.865 E3.35812
G1 X125.561 Y175.392 E3.37328
