; generated by Slic3r 1.1.1-dev on 2014-05-12 at 12:35:17

; perimeters extrusion width = 0.50mm
; infill extrusion width = 0.60mm
; solid infill extrusion width = 0.60mm
; top infill extrusion width = 0.55mm

G21 ; set units to millimeters
M107
G28 ; home all axes
G90 ; use absolute coordinates
G92 E0
M82 ; use absolute distances for extrusion
M204 S2000
G1 F1800.000 E-2.00000
G92 E0
G1 Z0.350 F9600.000
G1 X72.484 Y82.554 F9600.000
G1 E2.00000 F1800.000
G1 X75.371 Y81.524 E2.08821 F4500
G1 X96.507 Y78.881 E2.70109
G1 X99.306 Y78.606 E2.78203
G1 X100.694 Y78.606 E2.82196
G1 X103.679 Y78.902 E2.90826
G1 X124.629 Y81.524 E3.51577
G1 X126.899 Y82.208 E3.58400
G1 X128.816 Y83.604 E3.65222
G1 X130.165 Y85.554 E3.72045
G1 X130.829 Y88.547 E3.80867
G1 X130.829 Y92.647 E3.92664
G1 X130.216 Y95.528 E4.01137
G1 X126.293 Y104.289 E4.28758
G1 X124.287 Y108.041 E4.40999
G1 X123.517 Y109.195 E4.44992
G1 X120.818 Y112.483 E4.57233
G1 X119.836 Y113.465 E4.61225
G1 X116.548 Y116.164 E4.73467
G1 X115.394 Y116.934 E4.77459
G1 X111.642 Y118.940 E4.89700
G1 X110.360 Y119.471 E4.93693
G1 X106.289 Y120.706 E5.05934
G1 X104.932 Y120.976 E5.09916
G1 X100.694 Y121.394 E5.22168
G1 X99.306 Y121.394 E5.26161
G1 X96.503 Y121.118 E5.34266
G1 X95.069 Y120.976 E5.38413
G1 X93.712 Y120.706 E5.42395
G1 X89.640 Y119.471 E5.54636
G1 X88.358 Y118.940 E5.58628
G1 X84.606 Y116.934 E5.70870
G1 X83.453 Y116.164 E5.74862
G1 X80.164 Y113.465 E5.87103
G1 X79.183 Y112.483 E5.91096
G1 X76.484 Y109.195 E6.03337
G1 X75.713 Y108.041 E6.07330
G1 X73.484 Y103.833 E6.21031
G1 X69.784 Y95.528 E6.47191
G1 X69.171 Y92.647 E6.55666
G1 X69.171 Y88.547 E6.67463
G1 X69.569 Y86.210 E6.74285
G1 X70.716 Y84.134 E6.81108
G1 X72.428 Y82.604 E6.87715
G1 X73.000 Y82.873 F9600.000
G1 X75.438 Y82.059 E6.95112 F4500
G1 X96.560 Y79.418 E7.56358
G1 X99.359 Y79.142 E7.64453
G1 X100.641 Y79.142 E7.68141
G1 X103.612 Y79.437 E7.76730
G1 X124.562 Y82.059 E8.37481
G1 X126.739 Y82.731 E8.44037
G1 X128.553 Y84.110 E8.50593
G1 X129.784 Y86.027 E8.57149
G1 X130.289 Y88.547 E8.64545
G1 X130.289 Y92.647 E8.76342
G1 X129.723 Y95.308 E8.84170
G1 X125.817 Y104.035 E9.11679
G1 X123.812 Y107.787 E9.23920
G1 X123.100 Y108.853 E9.27609
G1 X120.401 Y112.141 E9.39850
G1 X119.494 Y113.048 E9.43538
G1 X116.206 Y115.747 E9.55780
G1 X115.140 Y116.459 E9.59468
G1 X111.388 Y118.464 E9.71709
G1 X110.203 Y118.955 E9.75398
G1 X106.132 Y120.190 E9.87639
G1 X104.879 Y120.440 E9.91317
G1 X100.641 Y120.858 E10.03569
G1 X99.359 Y120.858 E10.07257
G1 X96.556 Y120.582 E10.15361
G1 X95.122 Y120.440 E10.19509
G1 X93.868 Y120.190 E10.23187
G1 X89.797 Y118.955 E10.35428
G1 X88.613 Y118.464 E10.39116
G1 X84.861 Y116.459 E10.51357
G1 X83.795 Y115.747 E10.55046
G1 X80.506 Y113.048 E10.67287
G1 X79.600 Y112.141 E10.70976
G1 X76.901 Y108.853 E10.83217
G1 X76.189 Y107.787 E10.86905
G1 X73.977 Y103.614 E11.00495
G1 X70.277 Y95.309 E11.26655
G1 X69.711 Y92.647 E11.34484
G1 X69.711 Y88.547 E11.46281
G1 X70.108 Y86.304 E11.52837
G1 X71.250 Y84.332 E11.59393
G1 X72.942 Y82.921 E11.65733
G1 F1800.000 E9.65733
G92 E0
G1 X88.914 Y93.458 F9600.000
G1 E2.00000 F1800.000
G1 X89.147 Y93.173 E2.01058 F2790
G1 X89.431 Y92.940 E2.02117
G1 X89.756 Y92.767 E2.03175
G1 X90.108 Y92.660 E2.04233
G1 X90.474 Y92.624 E2.05292
G1 X90.840 Y92.660 E2.06350
G1 X91.192 Y92.766 E2.07408
G1 X91.516 Y92.940 E2.08467
G1 X91.801 Y93.173 E2.09525
G1 X92.034 Y93.458 E2.10584
G1 X92.207 Y93.782 E2.11642
G1 X92.314 Y94.134 E2.12700
G1 X92.350 Y94.500 E2.13759
G1 X92.314 Y94.866 E2.14817
G1 X92.207 Y95.218 E2.15875
G1 X92.034 Y95.542 E2.16934
G1 X91.801 Y95.827 E2.17992
G1 X91.516 Y96.060 E2.19050
G1 X91.192 Y96.234 E2.20109
G1 X90.840 Y96.340 E2.21167
G1 X90.474 Y96.376 E2.22225
G1 X90.108 Y96.340 E2.23284
G1 X89.756 Y96.234 E2.24342
G1 X89.431 Y96.060 E2.25400
G1 X89.147 Y95.827 E2.26459
G1 X88.914 Y95.542 E2.27517
G1 X88.740 Y95.218 E2.28575
G1 X88.634 Y94.866 E2.29634
G1 X88.598 Y94.500 E2.30692
G1 X88.634 Y94.134 E2.31751
G1 X88.740 Y93.782 E2.32809
G1 X88.878 Y93.524 E2.33651
G1 X88.762 Y93.123 F9600.000
G1 F1800.000 E0.33651
G92 E0
G1 X107.650 Y94.500 F9600.000
G1 E2.00000 F1800.000
G1 X107.686 Y94.134 E2.01058 F2790
G1 X107.793 Y93.782 E2.02117
G1 X107.966 Y93.458 E2.03175
G1 X108.200 Y93.173 E2.04233
G1 X108.484 Y92.940 E2.05292
G1 X108.808 Y92.766 E2.06350
G1 X109.160 Y92.660 E2.07408
G1 X109.526 Y92.624 E2.08467
G1 X109.893 Y92.660 E2.09525
G1 X110.245 Y92.766 E2.10584
G1 X110.569 Y92.940 E2.11642
G1 X110.853 Y93.173 E2.12700
G1 X111.087 Y93.458 E2.13759
G1 X111.260 Y93.782 E2.14817
G1 X111.367 Y94.134 E2.15875
G1 X111.403 Y94.500 E2.16934
G1 X111.367 Y94.866 E2.17992
G1 X111.260 Y95.218 E2.19050
G1 X111.087 Y95.542 E2.20109
G1 X110.853 Y95.827 E2.21167
G1 X110.569 Y96.060 E2.22225
G1 X110.245 Y96.234 E2.23284
G1 X109.893 Y96.340 E2.24342
G1 X109.526 Y96.376 E2.25400
G1 X109.160 Y96.340 E2.26459
G1 X108.808 Y96.234 E2.27517
G1 X108.484 Y96.060 E2.28575
G1 X108.200 Y95.827 E2.29634
G1 X107.966 Y95.542 E2.30692
G1 X107.793 Y95.218 E2.31751
G1 X107.686 Y94.866 E2.32809
G1 X107.658 Y94.575 E2.33651
G1 X107.338 Y94.306 F9600.000
G1 F1800.000 E0.33651
G92 E0
G1 X108.285 Y98.317 F9600.000
G1 E2.00000 F1800.000
G1 X108.458 Y100.000 E2.04869 F4050
G1 X108.295 Y101.650 E2.09639
G1 X107.814 Y103.236 E2.14410
G1 X107.032 Y104.699 E2.19180
G1 X105.980 Y105.980 E2.23951
G1 X104.699 Y107.032 E2.28721
G1 X103.237 Y107.814 E2.33491
G1 X101.650 Y108.295 E2.38262
G1 X100.000 Y108.457 E2.43032
G1 X98.350 Y108.295 E2.47802
G1 X96.764 Y107.814 E2.52573
G1 X95.302 Y107.032 E2.57343
G1 X94.020 Y105.980 E2.62114
G1 X92.968 Y104.699 E2.66884
G1 X92.187 Y103.236 E2.71654
G1 X91.705 Y101.650 E2.76425
G1 X91.543 Y100.000 E2.81195
G1 X91.705 Y98.350 E2.85966
G1 X92.187 Y96.764 E2.90736
G1 X92.968 Y95.301 E2.95506
G1 X94.020 Y94.020 E3.00277
G1 X95.302 Y92.968 E3.05047
G1 X96.764 Y92.186 E3.09818
G1 X98.350 Y91.705 E3.14588
G1 X100.000 Y91.543 E3.19358
G1 X101.650 Y91.705 E3.24129
G1 X103.237 Y92.186 E3.28899
G1 X104.699 Y92.968 E3.33669
G1 X105.980 Y94.020 E3.38440
G1 X107.032 Y95.301 E3.43210
G1 X107.814 Y96.764 E3.47981
G1 X108.263 Y98.245 E3.52435
G1 X108.753 Y98.492 F9600.000
G1 F1800.000 E1.52435
G92 E0
G1 X101.043 Y109.440 F9600.000
G1 E2.00000 F1800.000
G1 X101.327 Y109.673 E2.01058 F2790
G1 X101.560 Y109.958 E2.02117
G1 X101.734 Y110.282 E2.03175
G1 X101.840 Y110.634 E2.04233
G1 X101.877 Y111.000 E2.05292
G1 X101.840 Y111.366 E2.06350
G1 X101.734 Y111.718 E2.07408
G1 X101.560 Y112.042 E2.08467
G1 X101.327 Y112.327 E2.09525
G1 X101.043 Y112.560 E2.10584
G1 X100.718 Y112.733 E2.11642
G1 X100.366 Y112.840 E2.12700
G1 X100.000 Y112.876 E2.13759
G1 X99.634 Y112.840 E2.14817
G1 X99.282 Y112.733 E2.15875
G1 X98.958 Y112.560 E2.16934
G1 X98.673 Y112.327 E2.17992
G1 X98.440 Y112.042 E2.19050
G1 X98.267 Y111.718 E2.20109
G1 X98.160 Y111.366 E2.21167
G1 X98.124 Y111.000 E2.22225
G1 X98.160 Y110.634 E2.23284
G1 X98.267 Y110.282 E2.24342
G1 X98.440 Y109.958 E2.25400
G1 X98.673 Y109.673 E2.26459
G1 X98.958 Y109.440 E2.27517
G1 X99.282 Y109.266 E2.28575
G1 X99.634 Y109.160 E2.29634
G1 X100.000 Y109.124 E2.30692
G1 X100.366 Y109.160 E2.31751
G1 X100.718 Y109.266 E2.32809
G1 X100.977 Y109.405 E2.33651
G1 X101.378 Y109.288 F9600.000
G1 F1800.000 E0.33651
G92 E0
G1 X98.290 Y109.290 F9600.000
G1 E2.00000 F1800.000
G1 X97.990 Y109.657 E2.01364 F4500
G1 X97.766 Y110.075 E2.02728
G1 X97.628 Y110.528 E2.04092
G1 X97.582 Y111.000 E2.05456
G1 X97.628 Y111.472 E2.06820
G1 X97.766 Y111.925 E2.08184
G1 X97.990 Y112.343 E2.09548
G1 X98.290 Y112.710 E2.10912
G1 X98.663 Y113.015 E2.12298
G1 X98.510 Y113.385 E2.13449
G1 X95.926 Y113.130 E2.20918
G1 X92.008 Y111.941 E2.32698
G1 X88.398 Y110.011 E2.44477
G1 X85.233 Y107.414 E2.56257
G1 X82.636 Y104.250 E2.68037
G1 X80.706 Y100.639 E2.79816
G1 X79.518 Y96.722 E2.91594
G1 X79.044 Y91.833 E3.05727
G1 X77.064 Y91.833 E3.11422
G1 X77.064 Y89.362 E3.18534
G1 X84.436 Y89.362 E3.39744
G1 X84.436 Y93.400 E3.51364
G1 X88.293 Y93.400 E3.62462
G1 X88.102 Y94.028 E3.64350
G1 X88.056 Y94.500 E3.65714
G1 X88.102 Y94.972 E3.67078
G1 X88.240 Y95.425 E3.68442
G1 X88.463 Y95.843 E3.69806
G1 X88.764 Y96.210 E3.71170
G1 X89.130 Y96.511 E3.72534
G1 X89.549 Y96.734 E3.73898
G1 X90.002 Y96.872 E3.75262
G1 X90.474 Y96.918 E3.76626
G1 X90.946 Y96.872 E3.77990
G1 X91.656 Y96.656 E3.80125
G1 X91.174 Y98.244 E3.84900
G1 X91.001 Y100.000 E3.89976
G1 X91.174 Y101.756 E3.95052
G1 X91.686 Y103.444 E4.00128
G1 X92.518 Y105.000 E4.05204
G1 X93.637 Y106.363 E4.10280
G1 X95.001 Y107.483 E4.15356
G1 X96.556 Y108.314 E4.20432
G1 X98.691 Y108.962 E4.26849
G1 X98.348 Y109.242 E4.28123
G1 F1800.000 E2.28123
G92 E0
G1 X93.581 Y93.705 F9600.000
G1 E2.00000 F1800.000
G1 X92.972 Y94.446 E2.02760 F4500
G1 X92.708 Y93.575 E2.05381
G1 X92.485 Y93.157 E2.06745
G1 X92.184 Y92.790 E2.08109
G1 X91.817 Y92.489 E2.09473
G1 X91.399 Y92.266 E2.10837
G1 X90.946 Y92.128 E2.12201
G1 X90.474 Y92.082 E2.13565
G1 X90.002 Y92.128 E2.14929
G1 X89.379 Y92.317 E2.16801
G1 X89.157 Y91.985 E2.17952
G1 X90.432 Y90.432 E2.23733
G1 X92.482 Y88.749 E2.31365
G1 X94.822 Y87.498 E2.38998
G1 X97.360 Y86.728 E2.46631
G1 X100.000 Y86.468 E2.54263
G1 X102.640 Y86.728 E2.61896
G1 X105.179 Y87.498 E2.69529
G1 X107.518 Y88.749 E2.77161
G1 X109.569 Y90.432 E2.84794
G1 X110.843 Y91.985 E2.90575
G1 X110.621 Y92.317 E2.91726
G1 X109.998 Y92.128 E2.93598
G1 X109.526 Y92.082 E2.94962
G1 X109.055 Y92.128 E2.96326
G1 X108.601 Y92.266 E2.97690
G1 X108.183 Y92.489 E2.99054
G1 X107.817 Y92.790 E3.00418
G1 X107.516 Y93.157 E3.01782
G1 X107.292 Y93.575 E3.03146
G1 X107.028 Y94.446 E3.05766
G1 X106.364 Y93.637 E3.08780
G1 X105.000 Y92.517 E3.13856
G1 X103.444 Y91.686 E3.18932
G1 X101.756 Y91.174 E3.24008
G1 X100.000 Y91.001 E3.29084
G1 X98.245 Y91.174 E3.34160
G1 X96.556 Y91.686 E3.39236
G1 X95.000 Y92.517 E3.44312
G1 X93.629 Y93.647 E3.49425
G1 F1800.000 E1.49425
G92 E0
G1 X109.055 Y96.872 F9600.000
G1 E2.00000 F1800.000
G1 X109.526 Y96.918 E2.01364 F4500
G1 X109.998 Y96.872 E2.02728
G1 X110.452 Y96.734 E2.04092
G1 X110.870 Y96.511 E2.05456
G1 X111.236 Y96.210 E2.06820
G1 X111.537 Y95.843 E2.08184
G1 X111.761 Y95.425 E2.09548
G1 X111.898 Y94.972 E2.10912
G1 X111.945 Y94.500 E2.12276
G1 X111.898 Y94.028 E2.13640
G1 X111.708 Y93.400 E2.15529
G1 X115.564 Y93.400 E2.26625
G1 X115.564 Y89.362 E2.38245
G1 X122.936 Y89.362 E2.59456
G1 X122.936 Y91.833 E2.66567
G1 X120.957 Y91.833 E2.72261
G1 X120.482 Y96.722 E2.86394
G1 X119.294 Y100.639 E2.98172
G1 X117.364 Y104.250 E3.09951
G1 X114.767 Y107.414 E3.21731
G1 X111.603 Y110.011 E3.33510
G1 X107.992 Y111.941 E3.45290
G1 X104.074 Y113.130 E3.57069
G1 X101.491 Y113.385 E3.64539
G1 X101.338 Y113.015 E3.65690
G1 X101.710 Y112.710 E3.67076
G1 X102.011 Y112.343 E3.68440
G1 X102.234 Y111.925 E3.69804
G1 X102.372 Y111.472 E3.71168
G1 X102.418 Y111.000 E3.72532
G1 X102.372 Y110.528 E3.73896
G1 X102.234 Y110.075 E3.75260
G1 X102.011 Y109.657 E3.76624
G1 X101.710 Y109.290 E3.77988
G1 X101.310 Y108.962 E3.79478
G1 X103.444 Y108.314 E3.85894
G1 X105.000 Y107.483 E3.90971
G1 X106.364 Y106.363 E3.96046
G1 X106.419 Y106.295 E3.96300
G1 X107.483 Y105.000 E4.01123
G1 X108.314 Y103.444 E4.06199
G1 X108.827 Y101.756 E4.11275
G1 X108.999 Y100.000 E4.16351
G1 X108.826 Y98.244 E4.21427
G1 X108.345 Y96.656 E4.26201
G1 X108.983 Y96.850 E4.28120
G1 F1800.000 E2.28120
G92 E0
G1 X112.065 Y92.861 F9600.000
G1 E2.00000 F1800.000
G1 X115.025 Y92.861 E2.08516 F4050
G1 X115.025 Y88.822 E2.20136
G1 X123.475 Y88.822 E2.44449
G1 X123.475 Y92.372 E2.54664
G1 X121.446 Y92.372 E2.60501
G1 X121.014 Y96.827 E2.73380
G1 X119.795 Y100.846 E2.85465
G1 X117.815 Y104.551 E2.97550
G1 X115.150 Y107.797 E3.09635
G1 X111.904 Y110.462 E3.21720
G1 X108.199 Y112.442 E3.33805
G1 X104.180 Y113.661 E3.45891
G1 X100.000 Y114.074 E3.57976
G1 X95.820 Y113.661 E3.70061
G1 X91.801 Y112.442 E3.82147
G1 X88.097 Y110.462 E3.94232
G1 X84.850 Y107.797 E4.06317
G1 X82.185 Y104.551 E4.18402
G1 X80.206 Y100.847 E4.30487
G1 X78.986 Y96.827 E4.42572
G1 X78.554 Y92.372 E4.55451
G1 X76.525 Y92.372 E4.61289
G1 X76.525 Y88.822 E4.71504
G1 X84.975 Y88.822 E4.95817
G1 X84.975 Y92.861 E5.07437
G1 X87.935 Y92.861 E5.15954
G1 X88.298 Y92.181 E5.18172
G1 X90.049 Y90.048 E5.26110
G1 X92.181 Y88.298 E5.34049
G1 X94.614 Y86.998 E5.41987
G1 X97.255 Y86.197 E5.49925
G1 X100.000 Y85.926 E5.57864
G1 X102.746 Y86.197 E5.65802
G1 X105.386 Y86.998 E5.73740
G1 X107.819 Y88.298 E5.81679
G1 X109.952 Y90.048 E5.89617
G1 X111.702 Y92.181 E5.97555
G1 X112.030 Y92.795 E5.99557
G1 X112.147 Y93.354 F9600.000
G1 F1800.000 E3.99557
G92 E0
G1 X97.901 Y109.180 F9600.000
G1 E2.00000 F1800.000
G1 X97.800 Y109.079 E2.00289 F4950
G1 X96.658 Y108.733 E2.02715
G1 X97.573 Y109.648 E2.05346
G1 X97.338 Y110.209 E2.06580
G1 X95.069 Y107.940 E2.13099
G1 F1800.000 E0.13099
G92 E0
G1 X92.060 Y104.931 F9600.000
G1 E2.00000 F1800.000
G1 X79.465 Y92.336 E2.36188 F4950
G1 X79.551 Y93.217 E2.37987
G1 X97.220 Y110.887 E2.88754
G1 X97.342 Y111.804 E2.90633
G1 X79.636 Y94.099 E3.41503
G1 X79.722 Y94.980 E3.43302
G1 X97.671 Y112.929 E3.94872
G1 X96.788 Y112.842 E3.96675
G1 X79.807 Y95.861 E4.45462
G1 X79.920 Y96.770 E4.47323
G1 X95.877 Y112.727 E4.93168
G1 X94.735 Y112.381 E4.95593
G1 X80.267 Y97.913 E5.37160
G1 X80.613 Y99.055 E5.39586
G1 X93.592 Y112.034 E5.76875
G1 X92.450 Y111.688 E5.79300
G1 X80.960 Y100.198 E6.12311
G1 X81.725 Y101.759 F9600.000
G1 X90.888 Y110.922 E6.38637 F4950
G1 X89.178 Y110.008 F9600.000
G1 X82.639 Y103.469 E6.57424 F4950
G1 F1800.000 E4.57424
G92 E0
G1 X85.367 Y106.992 F9600.000
G1 E2.00000 F1800.000
G1 X85.655 Y107.281 E2.00829 F4950
G1 F1800.000 E0.00829
G92 E0
G1 X91.268 Y103.342 F9600.000
G1 E2.00000 F1800.000
G1 X77.658 Y89.733 E2.39103 F4950
G1 X77.435 Y90.306 E2.40352
G1 X78.591 Y91.462 E2.43674
G1 X77.795 Y91.462 E2.45291
G1 X77.435 Y91.102 E2.46326
G1 X78.454 Y89.733 F9600.000
G1 X90.921 Y102.200 E2.82146 F4950
G1 X90.750 Y101.233 E2.84142
G1 X79.249 Y89.733 E3.17183
G1 X80.045 Y89.733 E3.18800
G1 X90.663 Y100.350 E3.49304
G1 X90.671 Y99.563 E3.50904
G1 X84.880 Y93.771 E3.67543
G1 X85.676 Y93.771 E3.69160
G1 X90.743 Y98.838 E3.83718
G1 X90.823 Y98.123 E3.85181
G1 X89.939 Y97.238 E3.87722
G1 X90.759 Y97.263 E3.89390
G1 X91.008 Y97.512 E3.90106
G1 F1800.000 E1.90106
G92 E0
G1 X87.736 Y95.035 F9600.000
G1 E2.00000 F1800.000
G1 X86.472 Y93.771 E2.03632 F4950
G1 X87.267 Y93.771 E2.05249
G1 X87.711 Y94.215 E2.06523
G1 F1800.000 E0.06523
G92 E0
G1 X84.065 Y92.956 F9600.000
G1 E2.00000 F1800.000
G1 X80.841 Y89.733 E2.09262 F4950
G1 X81.637 Y89.733 E2.10878
G1 X84.065 Y92.160 E2.17853
G1 X84.065 Y91.364 E2.19470
G1 X82.433 Y89.733 E2.24159
G1 X83.229 Y89.733 E2.25775
G1 X84.065 Y90.568 E2.28177
G1 X84.065 Y89.773 E2.29794
G1 X84.025 Y89.733 E2.29909
G1 F1800.000 E0.29909
G92 E0
G1 X89.874 Y91.768 F9600.000
G1 E2.00000 F1800.000
G1 X89.841 Y91.736 E2.00092 F4950
G1 X90.196 Y91.303 E2.01215
G1 X90.616 Y91.723 E2.02407
G1 X90.551 Y90.871 E2.04123
G1 X91.672 Y91.991 E2.07302
G1 X90.953 Y90.484 F9600.000
G1 X93.630 Y93.162 E2.14902 F4950
G1 X93.229 Y93.548 E2.16020
G1 X92.983 Y93.302 E2.16719
G1 X94.063 Y92.807 E2.19103
G1 X91.385 Y90.129 E2.26703
G1 X91.818 Y89.774 E2.27825
G1 X94.495 Y92.452 E2.35425
G1 X94.953 Y92.122 E2.36557
G1 X92.250 Y89.419 E2.44229
G1 X92.683 Y89.064 E2.45352
G1 X95.466 Y91.848 E2.53252
G1 X95.980 Y91.574 E2.54419
G1 X93.195 Y88.789 E2.62323
G1 X93.708 Y88.514 E2.63491
G1 X96.507 Y91.313 E2.71434
G1 X97.111 Y91.130 E2.72701
G1 X94.221 Y88.240 E2.80903
G1 X94.734 Y87.966 E2.82071
G1 X97.715 Y90.947 E2.90531
G1 X98.347 Y90.791 E2.91837
G1 X95.298 Y87.742 E3.00491
G1 X95.902 Y87.558 E3.01758
G1 X99.064 Y90.720 E3.10732
G1 X99.781 Y90.650 E3.12178
G1 X96.506 Y87.375 E3.21471
G1 X97.110 Y87.192 E3.22738
G1 X100.606 Y90.688 E3.32660
G1 X101.480 Y90.774 E3.34422
G1 X97.767 Y87.061 E3.44959
G1 X98.484 Y86.990 E3.46405
G1 X102.508 Y91.014 E3.57825
G1 X103.664 Y91.383 E3.60260
G1 X99.201 Y86.920 E3.72927
G1 X99.918 Y86.849 E3.74372
G1 X105.594 Y92.525 E3.90480
G1 X107.067 Y93.210 F9600.000
G1 X100.773 Y86.917 E4.08340 F4950
G1 X101.647 Y87.003 E4.10102
